HQLightroomPresets 505 V.3.4/HQLightroomPresets 505 V.3.4/HQLightroomPresets ACR Presets/BW Beauty Black Soft ~ HQLightroomPresets .xmp
<x:xmpmeta xmlns:x="adobe:ns:meta/" x:xmptk="Adobe XMP Core 5.3-c007 1.136881, 2010/06/10-18:11:35        ">
 <rdf:RDF xmlns:rdf="http://www.w3.org/1999/02/22-rdf-syntax-ns#">
  <rdf:Description rdf:about=""
    xmlns:crs="http://ns.adobe.com/camera-raw-settings/1.0/"
   crs:Version="7.0"
   crs:ProcessVersion="6.7"
   crs:WhiteBalance="Custom"
   crs:Temperature="6214"
   crs:Tint="+17"
   crs:Saturation="-100"
   crs:Sharpness="55"
   crs:LuminanceSmoothing="12"
   crs:ColorNoiseReduction="28"
   crs:VignetteAmount="-34"
   crs:VignetteMidpoint="48"
   crs:ShadowTint="0"
   crs:RedHue="0"
   crs:RedSaturation="0"
   crs:GreenHue="0"
   crs:GreenSaturation="0"
   crs:BlueHue="0"
   crs:BlueSaturation="0"
   crs:Vibrance="+60"
   crs:Defringe="0"
   crs:HueAdjustmentRed="-5"
   crs:HueAdjustmentOrange="+26"
   crs:HueAdjustmentYellow="+71"
   crs:HueAdjustmentGreen="0"
   crs:HueAdjustmentAqua="+7"
   crs:HueAdjustmentBlue="+23"
   crs:HueAdjustmentPurple="-9"
   crs:HueAdjustmentMagenta="+2"
   crs:SaturationAdjustmentRed="-2"
   crs:SaturationAdjustmentOrange="+38"
   crs:SaturationAdjustmentYellow="+22"
   crs:SaturationAdjustmentGreen="-55"
   crs:SaturationAdjustmentAqua="+69"
   crs:SaturationAdjustmentBlue="+86"
   crs:SaturationAdjustmentPurple="+32"
   crs:SaturationAdjustmentMagenta="+15"
   crs:LuminanceAdjustmentRed="-2"
   crs:LuminanceAdjustmentOrange="-13"
   crs:LuminanceAdjustmentYellow="-13"
   crs:LuminanceAdjustmentGreen="-7"
   crs:LuminanceAdjustmentAqua="-60"
   crs:LuminanceAdjustmentBlue="-42"
   crs:LuminanceAdjustmentPurple="-28"
   crs:LuminanceAdjustmentMagenta="-13"
   crs:SplitToningShadowHue="245"
   crs:SplitToningShadowSaturation="35"
   crs:SplitToningHighlightHue="0"
   crs:SplitToningHighlightSaturation="0"
   crs:SplitToningBalance="+85"
   crs:ParametricShadows="0"
   crs:ParametricDarks="-85"
   crs:ParametricLights="0"
   crs:ParametricHighlights="-30"
   crs:ParametricShadowSplit="25"
   crs:ParametricMidtoneSplit="50"
   crs:ParametricHighlightSplit="75"
   crs:SharpenRadius="+1.0"
   crs:SharpenDetail="50"
   crs:SharpenEdgeMasking="0"
   crs:PostCropVignetteAmount="-32"
   crs:PostCropVignetteMidpoint="0"
   crs:PostCropVignetteFeather="87"
   crs:PostCropVignetteRoundness="+12"
   crs:PostCropVignetteStyle="1"
   crs:PostCropVignetteHighlightContrast="0"
   crs:GrainAmount="0"
   crs:LuminanceNoiseReductionDetail="50"
   crs:ColorNoiseReductionDetail="50"
   crs:LuminanceNoiseReductionContrast="0"
   crs:LensProfileEnable="0"
   crs:LensManualDistortionAmount="0"
   crs:PerspectiveVertical="0"
   crs:PerspectiveHorizontal="0"
   crs:PerspectiveRotate="0.0"
   crs:PerspectiveScale="100"
   crs:AutoLateralCA="0"
   crs:Exposure2012="+1.59"
   crs:Contrast2012="-20"
   crs:Highlights2012="0"
   crs:Shadows2012="+27"
   crs:Whites2012="-25"
   crs:Blacks2012="-22"
   crs:Clarity2012="-13"
   crs:ConvertToGrayscale="False"
   crs:ToneCurveName2012="Custom"
   crs:CameraProfile="ACR 4.4"
   crs:CameraProfileDigest="4A6ECDBDD018ECDD722F78DB5431BCC9"
   crs:LensProfileSetup="LensDefaults"
   crs:HasSettings="True">
   <crs:ToneCurvePV2012>
    <rdf:Seq>
     <rdf:li>0, 1</rdf:li>
     <rdf:li>255, 255</rdf:li>
    </rdf:Seq>
   </crs:ToneCurvePV2012>
   <crs:ToneCurvePV2012Red>
    <rdf:Seq>
     <rdf:li>0, 0</rdf:li>
     <rdf:li>255, 255</rdf:li>
    </rdf:Seq>
   </crs:ToneCurvePV2012Red>
   <crs:ToneCurvePV2012Green>
    <rdf:Seq>
     <rdf:li>0, 0</rdf:li>
     <rdf:li>255, 255</rdf:li>
    </rdf:Seq>
   </crs:ToneCurvePV2012Green>
   <crs:ToneCurvePV2012Blue>
    <rdf:Seq>
     <rdf:li>0, 0</rdf:li>
     <rdf:li>255, 255</rdf:li>
    </rdf:Seq>
   </crs:ToneCurvePV2012Blue>
  </rdf:Description>
 </rdf:RDF>
</x:xmpmeta>
