HQLightroomPresets 505 V.3.4/HQLightroomPresets 505 V.3.4/HQLightroomPresets ACR Presets/BW Whity Bang ~ HQLightroomPresets .xmp
<x:xmpmeta xmlns:x="adobe:ns:meta/" x:xmptk="Adobe XMP Core 5.3-c007 1.136881, 2010/06/10-18:11:35        ">
 <rdf:RDF xmlns:rdf="http://www.w3.org/1999/02/22-rdf-syntax-ns#">
  <rdf:Description rdf:about=""
    xmlns:crs="http://ns.adobe.com/camera-raw-settings/1.0/"
   crs:Version="7.0"
   crs:ProcessVersion="6.7"
   crs:WhiteBalance="Custom"
   crs:Temperature="12348"
   crs:Tint="+21"
   crs:Sharpness="59"
   crs:LuminanceSmoothing="13"
   crs:ColorNoiseReduction="25"
   crs:VignetteAmount="-5"
   crs:VignetteMidpoint="58"
   crs:ShadowTint="-92"
   crs:RedHue="+50"
   crs:RedSaturation="-27"
   crs:GreenHue="+5"
   crs:GreenSaturation="0"
   crs:BlueHue="0"
   crs:BlueSaturation="0"
   crs:Defringe="0"
   crs:GrayMixerRed="+15"
   crs:GrayMixerOrange="+29"
   crs:GrayMixerYellow="+4"
   crs:GrayMixerGreen="-19"
   crs:GrayMixerAqua="-21"
   crs:GrayMixerBlue="+1"
   crs:GrayMixerPurple="+10"
   crs:GrayMixerMagenta="+6"
   crs:SplitToningShadowHue="51"
   crs:SplitToningShadowSaturation="15"
   crs:SplitToningHighlightHue="32"
   crs:SplitToningHighlightSaturation="0"
   crs:SplitToningBalance="0"
   crs:ParametricShadows="-29"
   crs:ParametricDarks="-2"
   crs:ParametricLights="+26"
   crs:ParametricHighlights="-45"
   crs:ParametricShadowSplit="24"
   crs:ParametricMidtoneSplit="37"
   crs:ParametricHighlightSplit="75"
   crs:SharpenRadius="+1.0"
   crs:SharpenDetail="19"
   crs:SharpenEdgeMasking="0"
   crs:PostCropVignetteAmount="-46"
   crs:PostCropVignetteMidpoint="37"
   crs:PostCropVignetteFeather="84"
   crs:PostCropVignetteRoundness="+39"
   crs:PostCropVignetteStyle="1"
   crs:PostCropVignetteHighlightContrast="0"
   crs:GrainAmount="0"
   crs:LuminanceNoiseReductionDetail="50"
   crs:ColorNoiseReductionDetail="50"
   crs:LuminanceNoiseReductionContrast="0"
   crs:LensProfileEnable="0"
   crs:LensManualDistortionAmount="0"
   crs:PerspectiveVertical="0"
   crs:PerspectiveHorizontal="0"
   crs:PerspectiveRotate="0.0"
   crs:PerspectiveScale="100"
   crs:AutoLateralCA="0"
   crs:Exposure2012="-0.49"
   crs:Contrast2012="-7"
   crs:Highlights2012="-5"
   crs:Shadows2012="+32"
   crs:Whites2012="0"
   crs:Blacks2012="-20"
   crs:Clarity2012="0"
   crs:ConvertToGrayscale="True"
   crs:ToneCurveName2012="Custom"
   crs:CameraProfile="ACR 4.4"
   crs:CameraProfileDigest="4A6ECDBDD018ECDD722F78DB5431BCC9"
   crs:LensProfileSetup="LensDefaults"
   crs:HasSettings="True">
   <crs:ToneCurvePV2012>
    <rdf:Seq>
     <rdf:li>0, 0</rdf:li>
     <rdf:li>32, 22</rdf:li>
     <rdf:li>64, 56</rdf:li>
     <rdf:li>133, 131</rdf:li>
     <rdf:li>192, 196</rdf:li>
     <rdf:li>255, 255</rdf:li>
    </rdf:Seq>
   </crs:ToneCurvePV2012>
   <crs:ToneCurvePV2012Red>
    <rdf:Seq>
     <rdf:li>0, 0</rdf:li>
     <rdf:li>255, 255</rdf:li>
    </rdf:Seq>
   </crs:ToneCurvePV2012Red>
   <crs:ToneCurvePV2012Green>
    <rdf:Seq>
     <rdf:li>0, 0</rdf:li>
     <rdf:li>255, 255</rdf:li>
    </rdf:Seq>
   </crs:ToneCurvePV2012Green>
   <crs:ToneCurvePV2012Blue>
    <rdf:Seq>
     <rdf:li>0, 0</rdf:li>
     <rdf:li>255, 255</rdf:li>
    </rdf:Seq>
   </crs:ToneCurvePV2012Blue>
  </rdf:Description>
 </rdf:RDF>
</x:xmpmeta>
