HQLightroomPresets 505 V.3.4/HQLightroomPresets 505 V.3.4/HQLightroomPresets ACR Presets/Clean & Clear - Easy Going ~ HQLightroomPresets .xmp
<x:xmpmeta xmlns:x="adobe:ns:meta/" x:xmptk="Adobe XMP Core 5.3-c007 1.136881, 2010/06/10-18:11:35        ">
 <rdf:RDF xmlns:rdf="http://www.w3.org/1999/02/22-rdf-syntax-ns#">
  <rdf:Description rdf:about=""
    xmlns:crs="http://ns.adobe.com/camera-raw-settings/1.0/"
   crs:Version="7.0"
   crs:ProcessVersion="6.7"
   crs:WhiteBalance="Custom"
   crs:Temperature="6568"
   crs:Tint="+69"
   crs:Saturation="+12"
   crs:Sharpness="61"
   crs:LuminanceSmoothing="5"
   crs:ColorNoiseReduction="0"
   crs:VignetteAmount="-19"
   crs:VignetteMidpoint="50"
   crs:ShadowTint="0"
   crs:RedHue="+9"
   crs:RedSaturation="-19"
   crs:GreenHue="+27"
   crs:GreenSaturation="0"
   crs:BlueHue="-33"
   crs:BlueSaturation="+33"
   crs:Vibrance="-2"
   crs:Defringe="0"
   crs:HueAdjustmentRed="+7"
   crs:HueAdjustmentOrange="+1"
   crs:HueAdjustmentYellow="-15"
   crs:HueAdjustmentGreen="0"
   crs:HueAdjustmentAqua="0"
   crs:HueAdjustmentBlue="0"
   crs:HueAdjustmentPurple="0"
   crs:HueAdjustmentMagenta="0"
   crs:SaturationAdjustmentRed="-5"
   crs:SaturationAdjustmentOrange="-40"
   crs:SaturationAdjustmentYellow="-49"
   crs:SaturationAdjustmentGreen="0"
   crs:SaturationAdjustmentAqua="0"
   crs:SaturationAdjustmentBlue="0"
   crs:SaturationAdjustmentPurple="0"
   crs:SaturationAdjustmentMagenta="0"
   crs:LuminanceAdjustmentRed="-24"
   crs:LuminanceAdjustmentOrange="-18"
   crs:LuminanceAdjustmentYellow="0"
   crs:LuminanceAdjustmentGreen="0"
   crs:LuminanceAdjustmentAqua="+19"
   crs:LuminanceAdjustmentBlue="+29"
   crs:LuminanceAdjustmentPurple="+26"
   crs:LuminanceAdjustmentMagenta="0"
   crs:SplitToningShadowHue="203"
   crs:SplitToningShadowSaturation="36"
   crs:SplitToningHighlightHue="176"
   crs:SplitToningHighlightSaturation="15"
   crs:SplitToningBalance="-1"
   crs:ParametricShadows="+6"
   crs:ParametricDarks="-2"
   crs:ParametricLights="-7"
   crs:ParametricHighlights="+72"
   crs:ParametricShadowSplit="10"
   crs:ParametricMidtoneSplit="59"
   crs:ParametricHighlightSplit="90"
   crs:SharpenRadius="+1.0"
   crs:SharpenDetail="25"
   crs:SharpenEdgeMasking="0"
   crs:PostCropVignetteAmount="-31"
   crs:PostCropVignetteMidpoint="29"
   crs:PostCropVignetteFeather="97"
   crs:PostCropVignetteRoundness="+75"
   crs:PostCropVignetteStyle="1"
   crs:PostCropVignetteHighlightContrast="0"
   crs:GrainAmount="0"
   crs:LuminanceNoiseReductionDetail="50"
   crs:LuminanceNoiseReductionContrast="0"
   crs:LensProfileEnable="0"
   crs:LensManualDistortionAmount="0"
   crs:PerspectiveVertical="0"
   crs:PerspectiveHorizontal="0"
   crs:PerspectiveRotate="0.0"
   crs:PerspectiveScale="100"
   crs:AutoLateralCA="0"
   crs:Exposure2012="+0.98"
   crs:Contrast2012="+6"
   crs:Highlights2012="-4"
   crs:Shadows2012="+32"
   crs:Whites2012="0"
   crs:Blacks2012="-12"
   crs:Clarity2012="+9"
   crs:ConvertToGrayscale="False"
   crs:ToneCurveName2012="Linear"
   crs:CameraProfile="ACR 4.4"
   crs:CameraProfileDigest="4A6ECDBDD018ECDD722F78DB5431BCC9"
   crs:LensProfileSetup="LensDefaults"
   crs:HasSettings="True">
   <crs:ToneCurvePV2012>
    <rdf:Seq>
     <rdf:li>0, 0</rdf:li>
     <rdf:li>255, 255</rdf:li>
    </rdf:Seq>
   </crs:ToneCurvePV2012>
   <crs:ToneCurvePV2012Red>
    <rdf:Seq>
     <rdf:li>0, 0</rdf:li>
     <rdf:li>255, 255</rdf:li>
    </rdf:Seq>
   </crs:ToneCurvePV2012Red>
   <crs:ToneCurvePV2012Green>
    <rdf:Seq>
     <rdf:li>0, 0</rdf:li>
     <rdf:li>255, 255</rdf:li>
    </rdf:Seq>
   </crs:ToneCurvePV2012Green>
   <crs:ToneCurvePV2012Blue>
    <rdf:Seq>
     <rdf:li>0, 0</rdf:li>
     <rdf:li>255, 255</rdf:li>
    </rdf:Seq>
   </crs:ToneCurvePV2012Blue>
  </rdf:Description>
 </rdf:RDF>
</x:xmpmeta>
