HQLightroomPresets 505 V.3.4/HQLightroomPresets 505 V.3.4/HQLightroomPresets ACR Presets/Dramatic - Grass Hopper ~ HQLightroomPresets .xmp
<x:xmpmeta xmlns:x="adobe:ns:meta/" x:xmptk="Adobe XMP Core 5.3-c007 1.136881, 2010/06/10-18:11:35        ">
 <rdf:RDF xmlns:rdf="http://www.w3.org/1999/02/22-rdf-syntax-ns#">
  <rdf:Description rdf:about=""
    xmlns:crs="http://ns.adobe.com/camera-raw-settings/1.0/"
   crs:Version="7.0"
   crs:ProcessVersion="6.7"
   crs:WhiteBalance="Custom"
   crs:Temperature="6957"
   crs:Tint="+17"
   crs:Saturation="-45"
   crs:Sharpness="43"
   crs:LuminanceSmoothing="13"
   crs:ColorNoiseReduction="28"
   crs:VignetteAmount="-15"
   crs:VignetteMidpoint="20"
   crs:ShadowTint="0"
   crs:RedHue="0"
   crs:RedSaturation="+2"
   crs:GreenHue="+47"
   crs:GreenSaturation="-39"
   crs:BlueHue="0"
   crs:BlueSaturation="0"
   crs:Vibrance="-14"
   crs:Defringe="0"
   crs:HueAdjustmentRed="-1"
   crs:HueAdjustmentOrange="+30"
   crs:HueAdjustmentYellow="+61"
   crs:HueAdjustmentGreen="+10"
   crs:HueAdjustmentAqua="+7"
   crs:HueAdjustmentBlue="+26"
   crs:HueAdjustmentPurple="-5"
   crs:HueAdjustmentMagenta="+5"
   crs:SaturationAdjustmentRed="+26"
   crs:SaturationAdjustmentOrange="+35"
   crs:SaturationAdjustmentYellow="+21"
   crs:SaturationAdjustmentGreen="-52"
   crs:SaturationAdjustmentAqua="+61"
   crs:SaturationAdjustmentBlue="+80"
   crs:SaturationAdjustmentPurple="+29"
   crs:SaturationAdjustmentMagenta="+12"
   crs:LuminanceAdjustmentRed="-21"
   crs:LuminanceAdjustmentOrange="-5"
   crs:LuminanceAdjustmentYellow="-5"
   crs:LuminanceAdjustmentGreen="-2"
   crs:LuminanceAdjustmentAqua="-19"
   crs:LuminanceAdjustmentBlue="-21"
   crs:LuminanceAdjustmentPurple="-15"
   crs:LuminanceAdjustmentMagenta="-12"
   crs:SplitToningShadowHue="236"
   crs:SplitToningShadowSaturation="35"
   crs:SplitToningHighlightHue="259"
   crs:SplitToningHighlightSaturation="0"
   crs:SplitToningBalance="+85"
   crs:ParametricShadows="0"
   crs:ParametricDarks="-27"
   crs:ParametricLights="0"
   crs:ParametricHighlights="-30"
   crs:ParametricShadowSplit="25"
   crs:ParametricMidtoneSplit="50"
   crs:ParametricHighlightSplit="75"
   crs:SharpenRadius="+1.0"
   crs:SharpenDetail="50"
   crs:SharpenEdgeMasking="0"
   crs:PostCropVignetteAmount="-15"
   crs:PostCropVignetteMidpoint="0"
   crs:PostCropVignetteFeather="100"
   crs:PostCropVignetteRoundness="+5"
   crs:PostCropVignetteStyle="1"
   crs:PostCropVignetteHighlightContrast="0"
   crs:GrainAmount="0"
   crs:LuminanceNoiseReductionDetail="50"
   crs:ColorNoiseReductionDetail="50"
   crs:LuminanceNoiseReductionContrast="0"
   crs:LensProfileEnable="0"
   crs:LensManualDistortionAmount="0"
   crs:PerspectiveVertical="0"
   crs:PerspectiveHorizontal="0"
   crs:PerspectiveRotate="0.0"
   crs:PerspectiveScale="100"
   crs:AutoLateralCA="0"
   crs:Exposure2012="+1.22"
   crs:Contrast2012="-7"
   crs:Highlights2012="-7"
   crs:Shadows2012="+7"
   crs:Whites2012="-25"
   crs:Blacks2012="-20"
   crs:Clarity2012="+14"
   crs:ConvertToGrayscale="False"
   crs:ToneCurveName2012="Custom"
   crs:CameraProfile="ACR 4.4"
   crs:CameraProfileDigest="4A6ECDBDD018ECDD722F78DB5431BCC9"
   crs:LensProfileSetup="LensDefaults"
   crs:HasSettings="True">
   <crs:ToneCurvePV2012>
    <rdf:Seq>
     <rdf:li>0, 0</rdf:li>
     <rdf:li>88, 73</rdf:li>
     <rdf:li>130, 121</rdf:li>
     <rdf:li>255, 255</rdf:li>
    </rdf:Seq>
   </crs:ToneCurvePV2012>
   <crs:ToneCurvePV2012Red>
    <rdf:Seq>
     <rdf:li>0, 0</rdf:li>
     <rdf:li>255, 255</rdf:li>
    </rdf:Seq>
   </crs:ToneCurvePV2012Red>
   <crs:ToneCurvePV2012Green>
    <rdf:Seq>
     <rdf:li>0, 0</rdf:li>
     <rdf:li>255, 255</rdf:li>
    </rdf:Seq>
   </crs:ToneCurvePV2012Green>
   <crs:ToneCurvePV2012Blue>
    <rdf:Seq>
     <rdf:li>0, 0</rdf:li>
     <rdf:li>255, 255</rdf:li>
    </rdf:Seq>
   </crs:ToneCurvePV2012Blue>
  </rdf:Description>
 </rdf:RDF>
</x:xmpmeta>
