HQLightroomPresets 505 V.3.4/HQLightroomPresets 505 V.3.4/HQLightroomPresets ACR Presets/Easy Shade - Salt Sugar ~ HQLightroomPresets .xmp
<x:xmpmeta xmlns:x="adobe:ns:meta/" x:xmptk="Adobe XMP Core 5.3-c007 1.136881, 2010/06/10-18:11:35        ">
 <rdf:RDF xmlns:rdf="http://www.w3.org/1999/02/22-rdf-syntax-ns#">
  <rdf:Description rdf:about=""
    xmlns:crs="http://ns.adobe.com/camera-raw-settings/1.0/"
   crs:Version="7.0"
   crs:ProcessVersion="6.7"
   crs:WhiteBalance="Custom"
   crs:Temperature="5519"
   crs:Tint="-33"
   crs:Saturation="-22"
   crs:Sharpness="71"
   crs:LuminanceSmoothing="18"
   crs:ColorNoiseReduction="25"
   crs:VignetteAmount="0"
   crs:ShadowTint="0"
   crs:RedHue="0"
   crs:RedSaturation="0"
   crs:GreenHue="0"
   crs:GreenSaturation="0"
   crs:BlueHue="0"
   crs:BlueSaturation="0"
   crs:Vibrance="+63"
   crs:Defringe="0"
   crs:HueAdjustmentRed="0"
   crs:HueAdjustmentOrange="0"
   crs:HueAdjustmentYellow="0"
   crs:HueAdjustmentGreen="0"
   crs:HueAdjustmentAqua="0"
   crs:HueAdjustmentBlue="0"
   crs:HueAdjustmentPurple="0"
   crs:HueAdjustmentMagenta="0"
   crs:SaturationAdjustmentRed="-18"
   crs:SaturationAdjustmentOrange="-20"
   crs:SaturationAdjustmentYellow="-18"
   crs:SaturationAdjustmentGreen="0"
   crs:SaturationAdjustmentAqua="0"
   crs:SaturationAdjustmentBlue="+2"
   crs:SaturationAdjustmentPurple="0"
   crs:SaturationAdjustmentMagenta="0"
   crs:LuminanceAdjustmentRed="0"
   crs:LuminanceAdjustmentOrange="0"
   crs:LuminanceAdjustmentYellow="0"
   crs:LuminanceAdjustmentGreen="0"
   crs:LuminanceAdjustmentAqua="0"
   crs:LuminanceAdjustmentBlue="0"
   crs:LuminanceAdjustmentPurple="0"
   crs:LuminanceAdjustmentMagenta="0"
   crs:SplitToningShadowHue="287"
   crs:SplitToningShadowSaturation="21"
   crs:SplitToningHighlightHue="0"
   crs:SplitToningHighlightSaturation="0"
   crs:SplitToningBalance="0"
   crs:ParametricShadows="0"
   crs:ParametricDarks="0"
   crs:ParametricLights="-2"
   crs:ParametricHighlights="0"
   crs:ParametricShadowSplit="25"
   crs:ParametricMidtoneSplit="50"
   crs:ParametricHighlightSplit="75"
   crs:SharpenRadius="+1.0"
   crs:SharpenDetail="25"
   crs:SharpenEdgeMasking="0"
   crs:PostCropVignetteAmount="-39"
   crs:PostCropVignetteMidpoint="7"
   crs:PostCropVignetteFeather="90"
   crs:PostCropVignetteRoundness="+46"
   crs:PostCropVignetteStyle="1"
   crs:PostCropVignetteHighlightContrast="0"
   crs:GrainAmount="0"
   crs:LuminanceNoiseReductionDetail="50"
   crs:ColorNoiseReductionDetail="50"
   crs:LuminanceNoiseReductionContrast="0"
   crs:LensProfileEnable="0"
   crs:LensManualDistortionAmount="0"
   crs:PerspectiveVertical="0"
   crs:PerspectiveHorizontal="0"
   crs:PerspectiveRotate="0.0"
   crs:PerspectiveScale="100"
   crs:AutoLateralCA="0"
   crs:Exposure2012="+0.73"
   crs:Contrast2012="+5"
   crs:Highlights2012="-16"
   crs:Shadows2012="+16"
   crs:Whites2012="-14"
   crs:Blacks2012="0"
   crs:Clarity2012="+20"
   crs:ConvertToGrayscale="False"
   crs:ToneCurveName2012="Custom"
   crs:CameraProfile="ACR 4.4"
   crs:CameraProfileDigest="4A6ECDBDD018ECDD722F78DB5431BCC9"
   crs:LensProfileSetup="LensDefaults"
   crs:HasSettings="True">
   <crs:ToneCurvePV2012>
    <rdf:Seq>
     <rdf:li>0, 22</rdf:li>
     <rdf:li>65, 67</rdf:li>
     <rdf:li>130, 121</rdf:li>
     <rdf:li>187, 175</rdf:li>
     <rdf:li>255, 229</rdf:li>
    </rdf:Seq>
   </crs:ToneCurvePV2012>
   <crs:ToneCurvePV2012Red>
    <rdf:Seq>
     <rdf:li>0, 0</rdf:li>
     <rdf:li>255, 255</rdf:li>
    </rdf:Seq>
   </crs:ToneCurvePV2012Red>
   <crs:ToneCurvePV2012Green>
    <rdf:Seq>
     <rdf:li>0, 0</rdf:li>
     <rdf:li>255, 255</rdf:li>
    </rdf:Seq>
   </crs:ToneCurvePV2012Green>
   <crs:ToneCurvePV2012Blue>
    <rdf:Seq>
     <rdf:li>0, 0</rdf:li>
     <rdf:li>255, 255</rdf:li>
    </rdf:Seq>
   </crs:ToneCurvePV2012Blue>
  </rdf:Description>
 </rdf:RDF>
</x:xmpmeta>
