HQLightroomPresets 505 V.3.4/HQLightroomPresets 505 V.3.4/HQLightroomPresets ACR Presets/Glow & Smooth - Beauty Bright ~ HQLightroomPresets.xmp
<x:xmpmeta xmlns:x="adobe:ns:meta/" x:xmptk="Adobe XMP Core 5.3-c007 1.136881, 2010/06/10-18:11:35        ">
 <rdf:RDF xmlns:rdf="http://www.w3.org/1999/02/22-rdf-syntax-ns#">
  <rdf:Description rdf:about=""
    xmlns:crs="http://ns.adobe.com/camera-raw-settings/1.0/"
   crs:Version="7.0"
   crs:ProcessVersion="6.7"
   crs:WhiteBalance="Custom"
   crs:Temperature="4659"
   crs:Tint="+7"
   crs:Saturation="+12"
   crs:Sharpness="60"
   crs:LuminanceSmoothing="52"
   crs:ColorNoiseReduction="84"
   crs:VignetteAmount="-3"
   crs:VignetteMidpoint="20"
   crs:ShadowTint="0"
   crs:RedHue="0"
   crs:RedSaturation="0"
   crs:GreenHue="0"
   crs:GreenSaturation="0"
   crs:BlueHue="0"
   crs:BlueSaturation="0"
   crs:Vibrance="-12"
   crs:Defringe="0"
   crs:HueAdjustmentRed="0"
   crs:HueAdjustmentOrange="-13"
   crs:HueAdjustmentYellow="-13"
   crs:HueAdjustmentGreen="-100"
   crs:HueAdjustmentAqua="0"
   crs:HueAdjustmentBlue="0"
   crs:HueAdjustmentPurple="0"
   crs:HueAdjustmentMagenta="0"
   crs:SaturationAdjustmentRed="+32"
   crs:SaturationAdjustmentOrange="+38"
   crs:SaturationAdjustmentYellow="+22"
   crs:SaturationAdjustmentGreen="+21"
   crs:SaturationAdjustmentAqua="0"
   crs:SaturationAdjustmentBlue="0"
   crs:SaturationAdjustmentPurple="0"
   crs:SaturationAdjustmentMagenta="0"
   crs:LuminanceAdjustmentRed="+61"
   crs:LuminanceAdjustmentOrange="+55"
   crs:LuminanceAdjustmentYellow="+57"
   crs:LuminanceAdjustmentGreen="-4"
   crs:LuminanceAdjustmentAqua="0"
   crs:LuminanceAdjustmentBlue="0"
   crs:LuminanceAdjustmentPurple="0"
   crs:LuminanceAdjustmentMagenta="0"
   crs:SplitToningShadowHue="29"
   crs:SplitToningShadowSaturation="52"
   crs:SplitToningHighlightHue="194"
   crs:SplitToningHighlightSaturation="0"
   crs:SplitToningBalance="+85"
   crs:ParametricShadows="-6"
   crs:ParametricDarks="-6"
   crs:ParametricLights="+3"
   crs:ParametricHighlights="-30"
   crs:ParametricShadowSplit="25"
   crs:ParametricMidtoneSplit="50"
   crs:ParametricHighlightSplit="75"
   crs:SharpenRadius="+1.0"
   crs:SharpenDetail="50"
   crs:SharpenEdgeMasking="0"
   crs:PostCropVignetteAmount="0"
   crs:GrainAmount="0"
   crs:LuminanceNoiseReductionDetail="76"
   crs:ColorNoiseReductionDetail="72"
   crs:LuminanceNoiseReductionContrast="6"
   crs:LensProfileEnable="0"
   crs:LensManualDistortionAmount="0"
   crs:PerspectiveVertical="0"
   crs:PerspectiveHorizontal="0"
   crs:PerspectiveRotate="0.0"
   crs:PerspectiveScale="100"
   crs:AutoLateralCA="0"
   crs:Exposure2012="+0.24"
   crs:Contrast2012="-7"
   crs:Highlights2012="-5"
   crs:Shadows2012="+41"
   crs:Whites2012="-12"
   crs:Blacks2012="-32"
   crs:Clarity2012="-8"
   crs:ConvertToGrayscale="False"
   crs:ToneCurveName2012="Custom"
   crs:CameraProfile="ACR 4.4"
   crs:CameraProfileDigest="4A6ECDBDD018ECDD722F78DB5431BCC9"
   crs:LensProfileSetup="LensDefaults"
   crs:HasSettings="True">
   <crs:ToneCurvePV2012>
    <rdf:Seq>
     <rdf:li>0, 32</rdf:li>
     <rdf:li>91, 91</rdf:li>
     <rdf:li>205, 215</rdf:li>
     <rdf:li>236, 231</rdf:li>
     <rdf:li>251, 225</rdf:li>
    </rdf:Seq>
   </crs:ToneCurvePV2012>
   <crs:ToneCurvePV2012Red>
    <rdf:Seq>
     <rdf:li>0, 0</rdf:li>
     <rdf:li>255, 255</rdf:li>
    </rdf:Seq>
   </crs:ToneCurvePV2012Red>
   <crs:ToneCurvePV2012Green>
    <rdf:Seq>
     <rdf:li>0, 0</rdf:li>
     <rdf:li>255, 255</rdf:li>
    </rdf:Seq>
   </crs:ToneCurvePV2012Green>
   <crs:ToneCurvePV2012Blue>
    <rdf:Seq>
     <rdf:li>0, 0</rdf:li>
     <rdf:li>255, 255</rdf:li>
    </rdf:Seq>
   </crs:ToneCurvePV2012Blue>
  </rdf:Description>
 </rdf:RDF>
</x:xmpmeta>
