HQLightroomPresets 505 V.3.4/HQLightroomPresets 505 V.3.4/HQLightroomPresets ACR Presets/Update #2 - Ghost Skin ~ HQLightroomPresets.xmp
<x:xmpmeta xmlns:x="adobe:ns:meta/" x:xmptk="Adobe XMP Core 5.3-c007 1.136881, 2010/06/10-18:11:35        ">
 <rdf:RDF xmlns:rdf="http://www.w3.org/1999/02/22-rdf-syntax-ns#">
  <rdf:Description rdf:about=""
    xmlns:crs="http://ns.adobe.com/camera-raw-settings/1.0/"
   crs:Version="7.0"
   crs:ProcessVersion="6.7"
   crs:WhiteBalance="Custom"
   crs:IncrementalTemperature="+45"
   crs:IncrementalTint="-13"
   crs:Saturation="+49"
   crs:Sharpness="66"
   crs:LuminanceSmoothing="43"
   crs:ColorNoiseReduction="18"
   crs:VignetteAmount="0"
   crs:ShadowTint="+43"
   crs:RedHue="-33"
   crs:RedSaturation="-66"
   crs:GreenHue="+100"
   crs:GreenSaturation="+3"
   crs:BlueHue="-36"
   crs:BlueSaturation="-100"
   crs:Vibrance="-20"
   crs:Defringe="0"
   crs:HueAdjustmentRed="-30"
   crs:HueAdjustmentOrange="0"
   crs:HueAdjustmentYellow="0"
   crs:HueAdjustmentGreen="-45"
   crs:HueAdjustmentAqua="+14"
   crs:HueAdjustmentBlue="-2"
   crs:HueAdjustmentPurple="0"
   crs:HueAdjustmentMagenta="0"
   crs:SaturationAdjustmentRed="-64"
   crs:SaturationAdjustmentOrange="-11"
   crs:SaturationAdjustmentYellow="+2"
   crs:SaturationAdjustmentGreen="-95"
   crs:SaturationAdjustmentAqua="-63"
   crs:SaturationAdjustmentBlue="+5"
   crs:SaturationAdjustmentPurple="0"
   crs:SaturationAdjustmentMagenta="0"
   crs:LuminanceAdjustmentRed="+93"
   crs:LuminanceAdjustmentOrange="+100"
   crs:LuminanceAdjustmentYellow="+100"
   crs:LuminanceAdjustmentGreen="+100"
   crs:LuminanceAdjustmentAqua="+61"
   crs:LuminanceAdjustmentBlue="+57"
   crs:LuminanceAdjustmentPurple="+57"
   crs:LuminanceAdjustmentMagenta="+64"
   crs:SplitToningShadowHue="232"
   crs:SplitToningShadowSaturation="66"
   crs:SplitToningHighlightHue="53"
   crs:SplitToningHighlightSaturation="18"
   crs:SplitToningBalance="+49"
   crs:ParametricShadows="0"
   crs:ParametricDarks="+52"
   crs:ParametricLights="0"
   crs:ParametricHighlights="0"
   crs:ParametricShadowSplit="10"
   crs:ParametricMidtoneSplit="59"
   crs:ParametricHighlightSplit="90"
   crs:SharpenRadius="+1.1"
   crs:SharpenDetail="28"
   crs:SharpenEdgeMasking="0"
   crs:PostCropVignetteAmount="-45"
   crs:PostCropVignetteMidpoint="5"
   crs:PostCropVignetteFeather="92"
   crs:PostCropVignetteRoundness="+56"
   crs:PostCropVignetteStyle="1"
   crs:PostCropVignetteHighlightContrast="100"
   crs:GrainAmount="0"
   crs:LuminanceNoiseReductionDetail="90"
   crs:ColorNoiseReductionDetail="12"
   crs:LuminanceNoiseReductionContrast="0"
   crs:LensProfileEnable="0"
   crs:LensManualDistortionAmount="0"
   crs:PerspectiveVertical="0"
   crs:PerspectiveHorizontal="0"
   crs:PerspectiveRotate="0.0"
   crs:PerspectiveScale="100"
   crs:AutoLateralCA="0"
   crs:Exposure2012="-0.24"
   crs:Contrast2012="-2"
   crs:Highlights2012="-14"
   crs:Shadows2012="+14"
   crs:Whites2012="0"
   crs:Blacks2012="-5"
   crs:Clarity2012="-20"
   crs:ConvertToGrayscale="False"
   crs:ToneCurveName2012="Custom"
   crs:CameraProfile="Embedded"
   crs:CameraProfileDigest="54650A341B5B5CCAE8442D0B43A92BCE"
   crs:LensProfileSetup="LensDefaults"
   crs:HasSettings="True">
   <crs:ToneCurvePV2012>
    <rdf:Seq>
     <rdf:li>0, 42</rdf:li>
     <rdf:li>114, 79</rdf:li>
     <rdf:li>255, 255</rdf:li>
    </rdf:Seq>
   </crs:ToneCurvePV2012>
   <crs:ToneCurvePV2012Red>
    <rdf:Seq>
     <rdf:li>0, 0</rdf:li>
     <rdf:li>255, 255</rdf:li>
    </rdf:Seq>
   </crs:ToneCurvePV2012Red>
   <crs:ToneCurvePV2012Green>
    <rdf:Seq>
     <rdf:li>0, 0</rdf:li>
     <rdf:li>255, 255</rdf:li>
    </rdf:Seq>
   </crs:ToneCurvePV2012Green>
   <crs:ToneCurvePV2012Blue>
    <rdf:Seq>
     <rdf:li>0, 0</rdf:li>
     <rdf:li>255, 255</rdf:li>
    </rdf:Seq>
   </crs:ToneCurvePV2012Blue>
  </rdf:Description>
 </rdf:RDF>
</x:xmpmeta>
