HQLightroomPresets 505 V.3.4/HQLightroomPresets 505 V.3.4/HQLightroomPresets ACR Presets/Update #1 - Saturated Mind ~ HQLightroomPresets .xmp
<x:xmpmeta xmlns:x="adobe:ns:meta/" x:xmptk="Adobe XMP Core 5.3-c007 1.136881, 2010/06/10-18:11:35        ">
 <rdf:RDF xmlns:rdf="http://www.w3.org/1999/02/22-rdf-syntax-ns#">
  <rdf:Description rdf:about=""
    xmlns:crs="http://ns.adobe.com/camera-raw-settings/1.0/"
   crs:Version="7.0"
   crs:ProcessVersion="6.7"
   crs:WhiteBalance="Custom"
   crs:Temperature="5185"
   crs:Tint="-43"
   crs:Saturation="-3"
   crs:Sharpness="57"
   crs:LuminanceSmoothing="7"
   crs:ColorNoiseReduction="25"
   crs:VignetteAmount="-1"
   crs:VignetteMidpoint="20"
   crs:ShadowTint="+54"
   crs:RedHue="+43"
   crs:RedSaturation="-8"
   crs:GreenHue="+40"
   crs:GreenSaturation="+24"
   crs:BlueHue="-10"
   crs:BlueSaturation="0"
   crs:Vibrance="-17"
   crs:Defringe="0"
   crs:HueAdjustmentRed="0"
   crs:HueAdjustmentOrange="0"
   crs:HueAdjustmentYellow="0"
   crs:HueAdjustmentGreen="0"
   crs:HueAdjustmentAqua="0"
   crs:HueAdjustmentBlue="0"
   crs:HueAdjustmentPurple="0"
   crs:HueAdjustmentMagenta="0"
   crs:SaturationAdjustmentRed="-50"
   crs:SaturationAdjustmentOrange="-57"
   crs:SaturationAdjustmentYellow="-52"
   crs:SaturationAdjustmentGreen="-50"
   crs:SaturationAdjustmentAqua="0"
   crs:SaturationAdjustmentBlue="+59"
   crs:SaturationAdjustmentPurple="0"
   crs:SaturationAdjustmentMagenta="0"
   crs:LuminanceAdjustmentRed="+29"
   crs:LuminanceAdjustmentOrange="+47"
   crs:LuminanceAdjustmentYellow="+87"
   crs:LuminanceAdjustmentGreen="0"
   crs:LuminanceAdjustmentAqua="0"
   crs:LuminanceAdjustmentBlue="-38"
   crs:LuminanceAdjustmentPurple="0"
   crs:LuminanceAdjustmentMagenta="0"
   crs:SplitToningShadowHue="265"
   crs:SplitToningShadowSaturation="56"
   crs:SplitToningHighlightHue="269"
   crs:SplitToningHighlightSaturation="13"
   crs:SplitToningBalance="+53"
   crs:ParametricShadows="0"
   crs:ParametricDarks="0"
   crs:ParametricLights="-2"
   crs:ParametricHighlights="0"
   crs:ParametricShadowSplit="25"
   crs:ParametricMidtoneSplit="50"
   crs:ParametricHighlightSplit="75"
   crs:SharpenRadius="+1.0"
   crs:SharpenDetail="25"
   crs:SharpenEdgeMasking="0"
   crs:PostCropVignetteAmount="0"
   crs:GrainAmount="0"
   crs:LuminanceNoiseReductionDetail="50"
   crs:ColorNoiseReductionDetail="50"
   crs:LuminanceNoiseReductionContrast="0"
   crs:LensProfileEnable="0"
   crs:LensManualDistortionAmount="0"
   crs:PerspectiveVertical="0"
   crs:PerspectiveHorizontal="0"
   crs:PerspectiveRotate="0.0"
   crs:PerspectiveScale="100"
   crs:AutoLateralCA="0"
   crs:Exposure2012="0.00"
   crs:Contrast2012="-38"
   crs:Highlights2012="-10"
   crs:Shadows2012="+5"
   crs:Whites2012="-5"
   crs:Blacks2012="-15"
   crs:Clarity2012="0"
   crs:ConvertToGrayscale="False"
   crs:ToneCurveName2012="Custom"
   crs:CameraProfile="Adobe Standard"
   crs:CameraProfileDigest="A26CCCF0806A1BCDE138F8614C44D6DA"
   crs:LensProfileSetup="LensDefaults"
   crs:HasSettings="True">
   <crs:ToneCurvePV2012>
    <rdf:Seq>
     <rdf:li>0, 38</rdf:li>
     <rdf:li>55, 52</rdf:li>
     <rdf:li>125, 121</rdf:li>
     <rdf:li>187, 180</rdf:li>
     <rdf:li>255, 224</rdf:li>
    </rdf:Seq>
   </crs:ToneCurvePV2012>
   <crs:ToneCurvePV2012Red>
    <rdf:Seq>
     <rdf:li>0, 0</rdf:li>
     <rdf:li>255, 255</rdf:li>
    </rdf:Seq>
   </crs:ToneCurvePV2012Red>
   <crs:ToneCurvePV2012Green>
    <rdf:Seq>
     <rdf:li>0, 0</rdf:li>
     <rdf:li>255, 255</rdf:li>
    </rdf:Seq>
   </crs:ToneCurvePV2012Green>
   <crs:ToneCurvePV2012Blue>
    <rdf:Seq>
     <rdf:li>0, 0</rdf:li>
     <rdf:li>255, 255</rdf:li>
    </rdf:Seq>
   </crs:ToneCurvePV2012Blue>
  </rdf:Description>
 </rdf:RDF>
</x:xmpmeta>
