HQLightroomPresets 505 V.3.4/HQLightroomPresets 505 V.3.4/HQLightroomPresets ACR Presets/Update #2 - Thick Light ~ HQLightroomPresets.xmp
<x:xmpmeta xmlns:x="adobe:ns:meta/" x:xmptk="Adobe XMP Core 5.3-c007 1.136881, 2010/06/10-18:11:35        ">
 <rdf:RDF xmlns:rdf="http://www.w3.org/1999/02/22-rdf-syntax-ns#">
  <rdf:Description rdf:about=""
    xmlns:crs="http://ns.adobe.com/camera-raw-settings/1.0/"
   crs:Version="7.0"
   crs:ProcessVersion="6.7"
   crs:WhiteBalance="Custom"
   crs:IncrementalTemperature="+22"
   crs:IncrementalTint="-10"
   crs:Saturation="-26"
   crs:Sharpness="50"
   crs:LuminanceSmoothing="34"
   crs:ColorNoiseReduction="100"
   crs:VignetteAmount="0"
   crs:ShadowTint="0"
   crs:RedHue="+22"
   crs:RedSaturation="-10"
   crs:GreenHue="+1"
   crs:GreenSaturation="-20"
   crs:BlueHue="-15"
   crs:BlueSaturation="+1"
   crs:Vibrance="+13"
   crs:Defringe="0"
   crs:HueAdjustmentRed="+4"
   crs:HueAdjustmentOrange="-22"
   crs:HueAdjustmentYellow="+5"
   crs:HueAdjustmentGreen="-38"
   crs:HueAdjustmentAqua="-5"
   crs:HueAdjustmentBlue="0"
   crs:HueAdjustmentPurple="0"
   crs:HueAdjustmentMagenta="0"
   crs:SaturationAdjustmentRed="-69"
   crs:SaturationAdjustmentOrange="-4"
   crs:SaturationAdjustmentYellow="-7"
   crs:SaturationAdjustmentGreen="-49"
   crs:SaturationAdjustmentAqua="-50"
   crs:SaturationAdjustmentBlue="-50"
   crs:SaturationAdjustmentPurple="-50"
   crs:SaturationAdjustmentMagenta="-50"
   crs:LuminanceAdjustmentRed="0"
   crs:LuminanceAdjustmentOrange="0"
   crs:LuminanceAdjustmentYellow="0"
   crs:LuminanceAdjustmentGreen="0"
   crs:LuminanceAdjustmentAqua="0"
   crs:LuminanceAdjustmentBlue="0"
   crs:LuminanceAdjustmentPurple="0"
   crs:LuminanceAdjustmentMagenta="0"
   crs:SplitToningShadowHue="248"
   crs:SplitToningShadowSaturation="28"
   crs:SplitToningHighlightHue="161"
   crs:SplitToningHighlightSaturation="14"
   crs:SplitToningBalance="0"
   crs:ParametricShadows="0"
   crs:ParametricDarks="-12"
   crs:ParametricLights="+17"
   crs:ParametricHighlights="0"
   crs:ParametricShadowSplit="25"
   crs:ParametricMidtoneSplit="50"
   crs:ParametricHighlightSplit="75"
   crs:SharpenRadius="+1.0"
   crs:SharpenDetail="25"
   crs:SharpenEdgeMasking="0"
   crs:PostCropVignetteAmount="-25"
   crs:PostCropVignetteMidpoint="3"
   crs:PostCropVignetteFeather="93"
   crs:PostCropVignetteRoundness="+49"
   crs:PostCropVignetteStyle="1"
   crs:PostCropVignetteHighlightContrast="100"
   crs:GrainAmount="0"
   crs:LuminanceNoiseReductionDetail="86"
   crs:ColorNoiseReductionDetail="53"
   crs:LuminanceNoiseReductionContrast="46"
   crs:LensProfileEnable="0"
   crs:LensManualDistortionAmount="0"
   crs:PerspectiveVertical="0"
   crs:PerspectiveHorizontal="0"
   crs:PerspectiveRotate="0.0"
   crs:PerspectiveScale="100"
   crs:AutoLateralCA="0"
   crs:Exposure2012="+0.95"
   crs:Contrast2012="+19"
   crs:Highlights2012="-60"
   crs:Shadows2012="+33"
   crs:Whites2012="-79"
   crs:Blacks2012="-52"
   crs:Clarity2012="+10"
   crs:ConvertToGrayscale="False"
   crs:ToneCurveName2012="Custom"
   crs:CameraProfile="Embedded"
   crs:CameraProfileDigest="54650A341B5B5CCAE8442D0B43A92BCE"
   crs:LensProfileSetup="LensDefaults"
   crs:HasSettings="True">
   <crs:ToneCurvePV2012>
    <rdf:Seq>
     <rdf:li>13, 45</rdf:li>
     <rdf:li>126, 93</rdf:li>
     <rdf:li>209, 199</rdf:li>
     <rdf:li>252, 252</rdf:li>
    </rdf:Seq>
   </crs:ToneCurvePV2012>
   <crs:ToneCurvePV2012Red>
    <rdf:Seq>
     <rdf:li>0, 0</rdf:li>
     <rdf:li>255, 255</rdf:li>
    </rdf:Seq>
   </crs:ToneCurvePV2012Red>
   <crs:ToneCurvePV2012Green>
    <rdf:Seq>
     <rdf:li>0, 0</rdf:li>
     <rdf:li>255, 255</rdf:li>
    </rdf:Seq>
   </crs:ToneCurvePV2012Green>
   <crs:ToneCurvePV2012Blue>
    <rdf:Seq>
     <rdf:li>0, 0</rdf:li>
     <rdf:li>255, 255</rdf:li>
    </rdf:Seq>
   </crs:ToneCurvePV2012Blue>
  </rdf:Description>
 </rdf:RDF>
</x:xmpmeta>
