HQLightroomPresets 505 V.3.4/HQLightroomPresets 505 V.3.4/HQLightroomPresets ACR Presets/Update #1 - Cold Blue ~ HQLightroomPresets .xmp
<x:xmpmeta xmlns:x="adobe:ns:meta/" x:xmptk="Adobe XMP Core 5.3-c007 1.136881, 2010/06/10-18:11:35        ">
 <rdf:RDF xmlns:rdf="http://www.w3.org/1999/02/22-rdf-syntax-ns#">
  <rdf:Description rdf:about=""
    xmlns:crs="http://ns.adobe.com/camera-raw-settings/1.0/"
   crs:Version="7.0"
   crs:ProcessVersion="6.7"
   crs:WhiteBalance="Custom"
   crs:Temperature="5001"
   crs:Tint="+10"
   crs:Saturation="+72"
   crs:Sharpness="60"
   crs:LuminanceSmoothing="11"
   crs:ColorNoiseReduction="28"
   crs:VignetteAmount="-3"
   crs:VignetteMidpoint="20"
   crs:ShadowTint="-52"
   crs:RedHue="+68"
   crs:RedSaturation="+100"
   crs:GreenHue="+93"
   crs:GreenSaturation="-100"
   crs:BlueHue="+47"
   crs:BlueSaturation="-56"
   crs:Vibrance="-1"
   crs:Defringe="0"
   crs:HueAdjustmentRed="0"
   crs:HueAdjustmentOrange="-13"
   crs:HueAdjustmentYellow="+4"
   crs:HueAdjustmentGreen="+95"
   crs:HueAdjustmentAqua="0"
   crs:HueAdjustmentBlue="0"
   crs:HueAdjustmentPurple="0"
   crs:HueAdjustmentMagenta="0"
   crs:SaturationAdjustmentRed="-6"
   crs:SaturationAdjustmentOrange="-41"
   crs:SaturationAdjustmentYellow="+9"
   crs:SaturationAdjustmentGreen="-65"
   crs:SaturationAdjustmentAqua="0"
   crs:SaturationAdjustmentBlue="0"
   crs:SaturationAdjustmentPurple="0"
   crs:SaturationAdjustmentMagenta="0"
   crs:LuminanceAdjustmentRed="+7"
   crs:LuminanceAdjustmentOrange="+62"
   crs:LuminanceAdjustmentYellow="+49"
   crs:LuminanceAdjustmentGreen="+6"
   crs:LuminanceAdjustmentAqua="-1"
   crs:LuminanceAdjustmentBlue="0"
   crs:LuminanceAdjustmentPurple="0"
   crs:LuminanceAdjustmentMagenta="0"
   crs:SplitToningShadowHue="323"
   crs:SplitToningShadowSaturation="57"
   crs:SplitToningHighlightHue="228"
   crs:SplitToningHighlightSaturation="41"
   crs:SplitToningBalance="+85"
   crs:ParametricShadows="-6"
   crs:ParametricDarks="+62"
   crs:ParametricLights="+19"
   crs:ParametricHighlights="-30"
   crs:ParametricShadowSplit="25"
   crs:ParametricMidtoneSplit="50"
   crs:ParametricHighlightSplit="75"
   crs:SharpenRadius="+1.0"
   crs:SharpenDetail="50"
   crs:SharpenEdgeMasking="0"
   crs:PostCropVignetteAmount="-20"
   crs:PostCropVignetteMidpoint="23"
   crs:PostCropVignetteFeather="95"
   crs:PostCropVignetteRoundness="+45"
   crs:PostCropVignetteStyle="1"
   crs:PostCropVignetteHighlightContrast="0"
   crs:GrainAmount="0"
   crs:LuminanceNoiseReductionDetail="50"
   crs:ColorNoiseReductionDetail="50"
   crs:LuminanceNoiseReductionContrast="0"
   crs:LensProfileEnable="0"
   crs:LensManualDistortionAmount="0"
   crs:PerspectiveVertical="0"
   crs:PerspectiveHorizontal="0"
   crs:PerspectiveRotate="0.0"
   crs:PerspectiveScale="100"
   crs:AutoLateralCA="0"
   crs:Exposure2012="-0.73"
   crs:Contrast2012="+27"
   crs:Highlights2012="-4"
   crs:Shadows2012="+4"
   crs:Whites2012="-3"
   crs:Blacks2012="-11"
   crs:Clarity2012="+6"
   crs:ConvertToGrayscale="False"
   crs:ToneCurveName2012="Custom"
   crs:CameraProfile="Adobe Standard"
   crs:CameraProfileDigest="A26CCCF0806A1BCDE138F8614C44D6DA"
   crs:LensProfileSetup="LensDefaults"
   crs:HasSettings="True">
   <crs:ToneCurvePV2012>
    <rdf:Seq>
     <rdf:li>0, 62</rdf:li>
     <rdf:li>79, 128</rdf:li>
     <rdf:li>247, 255</rdf:li>
    </rdf:Seq>
   </crs:ToneCurvePV2012>
   <crs:ToneCurvePV2012Red>
    <rdf:Seq>
     <rdf:li>0, 0</rdf:li>
     <rdf:li>255, 255</rdf:li>
    </rdf:Seq>
   </crs:ToneCurvePV2012Red>
   <crs:ToneCurvePV2012Green>
    <rdf:Seq>
     <rdf:li>0, 0</rdf:li>
     <rdf:li>255, 255</rdf:li>
    </rdf:Seq>
   </crs:ToneCurvePV2012Green>
   <crs:ToneCurvePV2012Blue>
    <rdf:Seq>
     <rdf:li>0, 0</rdf:li>
     <rdf:li>255, 255</rdf:li>
    </rdf:Seq>
   </crs:ToneCurvePV2012Blue>
  </rdf:Description>
 </rdf:RDF>
</x:xmpmeta>
