HQLightroomPresets 505 V.3.4/HQLightroomPresets 505 V.3.4/HQLightroomPresets ACR Presets/Update #1 - Forest Ambient ~ HQLightroomPresets .xmp
<x:xmpmeta xmlns:x="adobe:ns:meta/" x:xmptk="Adobe XMP Core 5.3-c007 1.136881, 2010/06/10-18:11:35        ">
 <rdf:RDF xmlns:rdf="http://www.w3.org/1999/02/22-rdf-syntax-ns#">
  <rdf:Description rdf:about=""
    xmlns:crs="http://ns.adobe.com/camera-raw-settings/1.0/"
   crs:Version="7.0"
   crs:ProcessVersion="6.7"
   crs:WhiteBalance="Custom"
   crs:Temperature="4213"
   crs:Tint="-28"
   crs:Saturation="+20"
   crs:Sharpness="29"
   crs:LuminanceSmoothing="10"
   crs:ColorNoiseReduction="28"
   crs:VignetteAmount="-4"
   crs:VignetteMidpoint="20"
   crs:ShadowTint="0"
   crs:RedHue="+22"
   crs:RedSaturation="-6"
   crs:GreenHue="+6"
   crs:GreenSaturation="-47"
   crs:BlueHue="-26"
   crs:BlueSaturation="-38"
   crs:Vibrance="+34"
   crs:Defringe="0"
   crs:HueAdjustmentRed="-23"
   crs:HueAdjustmentOrange="+32"
   crs:HueAdjustmentYellow="-26"
   crs:HueAdjustmentGreen="-2"
   crs:HueAdjustmentAqua="0"
   crs:HueAdjustmentBlue="+23"
   crs:HueAdjustmentPurple="-9"
   crs:HueAdjustmentMagenta="-15"
   crs:SaturationAdjustmentRed="-2"
   crs:SaturationAdjustmentOrange="-25"
   crs:SaturationAdjustmentYellow="-27"
   crs:SaturationAdjustmentGreen="-12"
   crs:SaturationAdjustmentAqua="+73"
   crs:SaturationAdjustmentBlue="-55"
   crs:SaturationAdjustmentPurple="+32"
   crs:SaturationAdjustmentMagenta="+15"
   crs:LuminanceAdjustmentRed="-2"
   crs:LuminanceAdjustmentOrange="+10"
   crs:LuminanceAdjustmentYellow="+19"
   crs:LuminanceAdjustmentGreen="-40"
   crs:LuminanceAdjustmentAqua="-61"
   crs:LuminanceAdjustmentBlue="-55"
   crs:LuminanceAdjustmentPurple="-28"
   crs:LuminanceAdjustmentMagenta="-13"
   crs:SplitToningShadowHue="4"
   crs:SplitToningShadowSaturation="67"
   crs:SplitToningHighlightHue="0"
   crs:SplitToningHighlightSaturation="0"
   crs:SplitToningBalance="+85"
   crs:ParametricShadows="0"
   crs:ParametricDarks="-27"
   crs:ParametricLights="+17"
   crs:ParametricHighlights="-30"
   crs:ParametricShadowSplit="25"
   crs:ParametricMidtoneSplit="50"
   crs:ParametricHighlightSplit="75"
   crs:SharpenRadius="+1.0"
   crs:SharpenDetail="50"
   crs:SharpenEdgeMasking="0"
   crs:PostCropVignetteAmount="-17"
   crs:PostCropVignetteMidpoint="0"
   crs:PostCropVignetteFeather="100"
   crs:PostCropVignetteRoundness="-33"
   crs:PostCropVignetteStyle="1"
   crs:PostCropVignetteHighlightContrast="0"
   crs:GrainAmount="0"
   crs:LuminanceNoiseReductionDetail="50"
   crs:ColorNoiseReductionDetail="50"
   crs:LuminanceNoiseReductionContrast="0"
   crs:LensProfileEnable="0"
   crs:LensManualDistortionAmount="0"
   crs:PerspectiveVertical="0"
   crs:PerspectiveHorizontal="0"
   crs:PerspectiveRotate="0.0"
   crs:PerspectiveScale="100"
   crs:AutoLateralCA="0"
   crs:Exposure2012="+0.49"
   crs:Contrast2012="+2"
   crs:Highlights2012="-19"
   crs:Shadows2012="+56"
   crs:Whites2012="-22"
   crs:Blacks2012="-6"
   crs:Clarity2012="+5"
   crs:ConvertToGrayscale="False"
   crs:ToneCurveName2012="Linear"
   crs:CameraProfile="Adobe Standard"
   crs:CameraProfileDigest="A26CCCF0806A1BCDE138F8614C44D6DA"
   crs:LensProfileSetup="LensDefaults"
   crs:HasSettings="True">
   <crs:ToneCurvePV2012>
    <rdf:Seq>
     <rdf:li>0, 0</rdf:li>
     <rdf:li>255, 255</rdf:li>
    </rdf:Seq>
   </crs:ToneCurvePV2012>
   <crs:ToneCurvePV2012Red>
    <rdf:Seq>
     <rdf:li>0, 0</rdf:li>
     <rdf:li>255, 255</rdf:li>
    </rdf:Seq>
   </crs:ToneCurvePV2012Red>
   <crs:ToneCurvePV2012Green>
    <rdf:Seq>
     <rdf:li>0, 0</rdf:li>
     <rdf:li>255, 255</rdf:li>
    </rdf:Seq>
   </crs:ToneCurvePV2012Green>
   <crs:ToneCurvePV2012Blue>
    <rdf:Seq>
     <rdf:li>0, 0</rdf:li>
     <rdf:li>255, 255</rdf:li>
    </rdf:Seq>
   </crs:ToneCurvePV2012Blue>
  </rdf:Description>
 </rdf:RDF>
</x:xmpmeta>
