HQLightroomPresets 505 V.3.4/HQLightroomPresets 505 V.3.4/HQLightroomPresets ACR Presets/Update #1 - BW Classic In Harsh ~ HQLightroomPresets .xmp
<x:xmpmeta xmlns:x="adobe:ns:meta/" x:xmptk="Adobe XMP Core 5.3-c007 1.136881, 2010/06/10-18:11:35        ">
 <rdf:RDF xmlns:rdf="http://www.w3.org/1999/02/22-rdf-syntax-ns#">
  <rdf:Description rdf:about=""
    xmlns:crs="http://ns.adobe.com/camera-raw-settings/1.0/"
   crs:Version="7.0"
   crs:ProcessVersion="6.7"
   crs:WhiteBalance="Custom"
   crs:Temperature="5663"
   crs:Tint="-51"
   crs:Sharpness="67"
   crs:LuminanceSmoothing="7"
   crs:ColorNoiseReduction="0"
   crs:VignetteAmount="-1"
   crs:VignetteMidpoint="20"
   crs:ShadowTint="0"
   crs:RedHue="0"
   crs:RedSaturation="0"
   crs:GreenHue="0"
   crs:GreenSaturation="0"
   crs:BlueHue="0"
   crs:BlueSaturation="0"
   crs:Defringe="0"
   crs:GrayMixerRed="-14"
   crs:GrayMixerOrange="-20"
   crs:GrayMixerYellow="-24"
   crs:GrayMixerGreen="-27"
   crs:GrayMixerAqua="-16"
   crs:GrayMixerBlue="+12"
   crs:GrayMixerPurple="+16"
   crs:GrayMixerMagenta="+2"
   crs:SplitToningShadowHue="50"
   crs:SplitToningShadowSaturation="0"
   crs:SplitToningHighlightHue="240"
   crs:SplitToningHighlightSaturation="0"
   crs:SplitToningBalance="0"
   crs:ParametricShadows="0"
   crs:ParametricDarks="0"
   crs:ParametricLights="-2"
   crs:ParametricHighlights="0"
   crs:ParametricShadowSplit="25"
   crs:ParametricMidtoneSplit="50"
   crs:ParametricHighlightSplit="75"
   crs:SharpenRadius="+1.0"
   crs:SharpenDetail="25"
   crs:SharpenEdgeMasking="0"
   crs:PostCropVignetteAmount="-24"
   crs:PostCropVignetteMidpoint="17"
   crs:PostCropVignetteFeather="88"
   crs:PostCropVignetteRoundness="+36"
   crs:PostCropVignetteStyle="1"
   crs:PostCropVignetteHighlightContrast="0"
   crs:GrainAmount="23"
   crs:GrainSize="80"
   crs:GrainFrequency="70"
   crs:LuminanceNoiseReductionDetail="50"
   crs:LuminanceNoiseReductionContrast="0"
   crs:LensProfileEnable="0"
   crs:LensManualDistortionAmount="0"
   crs:PerspectiveVertical="0"
   crs:PerspectiveHorizontal="0"
   crs:PerspectiveRotate="0.0"
   crs:PerspectiveScale="100"
   crs:AutoLateralCA="0"
   crs:Exposure2012="+1.46"
   crs:Contrast2012="-7"
   crs:Highlights2012="-22"
   crs:Shadows2012="+22"
   crs:Whites2012="-1"
   crs:Blacks2012="-8"
   crs:Clarity2012="+12"
   crs:ConvertToGrayscale="True"
   crs:ToneCurveName2012="Custom"
   crs:CameraProfile="Adobe Standard"
   crs:CameraProfileDigest="A26CCCF0806A1BCDE138F8614C44D6DA"
   crs:LensProfileSetup="LensDefaults"
   crs:HasSettings="True">
   <crs:ToneCurvePV2012>
    <rdf:Seq>
     <rdf:li>0, 63</rdf:li>
     <rdf:li>30, 66</rdf:li>
     <rdf:li>138, 119</rdf:li>
     <rdf:li>187, 181</rdf:li>
     <rdf:li>250, 255</rdf:li>
    </rdf:Seq>
   </crs:ToneCurvePV2012>
   <crs:ToneCurvePV2012Red>
    <rdf:Seq>
     <rdf:li>0, 0</rdf:li>
     <rdf:li>255, 255</rdf:li>
    </rdf:Seq>
   </crs:ToneCurvePV2012Red>
   <crs:ToneCurvePV2012Green>
    <rdf:Seq>
     <rdf:li>0, 0</rdf:li>
     <rdf:li>255, 255</rdf:li>
    </rdf:Seq>
   </crs:ToneCurvePV2012Green>
   <crs:ToneCurvePV2012Blue>
    <rdf:Seq>
     <rdf:li>0, 0</rdf:li>
     <rdf:li>255, 255</rdf:li>
    </rdf:Seq>
   </crs:ToneCurvePV2012Blue>
  </rdf:Description>
 </rdf:RDF>
</x:xmpmeta>
