HQLightroomPresets 505 V.3.4/HQLightroomPresets 505 V.3.4/HQLightroomPresets ACR Presets/Update #2 - Simple And Easy ~ HQLightroomPresets.xmp
<x:xmpmeta xmlns:x="adobe:ns:meta/" x:xmptk="Adobe XMP Core 5.3-c007 1.136881, 2010/06/10-18:11:35        ">
 <rdf:RDF xmlns:rdf="http://www.w3.org/1999/02/22-rdf-syntax-ns#">
  <rdf:Description rdf:about=""
    xmlns:crs="http://ns.adobe.com/camera-raw-settings/1.0/"
   crs:Version="7.0"
   crs:ProcessVersion="6.7"
   crs:WhiteBalance="Custom"
   crs:IncrementalTemperature="+3"
   crs:IncrementalTint="0"
   crs:Saturation="-31"
   crs:Sharpness="53"
   crs:LuminanceSmoothing="36"
   crs:ColorNoiseReduction="28"
   crs:VignetteAmount="0"
   crs:ShadowTint="0"
   crs:RedHue="0"
   crs:RedSaturation="0"
   crs:GreenHue="0"
   crs:GreenSaturation="0"
   crs:BlueHue="0"
   crs:BlueSaturation="0"
   crs:Vibrance="-5"
   crs:Defringe="0"
   crs:HueAdjustmentRed="0"
   crs:HueAdjustmentOrange="0"
   crs:HueAdjustmentYellow="0"
   crs:HueAdjustmentGreen="0"
   crs:HueAdjustmentAqua="0"
   crs:HueAdjustmentBlue="0"
   crs:HueAdjustmentPurple="-9"
   crs:HueAdjustmentMagenta="-15"
   crs:SaturationAdjustmentRed="-2"
   crs:SaturationAdjustmentOrange="0"
   crs:SaturationAdjustmentYellow="0"
   crs:SaturationAdjustmentGreen="0"
   crs:SaturationAdjustmentAqua="0"
   crs:SaturationAdjustmentBlue="0"
   crs:SaturationAdjustmentPurple="0"
   crs:SaturationAdjustmentMagenta="0"
   crs:LuminanceAdjustmentRed="-2"
   crs:LuminanceAdjustmentOrange="0"
   crs:LuminanceAdjustmentYellow="0"
   crs:LuminanceAdjustmentGreen="-7"
   crs:LuminanceAdjustmentAqua="0"
   crs:LuminanceAdjustmentBlue="0"
   crs:LuminanceAdjustmentPurple="0"
   crs:LuminanceAdjustmentMagenta="0"
   crs:SplitToningShadowHue="247"
   crs:SplitToningShadowSaturation="52"
   crs:SplitToningHighlightHue="0"
   crs:SplitToningHighlightSaturation="0"
   crs:SplitToningBalance="+85"
   crs:ParametricShadows="0"
   crs:ParametricDarks="-14"
   crs:ParametricLights="+17"
   crs:ParametricHighlights="-30"
   crs:ParametricShadowSplit="25"
   crs:ParametricMidtoneSplit="50"
   crs:ParametricHighlightSplit="75"
   crs:SharpenRadius="+1.0"
   crs:SharpenDetail="50"
   crs:SharpenEdgeMasking="0"
   crs:PostCropVignetteAmount="-15"
   crs:PostCropVignetteMidpoint="11"
   crs:PostCropVignetteFeather="95"
   crs:PostCropVignetteRoundness="+43"
   crs:PostCropVignetteStyle="1"
   crs:PostCropVignetteHighlightContrast="91"
   crs:GrainAmount="0"
   crs:LuminanceNoiseReductionDetail="94"
   crs:ColorNoiseReductionDetail="50"
   crs:LuminanceNoiseReductionContrast="94"
   crs:LensProfileEnable="0"
   crs:LensManualDistortionAmount="0"
   crs:PerspectiveVertical="0"
   crs:PerspectiveHorizontal="0"
   crs:PerspectiveRotate="0.0"
   crs:PerspectiveScale="100"
   crs:AutoLateralCA="0"
   crs:Exposure2012="+0.24"
   crs:Contrast2012="+40"
   crs:Highlights2012="-13"
   crs:Shadows2012="+40"
   crs:Whites2012="-26"
   crs:Blacks2012="-14"
   crs:Clarity2012="+3"
   crs:ConvertToGrayscale="False"
   crs:ToneCurveName2012="Custom"
   crs:CameraProfile="Embedded"
   crs:CameraProfileDigest="54650A341B5B5CCAE8442D0B43A92BCE"
   crs:LensProfileSetup="LensDefaults"
   crs:HasSettings="True">
   <crs:ToneCurvePV2012>
    <rdf:Seq>
     <rdf:li>0, 41</rdf:li>
     <rdf:li>62, 86</rdf:li>
     <rdf:li>132, 144</rdf:li>
     <rdf:li>190, 201</rdf:li>
     <rdf:li>255, 255</rdf:li>
    </rdf:Seq>
   </crs:ToneCurvePV2012>
   <crs:ToneCurvePV2012Red>
    <rdf:Seq>
     <rdf:li>0, 0</rdf:li>
     <rdf:li>255, 255</rdf:li>
    </rdf:Seq>
   </crs:ToneCurvePV2012Red>
   <crs:ToneCurvePV2012Green>
    <rdf:Seq>
     <rdf:li>0, 0</rdf:li>
     <rdf:li>255, 255</rdf:li>
    </rdf:Seq>
   </crs:ToneCurvePV2012Green>
   <crs:ToneCurvePV2012Blue>
    <rdf:Seq>
     <rdf:li>0, 0</rdf:li>
     <rdf:li>255, 255</rdf:li>
    </rdf:Seq>
   </crs:ToneCurvePV2012Blue>
  </rdf:Description>
 </rdf:RDF>
</x:xmpmeta>
