HQLightroomPresets 505 V.3.4/HQLightroomPresets 505 V.3.4/HQLightroomPresets ACR Presets/Yellow Warm - AuntumBold ~ HQLightroomPresets .xmp
<x:xmpmeta xmlns:x="adobe:ns:meta/" x:xmptk="Adobe XMP Core 5.3-c007 1.136881, 2010/06/10-18:11:35        ">
 <rdf:RDF xmlns:rdf="http://www.w3.org/1999/02/22-rdf-syntax-ns#">
  <rdf:Description rdf:about=""
    xmlns:crs="http://ns.adobe.com/camera-raw-settings/1.0/"
   crs:Version="7.0"
   crs:ProcessVersion="6.7"
   crs:WhiteBalance="Custom"
   crs:Temperature="6957"
   crs:Tint="+19"
   crs:Saturation="-29"
   crs:Sharpness="71"
   crs:LuminanceSmoothing="20"
   crs:ColorNoiseReduction="50"
   crs:VignetteAmount="-1"
   crs:VignetteMidpoint="20"
   crs:ShadowTint="0"
   crs:RedHue="0"
   crs:RedSaturation="0"
   crs:GreenHue="0"
   crs:GreenSaturation="0"
   crs:BlueHue="0"
   crs:BlueSaturation="0"
   crs:Vibrance="+4"
   crs:Defringe="0"
   crs:HueAdjustmentRed="+4"
   crs:HueAdjustmentOrange="+5"
   crs:HueAdjustmentYellow="+3"
   crs:HueAdjustmentGreen="-100"
   crs:HueAdjustmentAqua="0"
   crs:HueAdjustmentBlue="0"
   crs:HueAdjustmentPurple="0"
   crs:HueAdjustmentMagenta="+2"
   crs:SaturationAdjustmentRed="+33"
   crs:SaturationAdjustmentOrange="+18"
   crs:SaturationAdjustmentYellow="+5"
   crs:SaturationAdjustmentGreen="+5"
   crs:SaturationAdjustmentAqua="0"
   crs:SaturationAdjustmentBlue="0"
   crs:SaturationAdjustmentPurple="0"
   crs:SaturationAdjustmentMagenta="0"
   crs:LuminanceAdjustmentRed="0"
   crs:LuminanceAdjustmentOrange="0"
   crs:LuminanceAdjustmentYellow="0"
   crs:LuminanceAdjustmentGreen="+27"
   crs:LuminanceAdjustmentAqua="0"
   crs:LuminanceAdjustmentBlue="0"
   crs:LuminanceAdjustmentPurple="0"
   crs:LuminanceAdjustmentMagenta="0"
   crs:SplitToningShadowHue="253"
   crs:SplitToningShadowSaturation="92"
   crs:SplitToningHighlightHue="61"
   crs:SplitToningHighlightSaturation="16"
   crs:SplitToningBalance="+85"
   crs:ParametricShadows="0"
   crs:ParametricDarks="-20"
   crs:ParametricLights="+1"
   crs:ParametricHighlights="-30"
   crs:ParametricShadowSplit="25"
   crs:ParametricMidtoneSplit="50"
   crs:ParametricHighlightSplit="75"
   crs:SharpenRadius="+0.9"
   crs:SharpenDetail="50"
   crs:SharpenEdgeMasking="0"
   crs:PostCropVignetteAmount="-14"
   crs:PostCropVignetteMidpoint="31"
   crs:PostCropVignetteFeather="88"
   crs:PostCropVignetteRoundness="+47"
   crs:PostCropVignetteStyle="1"
   crs:PostCropVignetteHighlightContrast="0"
   crs:GrainAmount="0"
   crs:LuminanceNoiseReductionDetail="50"
   crs:ColorNoiseReductionDetail="51"
   crs:LuminanceNoiseReductionContrast="0"
   crs:LensProfileEnable="0"
   crs:LensManualDistortionAmount="0"
   crs:PerspectiveVertical="0"
   crs:PerspectiveHorizontal="0"
   crs:PerspectiveRotate="0.0"
   crs:PerspectiveScale="100"
   crs:AutoLateralCA="0"
   crs:Exposure2012="+0.73"
   crs:Contrast2012="-21"
   crs:Highlights2012="-4"
   crs:Shadows2012="+4"
   crs:Whites2012="0"
   crs:Blacks2012="-8"
   crs:Clarity2012="+20"
   crs:ConvertToGrayscale="False"
   crs:ToneCurveName2012="Custom"
   crs:CameraProfile="Adobe Standard"
   crs:CameraProfileDigest="A26CCCF0806A1BCDE138F8614C44D6DA"
   crs:LensProfileSetup="LensDefaults"
   crs:HasSettings="True">
   <crs:ToneCurvePV2012>
    <rdf:Seq>
     <rdf:li>0, 0</rdf:li>
     <rdf:li>127, 127</rdf:li>
     <rdf:li>255, 255</rdf:li>
    </rdf:Seq>
   </crs:ToneCurvePV2012>
   <crs:ToneCurvePV2012Red>
    <rdf:Seq>
     <rdf:li>0, 0</rdf:li>
     <rdf:li>255, 255</rdf:li>
    </rdf:Seq>
   </crs:ToneCurvePV2012Red>
   <crs:ToneCurvePV2012Green>
    <rdf:Seq>
     <rdf:li>0, 0</rdf:li>
     <rdf:li>255, 255</rdf:li>
    </rdf:Seq>
   </crs:ToneCurvePV2012Green>
   <crs:ToneCurvePV2012Blue>
    <rdf:Seq>
     <rdf:li>0, 0</rdf:li>
     <rdf:li>255, 255</rdf:li>
    </rdf:Seq>
   </crs:ToneCurvePV2012Blue>
  </rdf:Description>
 </rdf:RDF>
</x:xmpmeta>
