187527 - 420 Lightroom Presets/Retro Presets/retro/Vintage (98).lrtemplate
s = {
	id = "ACB3ABEA-F6D8-4FAB-982E-818F3E2BA565",
	internalName = "vintage pro preset 48",
	title = "vintage pro preset 48",
	type = "Develop",
	value = {
		settings = {
			AutoLateralCA = 0,
			Blacks2012 = 10,
			BlueHue = -48,
			BlueSaturation = -6,
			CameraProfile = "Embedded",
			ChromaticAberrationB = 0,
			ChromaticAberrationR = 0,
			Clarity2012 = 20,
			ColorNoiseReduction = 0,
			ColorNoiseReductionDetail = 50,
			Contrast2012 = -35,
			ConvertToGrayscale = false,
			Defringe = 0,
			DefringeGreenAmount = 0,
			DefringeGreenHueHi = 60,
			DefringeGreenHueLo = 40,
			DefringePurpleAmount = 0,
			DefringePurpleHueHi = 70,
			DefringePurpleHueLo = 30,
			EnableCalibration = true,
			EnableCircularGradientBasedCorrections = true,
			EnableColorAdjustments = true,
			EnableDetail = true,
			EnableEffects = true,
			EnableGradientBasedCorrections = true,
			EnableLensCorrections = true,
			EnableSplitToning = true,
			Exposure2012 = 0,
			GradientBasedCorrections = {
				{
					CorrectionActive = true,
					CorrectionAmount = 1,
					CorrectionID = "E4F66B2E-11B0-4543-9BDA-8B8140686FAE",
					CorrectionMasks = {
						{
							FullX = 0.526531,
							FullY = -0.031964,
							MaskID = "80CE8D84-02D5-4707-A4FC-ED85C1E83733",
							MaskValue = 1,
							What = "Mask/Gradient",
							ZeroX = 0.526531,
							ZeroY = 0.990627,
						},
					},
					CorrectionReferenceX = 0.526531,
					CorrectionReferenceY = 0.479332,
					LocalBrightness = 0,
					LocalClarity = 0,
					LocalClarity2012 = 0,
					LocalContrast = 0,
					LocalContrast2012 = 0,
					LocalDefringe = 0,
					LocalExposure = 0,
					LocalExposure2012 = 0,
					LocalHighlights2012 = 0,
					LocalLuminanceNoise = 0,
					LocalMoire = 0,
					LocalSaturation = 0,
					LocalShadows2012 = 0,
					LocalSharpness = 0,
					LocalTemperature = 0,
					LocalTint = 0,
					LocalToningHue = 157,
					LocalToningSaturation = 0.24,
					What = "Correction",
				},
			},
			GrainAmount = 0,
			GrainFrequency = 21,
			GrainSize = 51,
			GreenHue = 100,
			GreenSaturation = 100,
			Highlights2012 = -20,
			HueAdjustmentAqua = 10,
			HueAdjustmentBlue = 10,
			HueAdjustmentGreen = 10,
			HueAdjustmentMagenta = 0,
			HueAdjustmentOrange = 25,
			HueAdjustmentPurple = 0,
			HueAdjustmentRed = -18,
			HueAdjustmentYellow = 20,
			IncrementalTemperature = 0,
			IncrementalTint = 0,
			LuminanceAdjustmentAqua = 20,
			LuminanceAdjustmentBlue = 20,
			LuminanceAdjustmentGreen = 15,
			LuminanceAdjustmentMagenta = 0,
			LuminanceAdjustmentOrange = 5,
			LuminanceAdjustmentPurple = 15,
			LuminanceAdjustmentRed = 0,
			LuminanceAdjustmentYellow = 10,
			LuminanceNoiseReductionContrast = 0,
			LuminanceNoiseReductionDetail = 50,
			LuminanceSmoothing = 0,
			ParametricDarks = 24,
			ParametricHighlightSplit = 75,
			ParametricHighlights = -10,
			ParametricLights = -6,
			ParametricMidtoneSplit = 50,
			ParametricShadowSplit = 25,
			ParametricShadows = 43,
			PostCropVignetteAmount = 0,
			PostCropVignetteFeather = 0,
			PostCropVignetteHighlightContrast = 0,
			PostCropVignetteMidpoint = 0,
			PostCropVignetteRoundness = -100,
			PostCropVignetteStyle = 3,
			ProcessVersion = "6.7",
			RedHue = 0,
			RedSaturation = 0,
			Saturation = -40,
			SaturationAdjustmentAqua = 25,
			SaturationAdjustmentBlue = 20,
			SaturationAdjustmentGreen = 10,
			SaturationAdjustmentMagenta = 0,
			SaturationAdjustmentOrange = 10,
			SaturationAdjustmentPurple = 10,
			SaturationAdjustmentRed = 5,
			SaturationAdjustmentYellow = 5,
			ShadowTint = 0,
			Shadows2012 = 20,
			SharpenDetail = 25,
			SharpenEdgeMasking = 0,
			SharpenRadius = 1,
			Sharpness = 0,
			SplitToningBalance = -19,
			SplitToningHighlightHue = 69,
			SplitToningHighlightSaturation = 27,
			SplitToningShadowHue = 150,
			SplitToningShadowSaturation = 0,
			ToneCurveName2012 = "Custom",
			ToneCurvePV2012 = {
				3,
				22,
				25,
				26,
				92,
				82,
				196,
				205,
				226,
				234,
				255,
				235,
			},
			ToneCurvePV2012Blue = {
				0,
				0,
				255,
				255,
			},
			ToneCurvePV2012Green = {
				0,
				0,
				255,
				255,
			},
			ToneCurvePV2012Red = {
				0,
				0,
				255,
				255,
			},
			Vibrance = -40,
			VignetteAmount = -50,
			VignetteMidpoint = 10,
			WhiteBalance = "Custom",
			Whites2012 = -30,
			orientation = "AB",
		},
		uuid = "92A39558-7CEC-4A70-B88A-A993CF4D38AE",
	},
	version = 0,
}
