1100 Lightroom Presets/CM 1100+ Lightroom Presets 320973/10 Lightning Presets/L - Lighting Pink.lrtemplate
s = {
	id = "1BBB85FA-D2E3-4859-B0DD-07E537627741",
	internalName = "L - Lighting Pink",
	title = "L - Lighting Pink",
	type = "Develop",
	value = {
		settings = {
			AutoLateralCA = 0,
			Blacks2012 = 1,
			BlueHue = 0,
			BlueSaturation = 0,
			CameraProfile = "Embedded",
			ChromaticAberrationB = 0,
			ChromaticAberrationR = 0,
			Clarity2012 = 0,
			ColorNoiseReduction = 0,
			ColorNoiseReductionDetail = 50,
			ColorNoiseReductionSmoothness = 50,
			Contrast2012 = 3,
			ConvertToGrayscale = false,
			CropConstrainToWarp = 0,
			Defringe = 0,
			DefringeGreenAmount = 0,
			DefringeGreenHueHi = 60,
			DefringeGreenHueLo = 40,
			DefringePurpleAmount = 0,
			DefringePurpleHueHi = 70,
			DefringePurpleHueLo = 30,
			EnableCalibration = true,
			EnableCircularGradientBasedCorrections = true,
			EnableColorAdjustments = true,
			EnableDetail = true,
			EnableEffects = true,
			EnableGradientBasedCorrections = true,
			EnableLensCorrections = true,
			EnableSplitToning = true,
			Exposure2012 = 0,
			GradientBasedCorrections = {
				{
					CorrectionActive = true,
					CorrectionAmount = 1,
					CorrectionID = "4D487E37-9222-4F06-B0D1-1F517AAF048A",
					CorrectionMasks = {
						{
							FullX = 1.11153,
							FullY = 0.101849,
							MaskID = "86CB0158-83BB-4A80-A38B-426BF7A67CA3",
							MaskValue = 1,
							What = "Mask/Gradient",
							ZeroX = 0.44955,
							ZeroY = 0.436344,
						},
					},
					CorrectionReferenceX = 0.780538,
					CorrectionReferenceY = 0.269097,
					LocalBrightness = 0,
					LocalClarity = 0,
					LocalClarity2012 = 0,
					LocalContrast = 0,
					LocalContrast2012 = 0,
					LocalExposure = 0.057471,
					LocalExposure2012 = 0.2235,
					LocalHighlights2012 = 0,
					LocalLuminanceNoise = 0,
					LocalMoire = 0,
					LocalSaturation = 0,
					LocalShadows2012 = 0,
					LocalSharpness = 0,
					LocalTemperature = 0.29412,
					LocalTint = 0,
					LocalToningHue = 13,
					LocalToningSaturation = 0.68,
					What = "Correction",
				},
				{
					CorrectionActive = true,
					CorrectionAmount = 1,
					CorrectionID = "F017DBDD-8A0D-4478-A155-7EDAEC363311",
					CorrectionMasks = {
						{
							FullX = 0.638339,
							FullY = 0.627178,
							MaskID = "4D813D66-E6B4-4CD2-9BED-FDB1CA15696C",
							MaskValue = 1,
							What = "Mask/Gradient",
							ZeroX = -0.922695,
							ZeroY = 1.12544,
						},
					},
					CorrectionReferenceX = -0.142178,
					CorrectionReferenceY = 0.876307,
					LocalBrightness = 0,
					LocalClarity = 0,
					LocalClarity2012 = 0.60811,
					LocalContrast = 0,
					LocalContrast2012 = -0.17647,
					LocalExposure = 0.057471,
					LocalExposure2012 = -0.0135,
					LocalHighlights2012 = -0.10588,
					LocalLuminanceNoise = 0,
					LocalMoire = 0,
					LocalSaturation = 0.24706,
					LocalShadows2012 = -0.24706,
					LocalSharpness = 0.64706,
					LocalTemperature = 0.25676,
					LocalTint = 0.05882,
					LocalToningHue = 305,
					LocalToningSaturation = 0.58,
					What = "Correction",
				},
			},
			GrainAmount = 0,
			GrainFrequency = 50,
			GrainSize = 25,
			GreenHue = 0,
			GreenSaturation = 0,
			Highlights2012 = 0,
			HueAdjustmentAqua = 0,
			HueAdjustmentBlue = 0,
			HueAdjustmentGreen = 0,
			HueAdjustmentMagenta = 0,
			HueAdjustmentOrange = 0,
			HueAdjustmentPurple = 0,
			HueAdjustmentRed = 0,
			HueAdjustmentYellow = 0,
			IncrementalTemperature = -29,
			IncrementalTint = 20,
			LensManualDistortionAmount = 0,
			LensProfileEnable = 0,
			LensProfileSetup = "LensDefaults",
			LuminanceAdjustmentAqua = 0,
			LuminanceAdjustmentBlue = 0,
			LuminanceAdjustmentGreen = 0,
			LuminanceAdjustmentMagenta = 0,
			LuminanceAdjustmentOrange = 0,
			LuminanceAdjustmentPurple = 0,
			LuminanceAdjustmentRed = 0,
			LuminanceAdjustmentYellow = 0,
			LuminanceNoiseReductionContrast = 0,
			LuminanceNoiseReductionDetail = 50,
			LuminanceSmoothing = 0,
			ParametricDarks = 0,
			ParametricHighlightSplit = 75,
			ParametricHighlights = 12,
			ParametricLights = 0,
			ParametricMidtoneSplit = 50,
			ParametricShadowSplit = 25,
			ParametricShadows = 0,
			PerspectiveAspect = 0,
			PerspectiveHorizontal = 0,
			PerspectiveRotate = 0,
			PerspectiveScale = 100,
			PerspectiveUpright = 0,
			PerspectiveVertical = 0,
			PostCropVignetteAmount = 0,
			PostCropVignetteFeather = 50,
			PostCropVignetteHighlightContrast = 0,
			PostCropVignetteMidpoint = 50,
			PostCropVignetteRoundness = 0,
			PostCropVignetteStyle = 1,
			ProcessVersion = "6.7",
			RedHue = 0,
			RedSaturation = 0,
			Saturation = 0,
			SaturationAdjustmentAqua = 0,
			SaturationAdjustmentBlue = 0,
			SaturationAdjustmentGreen = 0,
			SaturationAdjustmentMagenta = 0,
			SaturationAdjustmentOrange = 0,
			SaturationAdjustmentPurple = 0,
			SaturationAdjustmentRed = 0,
			SaturationAdjustmentYellow = 0,
			ShadowTint = 0,
			Shadows2012 = 0,
			SharpenDetail = 25,
			SharpenEdgeMasking = 0,
			SharpenRadius = 1,
			Sharpness = 0,
			SplitToningBalance = 0,
			SplitToningHighlightHue = 303,
			SplitToningHighlightSaturation = 7,
			SplitToningShadowHue = 104,
			SplitToningShadowSaturation = 12,
			ToneCurveName2012 = "Custom",
			ToneCurvePV2012 = {
				16,
				58,
				255,
				255,
			},
			ToneCurvePV2012Blue = {
				0,
				0,
				255,
				255,
			},
			ToneCurvePV2012Green = {
				0,
				0,
				255,
				255,
			},
			ToneCurvePV2012Red = {
				0,
				0,
				255,
				255,
			},
			Vibrance = 0,
			VignetteAmount = 0,
			VignetteMidpoint = 50,
			WhiteBalance = "Custom",
			Whites2012 = 20,
			orientation = "AB",
		},
		uuid = "65FABAA9-9941-48FA-BF9C-BD523F7685BC",
	},
	version = 0,
}
