CM - The Essential Collection Lr Presets 339722/Lightgram - The Essential Collection/Ginger.lrtemplate
s = {
	id = "07A3D556-C083-4A34-8AA3-CD987FDCDF67",
	internalName = "Ginger",
	title = "Ginger",
	type = "Develop",
	value = {
		settings = {
			Blacks2012 = 25,
			BlueHue = 0,
			BlueSaturation = 0,
			CameraProfile = "Adobe Standard",
			Clarity2012 = 0,
			ColorNoiseReduction = 0,
			ColorNoiseReductionDetail = 50,
			ColorNoiseReductionSmoothness = 50,
			Contrast2012 = 0,
			ConvertToGrayscale = false,
			EnableCalibration = true,
			EnableCircularGradientBasedCorrections = true,
			EnableColorAdjustments = true,
			EnableDetail = true,
			EnableEffects = true,
			EnableGradientBasedCorrections = true,
			EnableSplitToning = true,
			Exposure2012 = 0,
			GrainAmount = 30,
			GrainFrequency = 35,
			GrainSize = 30,
			GreenHue = 0,
			GreenSaturation = 0,
			Highlights2012 = -10,
			HueAdjustmentAqua = 0,
			HueAdjustmentBlue = 5,
			HueAdjustmentGreen = 15,
			HueAdjustmentMagenta = 20,
			HueAdjustmentOrange = 5,
			HueAdjustmentPurple = 15,
			HueAdjustmentRed = 6,
			HueAdjustmentYellow = 10,
			LuminanceAdjustmentAqua = 0,
			LuminanceAdjustmentBlue = -20,
			LuminanceAdjustmentGreen = -15,
			LuminanceAdjustmentMagenta = 0,
			LuminanceAdjustmentOrange = -10,
			LuminanceAdjustmentPurple = 0,
			LuminanceAdjustmentRed = 0,
			LuminanceAdjustmentYellow = -10,
			LuminanceNoiseReductionContrast = 0,
			LuminanceNoiseReductionDetail = 50,
			LuminanceSmoothing = 0,
			ParametricDarks = -15,
			ParametricHighlightSplit = 87,
			ParametricHighlights = -25,
			ParametricLights = 15,
			ParametricMidtoneSplit = 40,
			ParametricShadowSplit = 20,
			ParametricShadows = -5,
			PostCropVignetteAmount = 0,
			PostCropVignetteFeather = 50,
			PostCropVignetteHighlightContrast = 0,
			PostCropVignetteMidpoint = 50,
			PostCropVignetteRoundness = 0,
			PostCropVignetteStyle = 1,
			ProcessVersion = "6.7",
			RedHue = 0,
			RedSaturation = 0,
			Saturation = 5,
			SaturationAdjustmentAqua = -5,
			SaturationAdjustmentBlue = -20,
			SaturationAdjustmentGreen = -35,
			SaturationAdjustmentMagenta = -10,
			SaturationAdjustmentOrange = -8,
			SaturationAdjustmentPurple = -30,
			SaturationAdjustmentRed = -15,
			SaturationAdjustmentYellow = -20,
			ShadowTint = -2,
			Shadows2012 = 10,
			SharpenDetail = 25,
			SharpenEdgeMasking = 0,
			SharpenRadius = 1,
			Sharpness = 25,
			SplitToningBalance = 90,
			SplitToningHighlightHue = 55,
			SplitToningHighlightSaturation = 3,
			SplitToningShadowHue = 55,
			SplitToningShadowSaturation = 10,
			ToneCurveName2012 = "Custom",
			ToneCurvePV2012 = {
				1,
				24,
				42,
				55,
				156,
				145,
				255,
				255,
			},
			ToneCurvePV2012Blue = {
				0,
				0,
				52,
				35,
				119,
				127,
				188,
				198,
				254,
				249,
			},
			ToneCurvePV2012Green = {
				0,
				9,
				45,
				38,
				117,
				126,
				190,
				199,
				255,
				252,
			},
			ToneCurvePV2012Red = {
				0,
				6,
				49,
				36,
				114,
				127,
				189,
				198,
				255,
				255,
			},
			Vibrance = 0,
			WhiteBalance = "As Shot",
			Whites2012 = -10,
			orientation = "AB",
		},
		uuid = "8C684CDB-4292-4FFD-82D7-9B3D8BEB194C",
	},
	version = 0,
}
