CM - The Essential Collection Lr Presets 339722/Lightgram - The Essential Collection/Green.lrtemplate
s = {
	id = "C852FC35-9F20-4D8C-A025-0D7507FF11CD",
	internalName = "Green",
	title = "Green",
	type = "Develop",
	value = {
		settings = {
			Blacks2012 = 25,
			BlueHue = 0,
			BlueSaturation = 0,
			CameraProfile = "Adobe Standard",
			Clarity2012 = 0,
			ColorNoiseReduction = 0,
			ColorNoiseReductionDetail = 50,
			ColorNoiseReductionSmoothness = 50,
			Contrast2012 = 0,
			ConvertToGrayscale = false,
			EnableCalibration = true,
			EnableCircularGradientBasedCorrections = true,
			EnableColorAdjustments = true,
			EnableDetail = true,
			EnableEffects = true,
			EnableGradientBasedCorrections = true,
			EnableSplitToning = true,
			Exposure2012 = 0,
			GrainAmount = 80,
			GrainFrequency = 45,
			GrainSize = 20,
			GreenHue = 0,
			GreenSaturation = 0,
			Highlights2012 = -52,
			HueAdjustmentAqua = 0,
			HueAdjustmentBlue = 8,
			HueAdjustmentGreen = 15,
			HueAdjustmentMagenta = 20,
			HueAdjustmentOrange = 2,
			HueAdjustmentPurple = 10,
			HueAdjustmentRed = 25,
			HueAdjustmentYellow = 10,
			LuminanceAdjustmentAqua = 30,
			LuminanceAdjustmentBlue = -20,
			LuminanceAdjustmentGreen = 25,
			LuminanceAdjustmentMagenta = 0,
			LuminanceAdjustmentOrange = -5,
			LuminanceAdjustmentPurple = -10,
			LuminanceAdjustmentRed = -15,
			LuminanceAdjustmentYellow = 15,
			LuminanceNoiseReductionContrast = 0,
			LuminanceNoiseReductionDetail = 50,
			LuminanceSmoothing = 0,
			ParametricDarks = -60,
			ParametricHighlightSplit = 70,
			ParametricHighlights = -20,
			ParametricLights = 15,
			ParametricMidtoneSplit = 32,
			ParametricShadowSplit = 16,
			ParametricShadows = -10,
			PostCropVignetteAmount = 0,
			PostCropVignetteFeather = 50,
			PostCropVignetteHighlightContrast = 0,
			PostCropVignetteMidpoint = 50,
			PostCropVignetteRoundness = 0,
			PostCropVignetteStyle = 1,
			ProcessVersion = "6.7",
			RedHue = 0,
			RedSaturation = 0,
			Saturation = -5,
			SaturationAdjustmentAqua = -35,
			SaturationAdjustmentBlue = -10,
			SaturationAdjustmentGreen = -30,
			SaturationAdjustmentMagenta = -30,
			SaturationAdjustmentOrange = -10,
			SaturationAdjustmentPurple = -30,
			SaturationAdjustmentRed = 5,
			SaturationAdjustmentYellow = 0,
			ShadowTint = 0,
			Shadows2012 = 20,
			SharpenDetail = 25,
			SharpenEdgeMasking = 0,
			SharpenRadius = 1,
			Sharpness = 25,
			SplitToningBalance = 0,
			SplitToningHighlightHue = 0,
			SplitToningHighlightSaturation = 0,
			SplitToningShadowHue = 0,
			SplitToningShadowSaturation = 0,
			ToneCurveName2012 = "Custom",
			ToneCurvePV2012 = {
				0,
				29,
				53,
				68,
				126,
				131,
				255,
				250,
			},
			ToneCurvePV2012Blue = {
				0,
				4,
				22,
				19,
				66,
				56,
				121,
				121,
				176,
				189,
				226,
				231,
				255,
				253,
			},
			ToneCurvePV2012Green = {
				0,
				3,
				65,
				54,
				117,
				120,
				183,
				197,
				255,
				253,
			},
			ToneCurvePV2012Red = {
				0,
				0,
				21,
				10,
				72,
				54,
				118,
				120,
				179,
				198,
				255,
				253,
			},
			Vibrance = 0,
			WhiteBalance = "As Shot",
			Whites2012 = -59,
			orientation = "AB",
		},
		uuid = "8CEBCDC8-6371-440B-96D7-BB720B537BEE",
	},
	version = 0,
}
