CM - The Essential Collection Lr Presets 339722/Lightgram - The Essential Collection/Honey.lrtemplate
s = {
	id = "E59975D8-1221-45EE-9416-EB61CDCABDC3",
	internalName = "Honey",
	title = "Honey",
	type = "Develop",
	value = {
		settings = {
			Blacks2012 = 25,
			BlueHue = -15,
			BlueSaturation = 0,
			CameraProfile = "Adobe Standard",
			Clarity2012 = 7,
			ColorNoiseReduction = 0,
			ColorNoiseReductionDetail = 50,
			ColorNoiseReductionSmoothness = 50,
			Contrast2012 = 0,
			ConvertToGrayscale = false,
			EnableCalibration = true,
			EnableCircularGradientBasedCorrections = true,
			EnableColorAdjustments = true,
			EnableDetail = true,
			EnableEffects = true,
			EnableGradientBasedCorrections = true,
			EnableSplitToning = true,
			Exposure2012 = 0,
			GrainAmount = 0,
			GrainFrequency = 40,
			GrainSize = 60,
			GreenHue = 0,
			GreenSaturation = 0,
			Highlights2012 = -25,
			HueAdjustmentAqua = -15,
			HueAdjustmentBlue = -30,
			HueAdjustmentGreen = -5,
			HueAdjustmentMagenta = 15,
			HueAdjustmentOrange = 0,
			HueAdjustmentPurple = 0,
			HueAdjustmentRed = 10,
			HueAdjustmentYellow = -10,
			LuminanceAdjustmentAqua = -5,
			LuminanceAdjustmentBlue = -15,
			LuminanceAdjustmentGreen = -40,
			LuminanceAdjustmentMagenta = 10,
			LuminanceAdjustmentOrange = -10,
			LuminanceAdjustmentPurple = 20,
			LuminanceAdjustmentRed = -20,
			LuminanceAdjustmentYellow = -35,
			LuminanceNoiseReductionContrast = 0,
			LuminanceNoiseReductionDetail = 50,
			LuminanceSmoothing = 0,
			ParametricDarks = -15,
			ParametricHighlightSplit = 75,
			ParametricHighlights = 2,
			ParametricLights = 8,
			ParametricMidtoneSplit = 37,
			ParametricShadowSplit = 14,
			ParametricShadows = -5,
			PostCropVignetteAmount = 0,
			PostCropVignetteFeather = 50,
			PostCropVignetteHighlightContrast = 0,
			PostCropVignetteMidpoint = 50,
			PostCropVignetteRoundness = 0,
			PostCropVignetteStyle = 1,
			ProcessVersion = "6.7",
			RedHue = 10,
			RedSaturation = -5,
			Saturation = -10,
			SaturationAdjustmentAqua = -10,
			SaturationAdjustmentBlue = -30,
			SaturationAdjustmentGreen = -20,
			SaturationAdjustmentMagenta = -40,
			SaturationAdjustmentOrange = -15,
			SaturationAdjustmentPurple = -45,
			SaturationAdjustmentRed = -15,
			SaturationAdjustmentYellow = 0,
			ShadowTint = 0,
			Shadows2012 = 37,
			SharpenDetail = 25,
			SharpenEdgeMasking = 0,
			SharpenRadius = 1.2,
			Sharpness = 25,
			SplitToningBalance = 0,
			SplitToningHighlightHue = 0,
			SplitToningHighlightSaturation = 0,
			SplitToningShadowHue = 0,
			SplitToningShadowSaturation = 0,
			ToneCurveName2012 = "Custom",
			ToneCurvePV2012 = {
				0,
				35,
				29,
				37,
				93,
				95,
				161,
				165,
				255,
				255,
			},
			ToneCurvePV2012Blue = {
				0,
				0,
				40,
				29,
				113,
				119,
				217,
				230,
				255,
				255,
			},
			ToneCurvePV2012Green = {
				0,
				0,
				45,
				35,
				116,
				122,
				213,
				228,
				255,
				255,
			},
			ToneCurvePV2012Red = {
				0,
				0,
				41,
				24,
				115,
				120,
				177,
				190,
				232,
				234,
				255,
				246,
			},
			Vibrance = 0,
			WhiteBalance = "As Shot",
			Whites2012 = -10,
			orientation = "AB",
		},
		uuid = "A4BB42AB-14BA-4DBE-BF70-F1CC6682F351",
	},
	version = 0,
}
