CM 200+ All Seasons presets 181273/Pastel Presets Summer Sunlight/SunHaze.lrtemplate
s = {
	id = "19920E0D-7B95-4D41-AD77-9995893044B4",
	internalName = "SunHaze",
	title = "SunHaze",
	type = "Develop",
	value = {
		settings = {
			Blacks2012 = 27,
			Contrast2012 = 0,
			Exposure2012 = 0.7,
			Highlights2012 = 0,
			ParametricDarks = 0,
			ParametricHighlightSplit = 75,
			ParametricHighlights = 0,
			ParametricLights = 0,
			ParametricMidtoneSplit = 50,
			ParametricShadowSplit = 25,
			ParametricShadows = 0,
			ProcessVersion = "6.7",
			Shadows2012 = 24,
			Temperature = 5600,
			Tint = 5,
			ToneCurveName2012 = "Custom",
			ToneCurvePV2012 = {
				38,
				62,
				255,
				255,
			},
			ToneCurvePV2012Blue = {
				0,
				0,
				255,
				255,
			},
			ToneCurvePV2012Green = {
				0,
				0,
				255,
				255,
			},
			ToneCurvePV2012Red = {
				0,
				0,
				255,
				255,
			},
			WhiteBalance = "Custom",
			Whites2012 = 0,
		},
		uuid = "634326EB-CAA5-41CC-B628-985419AE46DE",
	},
	version = 0,
}
