CM 200+ All Seasons presets 181273/Pastel Presets Summer Sunlight/Sunshine.lrtemplate
s = {
	id = "9C9947D0-11E5-42F2-BA9E-3E5A3806DE73",
	internalName = "Sunshine",
	title = "Sunshine",
	type = "Develop",
	value = {
		settings = {
			ParametricDarks = 0,
			ParametricHighlightSplit = 75,
			ParametricHighlights = 0,
			ParametricLights = 0,
			ParametricMidtoneSplit = 50,
			ParametricShadowSplit = 25,
			ParametricShadows = 0,
			ProcessVersion = "6.7",
			ToneCurveName2012 = "Custom",
			ToneCurvePV2012 = {
				0,
				0,
				93,
				102,
				165,
				181,
				182,
				205,
				208,
				231,
				255,
				255,
			},
			ToneCurvePV2012Blue = {
				0,
				0,
				88,
				85,
				160,
				153,
				188,
				202,
				255,
				255,
			},
			ToneCurvePV2012Green = {
				0,
				0,
				204,
				206,
				255,
				255,
			},
			ToneCurvePV2012Red = {
				0,
				0,
				255,
				255,
			},
			WhiteBalance = "As Shot",
		},
		uuid = "23EF563A-3454-4582-85AA-4F01CDC80A09",
	},
	version = 0,
}
