Wedding Lightroom Presets/Wedding Lightroom Preset/08 Preset.lrtemplate
s = {
	id = "E1EA0684-4883-40EE-B628-0471BF728F57",
	internalName = "9",
	title = "9",
	type = "Develop",
	value = {
		settings = {
			AutoLateralCA = 0,
			Blacks2012 = 28,
			BlueHue = -74,
			BlueSaturation = 60,
			CameraProfile = "Embedded",
			ChromaticAberrationB = 0,
			ChromaticAberrationR = 0,
			Clarity2012 = 0,
			ColorNoiseReduction = 19,
			ColorNoiseReductionDetail = 50,
			ColorNoiseReductionSmoothness = 50,
			Contrast2012 = 7,
			ConvertToGrayscale = false,
			Defringe = 0,
			DefringeGreenAmount = 0,
			DefringeGreenHueHi = 60,
			DefringeGreenHueLo = 40,
			DefringePurpleAmount = 0,
			DefringePurpleHueHi = 70,
			DefringePurpleHueLo = 30,
			EnableCalibration = true,
			EnableColorAdjustments = true,
			EnableDetail = true,
			EnableEffects = true,
			EnableLensCorrections = true,
			EnableSplitToning = true,
			Exposure2012 = 0.24,
			GrainAmount = 0,
			GrainFrequency = 50,
			GrainSize = 25,
			GreenHue = -66,
			GreenSaturation = 34,
			Highlights2012 = -7,
			HueAdjustmentAqua = 0,
			HueAdjustmentBlue = 0,
			HueAdjustmentGreen = 31,
			HueAdjustmentMagenta = 0,
			HueAdjustmentOrange = 0,
			HueAdjustmentPurple = -16,
			HueAdjustmentRed = 2,
			HueAdjustmentYellow = 0,
			LuminanceAdjustmentAqua = -37,
			LuminanceAdjustmentBlue = 26,
			LuminanceAdjustmentGreen = -60,
			LuminanceAdjustmentMagenta = -30,
			LuminanceAdjustmentOrange = -20,
			LuminanceAdjustmentPurple = -13,
			LuminanceAdjustmentRed = -29,
			LuminanceAdjustmentYellow = -24,
			LuminanceNoiseReductionContrast = 6,
			LuminanceNoiseReductionDetail = 45,
			LuminanceSmoothing = 26,
			ParametricDarks = 22,
			ParametricHighlightSplit = 75,
			ParametricHighlights = 20,
			ParametricLights = 0,
			ParametricMidtoneSplit = 50,
			ParametricShadowSplit = 25,
			ParametricShadows = -5,
			PostCropVignetteAmount = -52,
			PostCropVignetteFeather = 68,
			PostCropVignetteHighlightContrast = 81,
			PostCropVignetteMidpoint = 10,
			PostCropVignetteRoundness = 38,
			PostCropVignetteStyle = 1,
			ProcessVersion = "6.7",
			RedHue = 0,
			RedSaturation = -23,
			Saturation = 0,
			SaturationAdjustmentAqua = -9,
			SaturationAdjustmentBlue = -67,
			SaturationAdjustmentGreen = -40,
			SaturationAdjustmentMagenta = -49,
			SaturationAdjustmentOrange = -49,
			SaturationAdjustmentPurple = -58,
			SaturationAdjustmentRed = -40,
			SaturationAdjustmentYellow = -20,
			ShadowTint = 0,
			Shadows2012 = 27,
			SharpenDetail = 26,
			SharpenEdgeMasking = 0,
			SharpenRadius = 0.9,
			Sharpness = 55,
			SplitToningBalance = 100,
			SplitToningHighlightHue = 49,
			SplitToningHighlightSaturation = 36,
			SplitToningShadowHue = 181,
			SplitToningShadowSaturation = 34,
			Temperature = 5095,
			Tint = 14,
			ToneCurveName2012 = "Custom",
			ToneCurvePV2012 = {
				3,
				19,
				62,
				53,
				86,
				76,
				106,
				98,
				139,
				133,
				165,
				160,
				255,
				229,
			},
			ToneCurvePV2012Blue = {
				0,
				7,
				27,
				38,
				55,
				62,
				92,
				95,
				130,
				123,
				163,
				162,
				194,
				198,
				225,
				229,
				255,
				255,
			},
			ToneCurvePV2012Green = {
				8,
				0,
				42,
				39,
				62,
				62,
				77,
				79,
				97,
				101,
				123,
				130,
				145,
				154,
				164,
				173,
				187,
				196,
				212,
				221,
				247,
				254,
			},
			ToneCurvePV2012Red = {
				10,
				0,
				82,
				81,
				140,
				144,
				212,
				220,
				246,
				255,
			},
			Vibrance = 0,
			VignetteAmount = 0,
			VignetteMidpoint = 50,
			WhiteBalance = "Custom",
			Whites2012 = -14,
		},
		uuid = "627F2577-87FC-4337-A551-5245D397EE7A",
	},
	version = 0,
}
