Wedding Lightroom Presets/Wedding Lightroom Preset/10 Preset B&W.lrtemplate
s = {
	id = "569D0B4A-A800-4DDD-8470-853AA511B298",
	internalName = "10 Preset B&W",
	title = "10 Preset B&W",
	type = "Develop",
	value = {
		settings = {
			AutoLateralCA = 0,
			Blacks2012 = 10,
			BlueHue = 0,
			BlueSaturation = 0,
			CameraProfile = "Embedded",
			ChromaticAberrationB = 0,
			ChromaticAberrationR = 0,
			Clarity2012 = 7,
			ColorNoiseReduction = 0,
			ColorNoiseReductionDetail = 50,
			ColorNoiseReductionSmoothness = 50,
			Contrast2012 = 10,
			ConvertToGrayscale = true,
			Defringe = 0,
			DefringeGreenAmount = 0,
			DefringeGreenHueHi = 60,
			DefringeGreenHueLo = 40,
			DefringePurpleAmount = 0,
			DefringePurpleHueHi = 70,
			DefringePurpleHueLo = 30,
			EnableCalibration = true,
			EnableDetail = true,
			EnableEffects = true,
			EnableGrayscaleMix = true,
			EnableLensCorrections = true,
			EnableSplitToning = true,
			Exposure2012 = 0.36,
			GrainAmount = 14,
			GrainFrequency = 50,
			GrainSize = 55,
			GrayMixerAqua = -20,
			GrayMixerBlue = 9,
			GrayMixerGreen = -36,
			GrayMixerMagenta = -9,
			GrayMixerOrange = -22,
			GrayMixerPurple = 4,
			GrayMixerRed = -4,
			GrayMixerYellow = -13,
			GreenHue = 0,
			GreenSaturation = 0,
			Highlights2012 = -29,
			LuminanceNoiseReductionContrast = 0,
			LuminanceNoiseReductionDetail = 50,
			LuminanceSmoothing = 48,
			ParametricDarks = 0,
			ParametricHighlightSplit = 75,
			ParametricHighlights = -3,
			ParametricLights = 1,
			ParametricMidtoneSplit = 50,
			ParametricShadowSplit = 25,
			ParametricShadows = 20,
			PostCropVignetteAmount = 0,
			PostCropVignetteFeather = 50,
			PostCropVignetteHighlightContrast = 0,
			PostCropVignetteMidpoint = 50,
			PostCropVignetteRoundness = 0,
			PostCropVignetteStyle = 1,
			ProcessVersion = "6.7",
			RedHue = 0,
			RedSaturation = 0,
			ShadowTint = 0,
			Shadows2012 = 55,
			SharpenDetail = 25,
			SharpenEdgeMasking = 0,
			SharpenRadius = 1,
			Sharpness = 0,
			SplitToningBalance = 100,
			SplitToningHighlightHue = 73,
			SplitToningHighlightSaturation = 4,
			SplitToningShadowHue = 227,
			SplitToningShadowSaturation = 0,
			ToneCurveName2012 = "Custom",
			ToneCurvePV2012 = {
				0,
				46,
				48,
				40,
				132,
				120,
				204,
				193,
				255,
				220,
			},
			ToneCurvePV2012Blue = {
				0,
				0,
				255,
				255,
			},
			ToneCurvePV2012Green = {
				0,
				0,
				255,
				255,
			},
			ToneCurvePV2012Red = {
				0,
				0,
				255,
				255,
			},
			VignetteAmount = 0,
			VignetteMidpoint = 50,
			WhiteBalance = "As Shot",
			Whites2012 = 10,
		},
		uuid = "2CA81AA0-2674-4E3A-80C7-B707EF03A142",
	},
	version = 0,
}
