CM-315828-Film-Emulation-Lightroom-Presets-Pro/Lightroom Presets - Film Lightroom Presets by BeArt/beart - Film Touch of Evil.lrtemplate
s = {
	id = "A8A72378-76F2-4706-ACA0-E8D5B58D4626",
	internalName = "beart - Film Touch of Evil",
	title = "beart - Film Touch of Evil",
	type = "Develop",
	value = {
		settings = {
			AutoLateralCA = 0,
			Blacks2012 = 12,
			BlueHue = 0,
			BlueSaturation = 0,
			CameraProfile = "Adobe Standard",
			ChromaticAberrationB = 0,
			ChromaticAberrationR = 0,
			Clarity2012 = 0,
			ColorNoiseReduction = 68,
			ColorNoiseReductionDetail = 61,
			ColorNoiseReductionSmoothness = 50,
			Contrast2012 = 0,
			ConvertToGrayscale = false,
			CropConstrainToWarp = 0,
			Defringe = 0,
			DefringeGreenAmount = 0,
			DefringeGreenHueHi = 60,
			DefringeGreenHueLo = 40,
			DefringePurpleAmount = 0,
			DefringePurpleHueHi = 70,
			DefringePurpleHueLo = 30,
			Dehaze = 0,
			EnableCalibration = true,
			EnableCircularGradientBasedCorrections = true,
			EnableColorAdjustments = true,
			EnableDetail = true,
			EnableEffects = true,
			EnableGradientBasedCorrections = true,
			EnableLensCorrections = true,
			EnableSplitToning = true,
			Exposure2012 = 0,
			GrainAmount = 23,
			GrainFrequency = 13,
			GrainSize = 18,
			GreenHue = 12,
			GreenSaturation = 0,
			Highlights2012 = -30,
			HueAdjustmentAqua = -10,
			HueAdjustmentBlue = -5,
			HueAdjustmentGreen = 15,
			HueAdjustmentMagenta = 15,
			HueAdjustmentOrange = 25,
			HueAdjustmentPurple = 10,
			HueAdjustmentRed = 15,
			HueAdjustmentYellow = 0,
			IncrementalTemperature = 0,
			IncrementalTint = 0,
			LensManualDistortionAmount = 0,
			LensProfileEnable = 0,
			LensProfileSetup = "LensDefaults",
			LuminanceAdjustmentAqua = 0,
			LuminanceAdjustmentBlue = -5,
			LuminanceAdjustmentGreen = -20,
			LuminanceAdjustmentMagenta = 0,
			LuminanceAdjustmentOrange = 10,
			LuminanceAdjustmentPurple = 0,
			LuminanceAdjustmentRed = -20,
			LuminanceAdjustmentYellow = 5,
			LuminanceNoiseReductionContrast = 0,
			LuminanceNoiseReductionDetail = 50,
			LuminanceSmoothing = 8,
			ParametricDarks = 20,
			ParametricHighlightSplit = 85,
			ParametricHighlights = -15,
			ParametricLights = 10,
			ParametricMidtoneSplit = 42,
			ParametricShadowSplit = 14,
			ParametricShadows = -20,
			PerspectiveAspect = 0,
			PerspectiveHorizontal = 0,
			PerspectiveRotate = 0,
			PerspectiveScale = 100,
			PerspectiveUpright = 0,
			PerspectiveVertical = 0,
			PostCropVignetteAmount = 0,
			PostCropVignetteFeather = 50,
			PostCropVignetteHighlightContrast = 0,
			PostCropVignetteMidpoint = 50,
			PostCropVignetteRoundness = 0,
			PostCropVignetteStyle = 1,
			ProcessVersion = "6.7",
			RedHue = 0,
			RedSaturation = 10,
			Saturation = -26,
			SaturationAdjustmentAqua = -25,
			SaturationAdjustmentBlue = -20,
			SaturationAdjustmentGreen = -29,
			SaturationAdjustmentMagenta = -40,
			SaturationAdjustmentOrange = -27,
			SaturationAdjustmentPurple = -29,
			SaturationAdjustmentRed = -18,
			SaturationAdjustmentYellow = -20,
			ShadowTint = 0,
			Shadows2012 = 35,
			SharpenDetail = 0,
			SharpenEdgeMasking = 0,
			SharpenRadius = 0.8,
			Sharpness = 20,
			SplitToningBalance = 0,
			SplitToningHighlightHue = 0,
			SplitToningHighlightSaturation = 0,
			SplitToningShadowHue = 0,
			SplitToningShadowSaturation = 0,
			ToneCurveName2012 = "Custom",
			ToneCurvePV2012 = {
				0,
				41,
				62,
				71,
				125,
				126,
				190,
				201,
				232,
				232,
				255,
				232,
			},
			ToneCurvePV2012Blue = {
				0,
				0,
				37,
				16,
				72,
				48,
				131,
				126,
				179,
				179,
				255,
				250,
			},
			ToneCurvePV2012Green = {
				0,
				0,
				36,
				23,
				74,
				58,
				131,
				126,
				179,
				182,
				255,
				255,
			},
			ToneCurvePV2012Red = {
				0,
				0,
				37,
				17,
				70,
				47,
				131,
				126,
				187,
				191,
				255,
				255,
			},
			Vibrance = 29,
			VignetteAmount = 0,
			VignetteMidpoint = 50,
			WhiteBalance = "Custom",
			Whites2012 = -20,
			orientation = "AB",
		},
		uuid = "BA834AC0-09B2-4204-AE08-AE1519991E44",
	},
	version = 0,
}
