1100 Lightroom Presets/CM 1100+ Lightroom Presets 320973/50 Premium Winter Lightroom Presets V-1/Winter Effect 48.lrtemplate
s = {
	id = "B8CF5F49-1891-4D9D-B133-2E97AD3BE3AE",
	internalName = "Winter Effect 48",
	title = "Winter Effect 48",
	type = "Develop",
	value = {
		settings = {
			AutoLateralCA = 0,
			AutoWhiteVersion = 134348800,
			Blacks2012 = 0,
			BlueHue = 0,
			BlueSaturation = 0,
			CameraProfile = "Adobe Standard",
			ChromaticAberrationB = 0,
			ChromaticAberrationR = 0,
			Clarity2012 = 20,
			ColorNoiseReduction = 0,
			ColorNoiseReductionDetail = 50,
			ColorNoiseReductionSmoothness = 50,
			Contrast2012 = -45,
			ConvertToGrayscale = false,
			CropConstrainToWarp = 0,
			Defringe = 0,
			DefringeGreenAmount = 0,
			DefringeGreenHueHi = 60,
			DefringeGreenHueLo = 40,
			DefringePurpleAmount = 0,
			DefringePurpleHueHi = 70,
			DefringePurpleHueLo = 30,
			EnableCalibration = true,
			EnableCircularGradientBasedCorrections = true,
			EnableColorAdjustments = true,
			EnableDetail = true,
			EnableEffects = true,
			EnableGradientBasedCorrections = true,
			EnableLensCorrections = true,
			EnableSplitToning = true,
			Exposure2012 = -1.41,
			GradientBasedCorrections = {
				{
					CorrectionActive = true,
					CorrectionAmount = 1,
					CorrectionID = "143DC2E2-C6F9-45D0-A465-67810447334D",
					CorrectionMasks = {
						{
							FullX = 1.05133,
							FullY = -0.007481,
							MaskID = "E61D3FED-0508-4E92-B9FB-E37B2294472D",
							MaskValue = 1,
							What = "Mask/Gradient",
							ZeroX = -0.001656,
							ZeroY = 1.10973,
						},
					},
					CorrectionReferenceX = 0.524837,
					CorrectionReferenceY = 0.551125,
					LocalBrightness = 0,
					LocalClarity = 0,
					LocalClarity2012 = 0,
					LocalContrast = 0,
					LocalContrast2012 = 0,
					LocalExposure = 0.25,
					LocalExposure2012 = 0.34125,
					LocalHighlights2012 = 0,
					LocalLuminanceNoise = 0,
					LocalMoire = 0,
					LocalSaturation = -0.12941,
					LocalShadows2012 = 0,
					LocalSharpness = 1,
					LocalTemperature = 0.90588,
					LocalTint = 1,
					LocalToningHue = 0,
					LocalToningSaturation = 0,
					What = "Correction",
				},
			},
			GrainAmount = 0,
			GrainFrequency = 50,
			GrainSize = 50,
			GreenHue = 0,
			GreenSaturation = 0,
			Highlights2012 = -14,
			HueAdjustmentAqua = 0,
			HueAdjustmentBlue = 0,
			HueAdjustmentGreen = 0,
			HueAdjustmentMagenta = 0,
			HueAdjustmentOrange = 0,
			HueAdjustmentPurple = 0,
			HueAdjustmentRed = 0,
			HueAdjustmentYellow = 0,
			LensManualDistortionAmount = 0,
			LensProfileEnable = 0,
			LensProfileSetup = "LensDefaults",
			LuminanceAdjustmentAqua = 0,
			LuminanceAdjustmentBlue = 0,
			LuminanceAdjustmentGreen = 0,
			LuminanceAdjustmentMagenta = 0,
			LuminanceAdjustmentOrange = 0,
			LuminanceAdjustmentPurple = 0,
			LuminanceAdjustmentRed = 0,
			LuminanceAdjustmentYellow = 0,
			LuminanceNoiseReductionContrast = 0,
			LuminanceNoiseReductionDetail = 50,
			LuminanceSmoothing = 0,
			ParametricDarks = 9,
			ParametricHighlightSplit = 75,
			ParametricHighlights = 0,
			ParametricLights = 0,
			ParametricMidtoneSplit = 50,
			ParametricShadowSplit = 25,
			ParametricShadows = 0,
			PerspectiveAspect = 0,
			PerspectiveHorizontal = 0,
			PerspectiveRotate = 0,
			PerspectiveScale = 100,
			PerspectiveUpright = 0,
			PerspectiveVertical = 0,
			PostCropVignetteAmount = 0,
			PostCropVignetteFeather = 50,
			PostCropVignetteHighlightContrast = 0,
			PostCropVignetteMidpoint = 50,
			PostCropVignetteRoundness = 0,
			PostCropVignetteStyle = 1,
			ProcessVersion = "6.7",
			RedHue = 0,
			RedSaturation = 0,
			Saturation = 0,
			SaturationAdjustmentAqua = 0,
			SaturationAdjustmentBlue = 0,
			SaturationAdjustmentGreen = 0,
			SaturationAdjustmentMagenta = 0,
			SaturationAdjustmentOrange = 0,
			SaturationAdjustmentPurple = 0,
			SaturationAdjustmentRed = 0,
			SaturationAdjustmentYellow = 0,
			ShadowTint = 0,
			Shadows2012 = 0,
			SharpenDetail = 50,
			SharpenEdgeMasking = 0,
			SharpenRadius = 1,
			Sharpness = 70,
			SplitToningBalance = 0,
			SplitToningHighlightHue = 202,
			SplitToningHighlightSaturation = 17,
			SplitToningShadowHue = 21,
			SplitToningShadowSaturation = 26,
			ToneCurveName2012 = "Custom",
			ToneCurvePV2012 = {
				0,
				16,
				133,
				121,
				255,
				255,
			},
			ToneCurvePV2012Blue = {
				0,
				63,
				87,
				128,
				209,
				188,
				255,
				222,
			},
			ToneCurvePV2012Green = {
				0,
				0,
				128,
				144,
				255,
				255,
			},
			ToneCurvePV2012Red = {
				0,
				0,
				65,
				44,
				185,
				192,
				255,
				255,
			},
			Vibrance = -29,
			VignetteAmount = 0,
			VignetteMidpoint = 50,
			WhiteBalance = "Auto",
			Whites2012 = 0,
			orientation = "AB",
		},
		uuid = "80B071A8-7F5B-4E6D-A98A-B16ECB1AADAF",
	},
	version = 0,
}
