1100 Lightroom Presets/CM 1100+ Lightroom Presets 320973/50 Premium Winter Lightroom Presets V-1/Winter Effect 49.lrtemplate
s = {
	id = "E79F31E2-2319-4842-BF65-7EDB8A095105",
	internalName = "Winter Effect 49",
	title = "Winter Effect 49",
	type = "Develop",
	value = {
		settings = {
			AutoLateralCA = 1,
			Blacks2012 = -17,
			BlueHue = 5,
			BlueSaturation = -40,
			CameraProfile = "Embedded",
			ChromaticAberrationB = 0,
			ChromaticAberrationR = 0,
			Clarity2012 = 32,
			ColorNoiseReduction = 0,
			ColorNoiseReductionDetail = 50,
			Contrast2012 = 19,
			ConvertToGrayscale = false,
			CropConstrainToWarp = 0,
			Defringe = 0,
			EnableCalibration = true,
			EnableColorAdjustments = true,
			EnableDetail = true,
			EnableEffects = true,
			EnableGradientBasedCorrections = true,
			EnableLensCorrections = true,
			EnableSplitToning = true,
			Exposure2012 = 0.3,
			GrainAmount = 0,
			GrainFrequency = 50,
			GrainSize = 25,
			GreenHue = 21,
			GreenSaturation = 0,
			Highlights2012 = 0,
			HueAdjustmentAqua = 0,
			HueAdjustmentBlue = 0,
			HueAdjustmentGreen = 14,
			HueAdjustmentMagenta = 0,
			HueAdjustmentOrange = 5,
			HueAdjustmentPurple = 0,
			HueAdjustmentRed = -55,
			HueAdjustmentYellow = 100,
			IncrementalTemperature = 10,
			IncrementalTint = 0,
			LensManualDistortionAmount = 0,
			LensProfileEnable = 0,
			LensProfileSetup = "LensDefaults",
			LuminanceAdjustmentAqua = 0,
			LuminanceAdjustmentBlue = 0,
			LuminanceAdjustmentGreen = -51,
			LuminanceAdjustmentMagenta = 0,
			LuminanceAdjustmentOrange = 100,
			LuminanceAdjustmentPurple = 0,
			LuminanceAdjustmentRed = 7,
			LuminanceAdjustmentYellow = -40,
			LuminanceNoiseReductionContrast = 0,
			LuminanceNoiseReductionDetail = 50,
			LuminanceSmoothing = 0,
			ParametricDarks = 0,
			ParametricHighlightSplit = 75,
			ParametricHighlights = 0,
			ParametricLights = 0,
			ParametricMidtoneSplit = 50,
			ParametricShadowSplit = 25,
			ParametricShadows = 0,
			PerspectiveHorizontal = 0,
			PerspectiveRotate = 0,
			PerspectiveScale = 100,
			PerspectiveVertical = 0,
			PostCropVignetteAmount = 0,
			PostCropVignetteFeather = 50,
			PostCropVignetteHighlightContrast = 0,
			PostCropVignetteMidpoint = 50,
			PostCropVignetteRoundness = 0,
			PostCropVignetteStyle = 2,
			ProcessVersion = "6.7",
			RedHue = -51,
			RedSaturation = -71,
			Saturation = 0,
			SaturationAdjustmentAqua = 0,
			SaturationAdjustmentBlue = 0,
			SaturationAdjustmentGreen = 53,
			SaturationAdjustmentMagenta = 0,
			SaturationAdjustmentOrange = 7,
			SaturationAdjustmentPurple = 0,
			SaturationAdjustmentRed = 9,
			SaturationAdjustmentYellow = 40,
			ShadowTint = -50,
			Shadows2012 = 0,
			SharpenDetail = 25,
			SharpenEdgeMasking = 0,
			SharpenRadius = 1,
			Sharpness = 35,
			SplitToningBalance = 0,
			SplitToningHighlightHue = 51,
			SplitToningHighlightSaturation = 56,
			SplitToningShadowHue = 219,
			SplitToningShadowSaturation = 74,
			ToneCurveName2012 = "Linear",
			ToneCurvePV2012 = {
				0,
				0,
				255,
				255,
			},
			ToneCurvePV2012Blue = {
				0,
				0,
				255,
				255,
			},
			ToneCurvePV2012Green = {
				0,
				0,
				255,
				255,
			},
			ToneCurvePV2012Red = {
				0,
				0,
				255,
				255,
			},
			Vibrance = 0,
			VignetteAmount = 0,
			VignetteMidpoint = 50,
			WhiteBalance = "Custom",
			Whites2012 = -49,
			orientation = "AB",
		},
		uuid = "A8EDE4C1-61BD-467A-B981-647D20639BE9",
	},
	version = 0,
}
