1100 Lightroom Presets/CM 1100+ Lightroom Presets 320973/50 Premium Winter Lightroom Presets V-1/Winter Effect 14.lrtemplate
s = {
	id = "D020AEBD-C6AB-487C-A8FE-478B6CDA0C0A",
	internalName = "Winter Effect 14",
	title = "Winter Effect 14",
	type = "Develop",
	value = {
		settings = {
			AutoLateralCA = 0,
			Blacks2012 = 1,
			BlueHue = 0,
			BlueSaturation = 0,
			CameraProfile = "Embedded",
			ChromaticAberrationB = 0,
			ChromaticAberrationR = 0,
			Clarity2012 = 25,
			ColorNoiseReduction = 25,
			ColorNoiseReductionDetail = 50,
			ColorNoiseReductionSmoothness = 50,
			Contrast2012 = -37,
			ConvertToGrayscale = false,
			CropConstrainToWarp = 0,
			Defringe = 0,
			DefringeGreenAmount = 0,
			DefringeGreenHueHi = 60,
			DefringeGreenHueLo = 40,
			DefringePurpleAmount = 0,
			DefringePurpleHueHi = 70,
			DefringePurpleHueLo = 30,
			EnableCalibration = true,
			EnableCircularGradientBasedCorrections = true,
			EnableColorAdjustments = true,
			EnableDetail = true,
			EnableEffects = true,
			EnableGradientBasedCorrections = true,
			EnableLensCorrections = true,
			EnableSplitToning = true,
			Exposure2012 = -0.37,
			GradientBasedCorrections = {
				{
					CorrectionActive = true,
					CorrectionAmount = 1,
					CorrectionID = "B77B272D-A6F5-4E79-87A2-D44FF5A1D871",
					CorrectionMasks = {
						{
							FullX = 0.17267,
							FullY = 0.417341,
							MaskID = "30AE7F66-AB6D-48D1-9BF2-5E8029DB4B42",
							MaskValue = 1,
							What = "Mask/Gradient",
							ZeroX = -1.1254,
							ZeroY = 0.752283,
						},
					},
					CorrectionReferenceX = -0.476365,
					CorrectionReferenceY = 0.584812,
					LocalBrightness = 0,
					LocalClarity = 0,
					LocalClarity2012 = 0,
					LocalContrast = 0,
					LocalContrast2012 = -0.48649,
					LocalExposure = 0.057471,
					LocalExposure2012 = 0,
					LocalHighlights2012 = 0,
					LocalLuminanceNoise = 0,
					LocalMoire = 0,
					LocalSaturation = 0,
					LocalShadows2012 = 0,
					LocalSharpness = 0,
					LocalTemperature = 0.33784,
					LocalTint = 0.05405,
					LocalToningHue = 64,
					LocalToningSaturation = 0.34,
					What = "Correction",
				},
				{
					CorrectionActive = true,
					CorrectionAmount = 1,
					CorrectionID = "A2F0CA31-4DAD-4A3E-A8A1-B8A811BE97E0",
					CorrectionMasks = {
						{
							FullX = 0.964789,
							FullY = -0.143357,
							MaskID = "E121D917-38F9-473D-8F80-5D91774EB3AD",
							MaskValue = 1,
							What = "Mask/Gradient",
							ZeroX = 0.171362,
							ZeroY = 0.91958,
						},
					},
					CorrectionReferenceX = 0.568075,
					CorrectionReferenceY = 0.388111,
					LocalBrightness = 0,
					LocalClarity = 0,
					LocalClarity2012 = 0,
					LocalContrast = 0,
					LocalContrast2012 = 0,
					LocalExposure = 0.057471,
					LocalExposure2012 = 0,
					LocalHighlights2012 = 0,
					LocalLuminanceNoise = 0,
					LocalMoire = 0,
					LocalSaturation = 0,
					LocalShadows2012 = 0,
					LocalSharpness = 0,
					LocalTemperature = 0.02703,
					LocalTint = -0.32432,
					LocalToningHue = 305,
					LocalToningSaturation = 0.4,
					What = "Correction",
				},
			},
			GrainAmount = 0,
			GrainFrequency = 50,
			GrainSize = 25,
			GreenHue = 0,
			GreenSaturation = 0,
			Highlights2012 = -41,
			HueAdjustmentAqua = 0,
			HueAdjustmentBlue = 0,
			HueAdjustmentGreen = -5,
			HueAdjustmentMagenta = 0,
			HueAdjustmentOrange = 0,
			HueAdjustmentPurple = 0,
			HueAdjustmentRed = 0,
			HueAdjustmentYellow = 0,
			IncrementalTemperature = -43,
			IncrementalTint = 2,
			LensManualDistortionAmount = 0,
			LensProfileEnable = 0,
			LensProfileSetup = "LensDefaults",
			LuminanceAdjustmentAqua = 59,
			LuminanceAdjustmentBlue = -25,
			LuminanceAdjustmentGreen = 0,
			LuminanceAdjustmentMagenta = 0,
			LuminanceAdjustmentOrange = 0,
			LuminanceAdjustmentPurple = 0,
			LuminanceAdjustmentRed = -19,
			LuminanceAdjustmentYellow = 0,
			LuminanceNoiseReductionContrast = 0,
			LuminanceNoiseReductionDetail = 50,
			LuminanceSmoothing = 0,
			ParametricDarks = 25,
			ParametricHighlightSplit = 75,
			ParametricHighlights = 60,
			ParametricLights = 40,
			ParametricMidtoneSplit = 50,
			ParametricShadowSplit = 25,
			ParametricShadows = 0,
			PerspectiveAspect = 0,
			PerspectiveHorizontal = 0,
			PerspectiveRotate = 0,
			PerspectiveScale = 100,
			PerspectiveUpright = 0,
			PerspectiveVertical = 0,
			PostCropVignetteAmount = 0,
			PostCropVignetteFeather = 50,
			PostCropVignetteHighlightContrast = 0,
			PostCropVignetteMidpoint = 50,
			PostCropVignetteRoundness = 0,
			PostCropVignetteStyle = 1,
			ProcessVersion = "6.7",
			RedHue = 0,
			RedSaturation = 0,
			Saturation = 18,
			SaturationAdjustmentAqua = -5,
			SaturationAdjustmentBlue = 23,
			SaturationAdjustmentGreen = -54,
			SaturationAdjustmentMagenta = 0,
			SaturationAdjustmentOrange = 0,
			SaturationAdjustmentPurple = 0,
			SaturationAdjustmentRed = 45,
			SaturationAdjustmentYellow = -45,
			ShadowTint = 0,
			Shadows2012 = 19,
			SharpenDetail = 25,
			SharpenEdgeMasking = 0,
			SharpenRadius = 1,
			Sharpness = 25,
			SplitToningBalance = 0,
			SplitToningHighlightHue = 111,
			SplitToningHighlightSaturation = 40,
			SplitToningShadowHue = 331,
			SplitToningShadowSaturation = 65,
			ToneCurveName2012 = "Linear",
			ToneCurvePV2012 = {
				0,
				0,
				255,
				255,
			},
			ToneCurvePV2012Blue = {
				0,
				0,
				255,
				255,
			},
			ToneCurvePV2012Green = {
				0,
				0,
				255,
				255,
			},
			ToneCurvePV2012Red = {
				0,
				0,
				255,
				255,
			},
			Vibrance = 0,
			VignetteAmount = 0,
			VignetteMidpoint = 50,
			WhiteBalance = "Custom",
			Whites2012 = 12,
			orientation = "AB",
		},
		uuid = "CADE7A6F-A94E-4B7A-A58D-DA8243972511",
	},
	version = 0,
}
