HQLightroomPresets 505 V.3.4/HQLightroomPresets 505 V.3.4/HQLightroomPresets Lr4-Lr5 JPEG & RAW/Bold Shade - Dream & Fantasy IV ~ HQLightroomPresets_.lrtemplate
s = {
	id = "40164999-5D55-4AF5-AD59-07830F2CF447",
	internalName = "Copyrights © 2012 ~ HQLighroomPresets.com",
	title = "Bold Shade : Dream & Fantasy IV ~ HQLightroomPresets ",
	type = "Develop",
	value = {
		settings = {
			AutoLateralCA = 0,
			Blacks2012 = -11,
			BlueHue = 0,
			BlueSaturation = 0,
			CameraProfile = "Embedded",
			ChromaticAberrationB = 0,
			ChromaticAberrationR = 0,
			Clarity2012 = 18,
			ColorNoiseReduction = 28,
			ColorNoiseReductionDetail = 50,
			Contrast2012 = -33,
			ConvertToGrayscale = false,
			Defringe = 0,
			EnableCalibration = true,
			EnableColorAdjustments = true,
			EnableDetail = true,
			EnableEffects = true,
			EnableLensCorrections = true,
			EnableSplitToning = true,
			Exposure2012 = 1.22,
			GrainAmount = 0,
			GrainFrequency = 50,
			GrainSize = 25,
			GreenHue = 0,
			GreenSaturation = 0,
			Highlights2012 = -7,
			HueAdjustmentAqua = -44,
			HueAdjustmentBlue = -46,
			HueAdjustmentGreen = -46,
			HueAdjustmentMagenta = -52,
			HueAdjustmentOrange = -38,
			HueAdjustmentPurple = -48,
			HueAdjustmentRed = -56,
			HueAdjustmentYellow = -46,
			IncrementalTemperature = 23,
			IncrementalTint = 1,
			LuminanceAdjustmentAqua = 0,
			LuminanceAdjustmentBlue = 0,
			LuminanceAdjustmentGreen = 0,
			LuminanceAdjustmentMagenta = 0,
			LuminanceAdjustmentOrange = 0,
			LuminanceAdjustmentPurple = 0,
			LuminanceAdjustmentRed = 23,
			LuminanceAdjustmentYellow = 0,
			LuminanceNoiseReductionContrast = 0,
			LuminanceNoiseReductionDetail = 50,
			LuminanceSmoothing = 5,
			ParametricDarks = -11,
			ParametricHighlightSplit = 75,
			ParametricHighlights = 0,
			ParametricLights = -29,
			ParametricMidtoneSplit = 50,
			ParametricShadowSplit = 25,
			ParametricShadows = 0,
			PostCropVignetteAmount = -27,
			PostCropVignetteFeather = 88,
			PostCropVignetteHighlightContrast = 0,
			PostCropVignetteMidpoint = 16,
			PostCropVignetteRoundness = 54,
			PostCropVignetteStyle = 1,
			ProcessVersion = "6.7",
			RedHue = 0,
			RedSaturation = 0,
			Saturation = 0,
			SaturationAdjustmentAqua = 77,
			SaturationAdjustmentBlue = 33,
			SaturationAdjustmentGreen = 38,
			SaturationAdjustmentMagenta = 0,
			SaturationAdjustmentOrange = -50,
			SaturationAdjustmentPurple = 0,
			SaturationAdjustmentRed = -67,
			SaturationAdjustmentYellow = 0,
			ShadowTint = 0,
			Shadows2012 = 32,
			SharpenDetail = 50,
			SharpenEdgeMasking = 0,
			SharpenRadius = 1,
			Sharpness = 45,
			SplitToningBalance = 0,
			SplitToningHighlightHue = 83,
			SplitToningHighlightSaturation = 17,
			SplitToningShadowHue = 236,
			SplitToningShadowSaturation = 34,
			ToneCurveName2012 = "shadecurve2",
			ToneCurvePV2012 = {
				0,
				44,
				86,
				55,
				146,
				99,
				196,
				171,
				250,
				212,
			},
			ToneCurvePV2012Blue = {
				0,
				0,
				255,
				255,
			},
			ToneCurvePV2012Green = {
				0,
				0,
				255,
				255,
			},
			ToneCurvePV2012Red = {
				0,
				0,
				255,
				255,
			},
			Vibrance = 0,
			VignetteAmount = 0,
			VignetteMidpoint = 20,
			WhiteBalance = "Custom",
			Whites2012 = 0,
		},
		uuid = "BFE848EF-BD23-4188-B4BE-5FB0961D1897",
	},
	version = 0,
}
