HQLightroomPresets 505 V.3.4/HQLightroomPresets 505 V.3.4/HQLightroomPresets Lr4-Lr5 JPEG & RAW/Bold Shade - Grass Angel ~ HQLightroomPresets_.lrtemplate
s = {
	id = "5CEB84DB-1866-4878-B1E8-9A3E7D790314",
	internalName = "Copyrights © 2012 ~ HQLighroomPresets.com",
	title = "Bold Shade : Grass Angel ~ HQLightroomPresets ",
	type = "Develop",
	value = {
		settings = {
			AutoLateralCA = 0,
			Blacks2012 = -10,
			BlueHue = 0,
			BlueSaturation = 0,
			CameraProfile = "Embedded",
			ChromaticAberrationB = 0,
			ChromaticAberrationR = 0,
			Clarity2012 = 11,
			ColorNoiseReduction = 25,
			ColorNoiseReductionDetail = 50,
			Contrast2012 = -22,
			ConvertToGrayscale = false,
			Defringe = 0,
			EnableCalibration = true,
			EnableColorAdjustments = true,
			EnableDetail = true,
			EnableEffects = true,
			EnableLensCorrections = true,
			EnableSplitToning = true,
			Exposure2012 = 0.98,
			GrainAmount = 0,
			GrainFrequency = 50,
			GrainSize = 25,
			GreenHue = 0,
			GreenSaturation = 0,
			Highlights2012 = -27,
			HueAdjustmentAqua = 0,
			HueAdjustmentBlue = 0,
			HueAdjustmentGreen = 0,
			HueAdjustmentMagenta = 0,
			HueAdjustmentOrange = 0,
			HueAdjustmentPurple = 0,
			HueAdjustmentRed = 0,
			HueAdjustmentYellow = 0,
			IncrementalTemperature = -17,
			IncrementalTint = -52,
			LuminanceAdjustmentAqua = 0,
			LuminanceAdjustmentBlue = 0,
			LuminanceAdjustmentGreen = 0,
			LuminanceAdjustmentMagenta = 0,
			LuminanceAdjustmentOrange = 43,
			LuminanceAdjustmentPurple = 0,
			LuminanceAdjustmentRed = 41,
			LuminanceAdjustmentYellow = 59,
			LuminanceNoiseReductionContrast = 0,
			LuminanceNoiseReductionDetail = 50,
			LuminanceSmoothing = 18,
			ParametricDarks = -45,
			ParametricHighlightSplit = 75,
			ParametricHighlights = 0,
			ParametricLights = -47,
			ParametricMidtoneSplit = 50,
			ParametricShadowSplit = 25,
			ParametricShadows = 0,
			PostCropVignetteAmount = -17,
			PostCropVignetteFeather = 50,
			PostCropVignetteHighlightContrast = 0,
			PostCropVignetteMidpoint = 2,
			PostCropVignetteRoundness = 0,
			PostCropVignetteStyle = 1,
			ProcessVersion = "6.7",
			RedHue = 0,
			RedSaturation = 0,
			Saturation = 20,
			SaturationAdjustmentAqua = 0,
			SaturationAdjustmentBlue = 2,
			SaturationAdjustmentGreen = -11,
			SaturationAdjustmentMagenta = 0,
			SaturationAdjustmentOrange = -41,
			SaturationAdjustmentPurple = 0,
			SaturationAdjustmentRed = -20,
			SaturationAdjustmentYellow = -34,
			ShadowTint = 0,
			Shadows2012 = 63,
			SharpenDetail = 25,
			SharpenEdgeMasking = 0,
			SharpenRadius = 1,
			Sharpness = 71,
			SplitToningBalance = 0,
			SplitToningHighlightHue = 248,
			SplitToningHighlightSaturation = 10,
			SplitToningShadowHue = 323,
			SplitToningShadowSaturation = 20,
			ToneCurveName2012 = "Custom",
			ToneCurvePV2012 = {
				0,
				41,
				71,
				58,
				133,
				115,
				188,
				178,
				255,
				229,
			},
			ToneCurvePV2012Blue = {
				0,
				0,
				255,
				255,
			},
			ToneCurvePV2012Green = {
				0,
				0,
				255,
				255,
			},
			ToneCurvePV2012Red = {
				0,
				0,
				255,
				255,
			},
			Vibrance = -5,
			VignetteAmount = -22,
			VignetteMidpoint = 20,
			WhiteBalance = "Custom",
			Whites2012 = -20,
		},
		uuid = "46A4F564-CA3F-4E56-AEAD-E89F2FA40EA6",
	},
	version = 0,
}
