HQLightroomPresets 505 V.3.4/HQLightroomPresets 505 V.3.4/HQLightroomPresets Lr4-Lr5 JPEG & RAW/Bold Shade - Caramella ~ HQLightroomPresets_.lrtemplate
s = {
	id = "A0D66B1A-E9A7-478E-B365-1D0AB56BBE92",
	internalName = "Copyrights © 2012 ~ HQLighroomPresets.com",
	title = "Bold Shade : Caramella ~ HQLightroomPresets ",
	type = "Develop",
	value = {
		settings = {
			AutoLateralCA = 0,
			Blacks2012 = 12,
			BlueHue = 0,
			BlueSaturation = 0,
			CameraProfile = "Embedded",
			ChromaticAberrationB = 0,
			ChromaticAberrationR = 0,
			Clarity2012 = 20,
			ColorNoiseReduction = 28,
			ColorNoiseReductionDetail = 50,
			Contrast2012 = -20,
			ConvertToGrayscale = false,
			Defringe = 0,
			EnableCalibration = true,
			EnableColorAdjustments = true,
			EnableDetail = true,
			EnableEffects = true,
			EnableLensCorrections = true,
			EnableSplitToning = true,
			Exposure2012 = 0.73,
			GrainAmount = 0,
			GrainFrequency = 50,
			GrainSize = 25,
			GreenHue = 0,
			GreenSaturation = 0,
			Highlights2012 = -15,
			HueAdjustmentAqua = 10,
			HueAdjustmentBlue = 19,
			HueAdjustmentGreen = 0,
			HueAdjustmentMagenta = -13,
			HueAdjustmentOrange = 10,
			HueAdjustmentPurple = -5,
			HueAdjustmentRed = 5,
			HueAdjustmentYellow = 4,
			IncrementalTemperature = 26,
			IncrementalTint = -2,
			LuminanceAdjustmentAqua = -33,
			LuminanceAdjustmentBlue = -35,
			LuminanceAdjustmentGreen = -2,
			LuminanceAdjustmentMagenta = -13,
			LuminanceAdjustmentOrange = -9,
			LuminanceAdjustmentPurple = -28,
			LuminanceAdjustmentRed = -1,
			LuminanceAdjustmentYellow = -10,
			LuminanceNoiseReductionContrast = 0,
			LuminanceNoiseReductionDetail = 50,
			LuminanceSmoothing = 17,
			ParametricDarks = -27,
			ParametricHighlightSplit = 75,
			ParametricHighlights = -30,
			ParametricLights = 0,
			ParametricMidtoneSplit = 50,
			ParametricShadowSplit = 25,
			ParametricShadows = 0,
			PostCropVignetteAmount = -34,
			PostCropVignetteFeather = 100,
			PostCropVignetteHighlightContrast = 0,
			PostCropVignetteMidpoint = 17,
			PostCropVignetteRoundness = -33,
			PostCropVignetteStyle = 1,
			ProcessVersion = "6.7",
			RedHue = 0,
			RedSaturation = 0,
			Saturation = -43,
			SaturationAdjustmentAqua = 16,
			SaturationAdjustmentBlue = 18,
			SaturationAdjustmentGreen = 12,
			SaturationAdjustmentMagenta = 19,
			SaturationAdjustmentOrange = 24,
			SaturationAdjustmentPurple = 27,
			SaturationAdjustmentRed = 13,
			SaturationAdjustmentYellow = 9,
			ShadowTint = 0,
			Shadows2012 = 30,
			SharpenDetail = 50,
			SharpenEdgeMasking = 0,
			SharpenRadius = 1,
			Sharpness = 57,
			SplitToningBalance = 85,
			SplitToningHighlightHue = 0,
			SplitToningHighlightSaturation = 0,
			SplitToningShadowHue = 295,
			SplitToningShadowSaturation = 52,
			ToneCurveName2012 = "Custom",
			ToneCurvePV2012 = {
				0,
				44,
				82,
				66,
				151,
				109,
				196,
				171,
				250,
				212,
			},
			ToneCurvePV2012Blue = {
				0,
				0,
				255,
				255,
			},
			ToneCurvePV2012Green = {
				0,
				0,
				255,
				255,
			},
			ToneCurvePV2012Red = {
				0,
				0,
				255,
				255,
			},
			Vibrance = -5,
			VignetteAmount = 0,
			VignetteMidpoint = 20,
			WhiteBalance = "Custom",
			Whites2012 = -15,
		},
		uuid = "7CEA2239-1EBC-4B98-80CC-26C76B97246A",
	},
	version = 0,
}
