HQLightroomPresets 505 V.3.4/HQLightroomPresets 505 V.3.4/HQLightroomPresets Lr4-Lr5 JPEG & RAW/BW Luxury  ~ HQLightroomPresets.com.lrtemplate
s = {
	id = "6CAEA96C-CF66-4EC9-86CE-B1C0378D5C8D",
	internalName = "Copyrights © 2012 ~ HQLighroomPresets.com",
	title = "BW Luxury  ~ HQLightroomPresets.com",
	type = "Develop",
	value = {
		settings = {
			AutoLateralCA = 0,
			Blacks2012 = -7,
			BlueHue = 0,
			BlueSaturation = 0,
			CameraProfile = "Adobe Standard",
			ChromaticAberrationB = 0,
			ChromaticAberrationR = 0,
			Clarity2012 = 23,
			ColorNoiseReduction = 0,
			ColorNoiseReductionDetail = 50,
			Contrast2012 = -2,
			ConvertToGrayscale = true,
			Defringe = 0,
			EnableCalibration = true,
			EnableDetail = true,
			EnableEffects = true,
			EnableGrayscaleMix = true,
			EnableLensCorrections = true,
			EnableSplitToning = true,
			Exposure2012 = -0.12,
			GrainAmount = 0,
			GrainFrequency = 50,
			GrainSize = 25,
			GrayMixerAqua = 2,
			GrayMixerBlue = 16,
			GrayMixerGreen = -5,
			GrayMixerMagenta = 25,
			GrayMixerOrange = 27,
			GrayMixerPurple = 13,
			GrayMixerRed = 43,
			GrayMixerYellow = 18,
			GreenHue = 0,
			GreenSaturation = 0,
			Highlights2012 = -22,
			IncrementalTemperature = 58,
			IncrementalTint = -45,
			LuminanceNoiseReductionContrast = 0,
			LuminanceNoiseReductionDetail = 50,
			LuminanceSmoothing = 9,
			ParametricDarks = -18,
			ParametricHighlightSplit = 75,
			ParametricHighlights = 6,
			ParametricLights = -13,
			ParametricMidtoneSplit = 50,
			ParametricShadowSplit = 25,
			ParametricShadows = 0,
			PostCropVignetteAmount = -37,
			PostCropVignetteFeather = 95,
			PostCropVignetteHighlightContrast = 0,
			PostCropVignetteMidpoint = 11,
			PostCropVignetteRoundness = 46,
			PostCropVignetteStyle = 1,
			ProcessVersion = "6.7",
			RedHue = 0,
			RedSaturation = 0,
			ShadowTint = 0,
			Shadows2012 = 29,
			SharpenDetail = 25,
			SharpenEdgeMasking = 0,
			SharpenRadius = 1,
			Sharpness = 57,
			SplitToningBalance = 0,
			SplitToningHighlightHue = 0,
			SplitToningHighlightSaturation = 0,
			SplitToningShadowHue = 236,
			SplitToningShadowSaturation = 17,
			ToneCurveName2012 = "Custom",
			ToneCurvePV2012 = {
				51,
				33,
				130,
				118,
				181,
				169,
				255,
				224,
			},
			ToneCurvePV2012Blue = {
				0,
				0,
				255,
				255,
			},
			ToneCurvePV2012Green = {
				0,
				0,
				255,
				255,
			},
			ToneCurvePV2012Red = {
				0,
				0,
				255,
				255,
			},
			VignetteAmount = -20,
			VignetteMidpoint = 20,
			WhiteBalance = "Custom",
			Whites2012 = -37,
		},
		uuid = "07A417D7-9234-4D71-8E17-161D798795B4",
	},
	version = 0,
}
