HQLightroomPresets 505 V.3.4/HQLightroomPresets 505 V.3.4/HQLightroomPresets Lr4-Lr5 JPEG & RAW/Clean & Clear - Low Oxigen ~ HQLightroomPresets_.lrtemplate
s = {
	id = "43075910-2C55-4C41-A686-D0FFC4D9EC7E",
	internalName = "Copyrights © 2012 ~ HQLighroomPresets.com",
	title = "Clean & Clear : Low Oxigen ~ HQLightroomPresets ",
	type = "Develop",
	value = {
		settings = {
			AutoLateralCA = 0,
			Blacks2012 = -11,
			BlueHue = -36,
			BlueSaturation = -39,
			CameraProfile = "ACR 4.4",
			ChromaticAberrationB = 0,
			ChromaticAberrationR = 0,
			Clarity2012 = 21,
			ColorNoiseReduction = 25,
			ColorNoiseReductionDetail = 50,
			Contrast2012 = -11,
			ConvertToGrayscale = false,
			Defringe = 0,
			EnableCalibration = true,
			EnableColorAdjustments = true,
			EnableDetail = true,
			EnableEffects = true,
			EnableLensCorrections = true,
			EnableSplitToning = true,
			Exposure2012 = 0.73,
			GrainAmount = 0,
			GrainFrequency = 50,
			GrainSize = 25,
			GreenHue = 0,
			GreenSaturation = -30,
			Highlights2012 = -1,
			HueAdjustmentAqua = 0,
			HueAdjustmentBlue = 0,
			HueAdjustmentGreen = 0,
			HueAdjustmentMagenta = 0,
			HueAdjustmentOrange = 0,
			HueAdjustmentPurple = 0,
			HueAdjustmentRed = 0,
			HueAdjustmentYellow = 0,
			LuminanceAdjustmentAqua = 0,
			LuminanceAdjustmentBlue = -1,
			LuminanceAdjustmentGreen = 26,
			LuminanceAdjustmentMagenta = 0,
			LuminanceAdjustmentOrange = 24,
			LuminanceAdjustmentPurple = 0,
			LuminanceAdjustmentRed = 24,
			LuminanceAdjustmentYellow = 0,
			LuminanceNoiseReductionContrast = 0,
			LuminanceNoiseReductionDetail = 50,
			LuminanceSmoothing = 14,
			ParametricDarks = 62,
			ParametricHighlightSplit = 75,
			ParametricHighlights = 0,
			ParametricLights = 1,
			ParametricMidtoneSplit = 50,
			ParametricShadowSplit = 25,
			ParametricShadows = 0,
			PostCropVignetteAmount = -25,
			PostCropVignetteFeather = 71,
			PostCropVignetteHighlightContrast = 0,
			PostCropVignetteMidpoint = 41,
			PostCropVignetteRoundness = 71,
			PostCropVignetteStyle = 1,
			ProcessVersion = "6.7",
			RedHue = -9,
			RedSaturation = 30,
			Saturation = 3,
			SaturationAdjustmentAqua = 0,
			SaturationAdjustmentBlue = 0,
			SaturationAdjustmentGreen = -52,
			SaturationAdjustmentMagenta = -12,
			SaturationAdjustmentOrange = -27,
			SaturationAdjustmentPurple = -32,
			SaturationAdjustmentRed = -21,
			SaturationAdjustmentYellow = -41,
			ShadowTint = -10,
			Shadows2012 = 20,
			SharpenDetail = 0,
			SharpenEdgeMasking = 0,
			SharpenRadius = 0.5,
			Sharpness = 50,
			SplitToningBalance = 22,
			SplitToningHighlightHue = 214,
			SplitToningHighlightSaturation = 20,
			SplitToningShadowHue = 214,
			SplitToningShadowSaturation = 24,
			Temperature = 5736,
			Tint = 10,
			ToneCurveName2012 = "Custom",
			ToneCurvePV2012 = {
				0,
				0,
				32,
				16,
				77,
				38,
				140,
				120,
				200,
				197,
				255,
				255,
			},
			ToneCurvePV2012Blue = {
				0,
				0,
				255,
				255,
			},
			ToneCurvePV2012Green = {
				0,
				0,
				255,
				255,
			},
			ToneCurvePV2012Red = {
				0,
				0,
				255,
				255,
			},
			Vibrance = 6,
			VignetteAmount = -13,
			VignetteMidpoint = 0,
			WhiteBalance = "Custom",
			Whites2012 = -26,
		},
		uuid = "893BD97D-D31D-476E-8514-146BBADB9E41",
	},
	version = 0,
}
