HQLightroomPresets 505 V.3.4/HQLightroomPresets 505 V.3.4/HQLightroomPresets Lr4-Lr5 JPEG & RAW/Dramatic - Taste Of Vintage ~ HQLightroomPresets_.lrtemplate
s = {
	id = "FA1A1115-9AA8-455A-829D-A38FAE905410",
	internalName = "Copyrights © 2012 ~ HQLighroomPresets.com",
	title = "Dramatic : Taste Of Vintage ~ HQLightroomPresets ",
	type = "Develop",
	value = {
		settings = {
			AutoLateralCA = 0,
			Blacks2012 = -6,
			BlueHue = 0,
			BlueSaturation = 0,
			CameraProfile = "ACR 2.4",
			ChromaticAberrationB = 0,
			ChromaticAberrationR = 0,
			Clarity2012 = 5,
			ColorNoiseReduction = 28,
			ColorNoiseReductionDetail = 50,
			Contrast2012 = 17,
			ConvertToGrayscale = false,
			Defringe = 0,
			EnableCalibration = true,
			EnableColorAdjustments = true,
			EnableDetail = true,
			EnableEffects = true,
			EnableLensCorrections = true,
			EnableSplitToning = true,
			Exposure2012 = 0.73,
			GrainAmount = 0,
			GrainFrequency = 50,
			GrainSize = 25,
			GreenHue = 0,
			GreenSaturation = 0,
			Highlights2012 = -3,
			HueAdjustmentAqua = 7,
			HueAdjustmentBlue = 23,
			HueAdjustmentGreen = 0,
			HueAdjustmentMagenta = -15,
			HueAdjustmentOrange = 32,
			HueAdjustmentPurple = -9,
			HueAdjustmentRed = -23,
			HueAdjustmentYellow = -26,
			LuminanceAdjustmentAqua = -60,
			LuminanceAdjustmentBlue = -55,
			LuminanceAdjustmentGreen = -7,
			LuminanceAdjustmentMagenta = -13,
			LuminanceAdjustmentOrange = -13,
			LuminanceAdjustmentPurple = -28,
			LuminanceAdjustmentRed = -2,
			LuminanceAdjustmentYellow = -13,
			LuminanceNoiseReductionContrast = 0,
			LuminanceNoiseReductionDetail = 50,
			LuminanceSmoothing = 17,
			ParametricDarks = -27,
			ParametricHighlightSplit = 75,
			ParametricHighlights = -30,
			ParametricLights = 17,
			ParametricMidtoneSplit = 50,
			ParametricShadowSplit = 25,
			ParametricShadows = 0,
			PostCropVignetteAmount = -22,
			PostCropVignetteFeather = 100,
			PostCropVignetteHighlightContrast = 0,
			PostCropVignetteMidpoint = 4,
			PostCropVignetteRoundness = -5,
			PostCropVignetteStyle = 1,
			ProcessVersion = "6.7",
			RedHue = 0,
			RedSaturation = 0,
			Saturation = -55,
			SaturationAdjustmentAqua = 69,
			SaturationAdjustmentBlue = -41,
			SaturationAdjustmentGreen = -55,
			SaturationAdjustmentMagenta = 15,
			SaturationAdjustmentOrange = 38,
			SaturationAdjustmentPurple = 32,
			SaturationAdjustmentRed = -2,
			SaturationAdjustmentYellow = 26,
			ShadowTint = 0,
			Shadows2012 = 12,
			SharpenDetail = 50,
			SharpenEdgeMasking = 0,
			SharpenRadius = 1,
			Sharpness = 43,
			SplitToningBalance = 85,
			SplitToningHighlightHue = 0,
			SplitToningHighlightSaturation = 0,
			SplitToningShadowHue = 360,
			SplitToningShadowSaturation = 67,
			Temperature = 4659,
			Tint = 6,
			ToneCurveName2012 = "Linear",
			ToneCurvePV2012 = {
				0,
				0,
				255,
				255,
			},
			ToneCurvePV2012Blue = {
				0,
				0,
				255,
				255,
			},
			ToneCurvePV2012Green = {
				0,
				0,
				255,
				255,
			},
			ToneCurvePV2012Red = {
				0,
				0,
				255,
				255,
			},
			Vibrance = 6,
			VignetteAmount = -4,
			VignetteMidpoint = 20,
			WhiteBalance = "Custom",
			Whites2012 = -25,
		},
		uuid = "AFD3DC1E-2FD2-47FE-BB40-2139CD99AC2D",
	},
	version = 0,
}
