HQLightroomPresets 505 V.3.4/HQLightroomPresets 505 V.3.4/HQLightroomPresets Lr4-Lr5 JPEG & RAW/Dramatic - Cinnamon Taste ~ HQLightroomPresets_.lrtemplate
s = {
	id = "E629A1CC-0D74-452E-8534-B4D9780D29DC",
	internalName = "Copyrights © 2012 ~ HQLighroomPresets.com",
	title = "Dramatic : Cinnamon Taste ~ HQLightroomPresets ",
	type = "Develop",
	value = {
		settings = {
			AutoLateralCA = 0,
			Blacks2012 = -11,
			BlueHue = -58,
			BlueSaturation = -25,
			CameraProfile = "ACR 2.4",
			ChromaticAberrationB = 0,
			ChromaticAberrationR = 0,
			Clarity2012 = 10,
			ColorNoiseReduction = 28,
			ColorNoiseReductionDetail = 50,
			Contrast2012 = -9,
			ConvertToGrayscale = false,
			Defringe = 0,
			EnableCalibration = true,
			EnableColorAdjustments = true,
			EnableDetail = true,
			EnableEffects = true,
			EnableLensCorrections = true,
			EnableSplitToning = true,
			Exposure2012 = 0.61,
			GrainAmount = 0,
			GrainFrequency = 90,
			GrainSize = 25,
			GreenHue = 0,
			GreenSaturation = -52,
			Highlights2012 = -14,
			HueAdjustmentAqua = 33,
			HueAdjustmentBlue = 29,
			HueAdjustmentGreen = 33,
			HueAdjustmentMagenta = 2,
			HueAdjustmentOrange = 26,
			HueAdjustmentPurple = 15,
			HueAdjustmentRed = 9,
			HueAdjustmentYellow = 33,
			LuminanceAdjustmentAqua = -12,
			LuminanceAdjustmentBlue = -9,
			LuminanceAdjustmentGreen = -7,
			LuminanceAdjustmentMagenta = -4,
			LuminanceAdjustmentOrange = -9,
			LuminanceAdjustmentPurple = -7,
			LuminanceAdjustmentRed = -9,
			LuminanceAdjustmentYellow = -12,
			LuminanceNoiseReductionContrast = 0,
			LuminanceNoiseReductionDetail = 50,
			LuminanceSmoothing = 8,
			ParametricDarks = -29,
			ParametricHighlightSplit = 75,
			ParametricHighlights = -40,
			ParametricLights = 39,
			ParametricMidtoneSplit = 39,
			ParametricShadowSplit = 25,
			ParametricShadows = -1,
			PostCropVignetteAmount = -34,
			PostCropVignetteFeather = 100,
			PostCropVignetteHighlightContrast = 0,
			PostCropVignetteMidpoint = 11,
			PostCropVignetteRoundness = 56,
			PostCropVignetteStyle = 1,
			ProcessVersion = "6.7",
			RedHue = 0,
			RedSaturation = -25,
			Saturation = 0,
			SaturationAdjustmentAqua = -24,
			SaturationAdjustmentBlue = -21,
			SaturationAdjustmentGreen = -30,
			SaturationAdjustmentMagenta = 10,
			SaturationAdjustmentOrange = -13,
			SaturationAdjustmentPurple = -10,
			SaturationAdjustmentRed = 7,
			SaturationAdjustmentYellow = -24,
			ShadowTint = 56,
			Shadows2012 = 14,
			SharpenDetail = 50,
			SharpenEdgeMasking = 0,
			SharpenRadius = 1,
			Sharpness = 49,
			SplitToningBalance = 85,
			SplitToningHighlightHue = 323,
			SplitToningHighlightSaturation = 0,
			SplitToningShadowHue = 17,
			SplitToningShadowSaturation = 80,
			Temperature = 6957,
			Tint = -11,
			ToneCurveName2012 = "Linear",
			ToneCurvePV2012 = {
				0,
				0,
				255,
				255,
			},
			ToneCurvePV2012Blue = {
				0,
				0,
				255,
				255,
			},
			ToneCurvePV2012Green = {
				0,
				0,
				255,
				255,
			},
			ToneCurvePV2012Red = {
				0,
				0,
				255,
				255,
			},
			Vibrance = -27,
			VignetteAmount = 0,
			VignetteMidpoint = 48,
			WhiteBalance = "Custom",
			Whites2012 = -68,
		},
		uuid = "B97382EC-C7B3-4617-8F9D-4B339B9FBA8F",
	},
	version = 0,
}
