HQLightroomPresets 505 V.3.4/HQLightroomPresets 505 V.3.4/HQLightroomPresets Lr4-Lr5 JPEG & RAW/Easy Shade - Echoes ~ HQLightroomPresets_.lrtemplate
s = {
	id = "E657CAE5-FC69-45AF-8F01-6392743E1149",
	internalName = "Copyrights © 2012 ~ HQLighroomPresets.com",
	title = "Easy Shade : Echoes ~ HQLightroomPresets ",
	type = "Develop",
	value = {
		settings = {
			AutoLateralCA = 0,
			Blacks2012 = -11,
			BlueHue = 0,
			BlueSaturation = 0,
			CameraProfile = "Embedded",
			ChromaticAberrationB = 0,
			ChromaticAberrationR = 0,
			Clarity2012 = 26,
			ColorNoiseReduction = 25,
			ColorNoiseReductionDetail = 50,
			Contrast2012 = -11,
			ConvertToGrayscale = false,
			Defringe = 0,
			EnableCalibration = true,
			EnableColorAdjustments = true,
			EnableDetail = true,
			EnableEffects = true,
			EnableLensCorrections = true,
			EnableSplitToning = true,
			Exposure2012 = 1.1,
			GrainAmount = 0,
			GrainFrequency = 50,
			GrainSize = 25,
			GreenHue = 0,
			GreenSaturation = 0,
			Highlights2012 = 0,
			HueAdjustmentAqua = 0,
			HueAdjustmentBlue = 0,
			HueAdjustmentGreen = 0,
			HueAdjustmentMagenta = 0,
			HueAdjustmentOrange = 1,
			HueAdjustmentPurple = 0,
			HueAdjustmentRed = 0,
			HueAdjustmentYellow = 0,
			LuminanceAdjustmentAqua = 0,
			LuminanceAdjustmentBlue = -2,
			LuminanceAdjustmentGreen = 0,
			LuminanceAdjustmentMagenta = 0,
			LuminanceAdjustmentOrange = -16,
			LuminanceAdjustmentPurple = 0,
			LuminanceAdjustmentRed = -16,
			LuminanceAdjustmentYellow = -12,
			LuminanceNoiseReductionContrast = 0,
			LuminanceNoiseReductionDetail = 50,
			LuminanceSmoothing = 7,
			ParametricDarks = -33,
			ParametricHighlightSplit = 75,
			ParametricHighlights = 0,
			ParametricLights = -23,
			ParametricMidtoneSplit = 50,
			ParametricShadowSplit = 25,
			ParametricShadows = 0,
			PostCropVignetteAmount = -30,
			PostCropVignetteFeather = 65,
			PostCropVignetteHighlightContrast = 0,
			PostCropVignetteMidpoint = 22,
			PostCropVignetteRoundness = 0,
			PostCropVignetteStyle = 1,
			ProcessVersion = "6.7",
			RedHue = 0,
			RedSaturation = 0,
			Saturation = -18,
			SaturationAdjustmentAqua = 0,
			SaturationAdjustmentBlue = 52,
			SaturationAdjustmentGreen = 0,
			SaturationAdjustmentMagenta = 0,
			SaturationAdjustmentOrange = -15,
			SaturationAdjustmentPurple = 0,
			SaturationAdjustmentRed = 13,
			SaturationAdjustmentYellow = -3,
			ShadowTint = 0,
			Shadows2012 = 27,
			SharpenDetail = 25,
			SharpenEdgeMasking = 0,
			SharpenRadius = 1,
			Sharpness = 57,
			SplitToningBalance = 53,
			SplitToningHighlightHue = 17,
			SplitToningHighlightSaturation = 10,
			SplitToningShadowHue = 314,
			SplitToningShadowSaturation = 12,
			Temperature = 3791,
			Tint = -28,
			ToneCurveName2012 = "Custom",
			ToneCurvePV2012 = {
				0,
				22,
				64,
				56,
				128,
				128,
				187,
				180,
				255,
				229,
			},
			ToneCurvePV2012Blue = {
				0,
				0,
				255,
				255,
			},
			ToneCurvePV2012Green = {
				0,
				0,
				255,
				255,
			},
			ToneCurvePV2012Red = {
				0,
				0,
				255,
				255,
			},
			Vibrance = -17,
			VignetteAmount = -1,
			VignetteMidpoint = 20,
			WhiteBalance = "Custom",
			Whites2012 = -59,
		},
		uuid = "40BD54F2-495F-4AB0-BB8C-524C11C3E339",
	},
	version = 0,
}
