HQLightroomPresets 505 V.3.4/HQLightroomPresets 505 V.3.4/HQLightroomPresets Lr4-Lr5 JPEG & RAW/Easy Shade - Warm Fantasy ~ HQLightroomPresets_.lrtemplate
s = {
	id = "5B8367E2-8E09-440C-ABFC-59BE011166CA",
	internalName = "Copyrights © 2012 ~ HQLighroomPresets.com",
	title = "Easy Shade : Warm Fantasy ~ HQLightroomPresets ",
	type = "Develop",
	value = {
		settings = {
			AutoLateralCA = 0,
			Blacks2012 = -11,
			BlueHue = 0,
			BlueSaturation = 0,
			CameraProfile = "ACR 2.4",
			ChromaticAberrationB = 0,
			ChromaticAberrationR = 0,
			Clarity2012 = -1,
			ColorNoiseReduction = 28,
			ColorNoiseReductionDetail = 50,
			Contrast2012 = 25,
			ConvertToGrayscale = false,
			Defringe = 0,
			EnableCalibration = true,
			EnableColorAdjustments = true,
			EnableDetail = true,
			EnableEffects = true,
			EnableLensCorrections = true,
			EnableSplitToning = true,
			Exposure2012 = 0.24,
			GrainAmount = 0,
			GrainFrequency = 50,
			GrainSize = 25,
			GreenHue = 0,
			GreenSaturation = 0,
			Highlights2012 = -5,
			HueAdjustmentAqua = -44,
			HueAdjustmentBlue = -46,
			HueAdjustmentGreen = -68,
			HueAdjustmentMagenta = -52,
			HueAdjustmentOrange = 0,
			HueAdjustmentPurple = -48,
			HueAdjustmentRed = 0,
			HueAdjustmentYellow = 0,
			LuminanceAdjustmentAqua = 0,
			LuminanceAdjustmentBlue = 0,
			LuminanceAdjustmentGreen = 0,
			LuminanceAdjustmentMagenta = 0,
			LuminanceAdjustmentOrange = 25,
			LuminanceAdjustmentPurple = 0,
			LuminanceAdjustmentRed = 7,
			LuminanceAdjustmentYellow = 25,
			LuminanceNoiseReductionContrast = 0,
			LuminanceNoiseReductionDetail = 50,
			LuminanceSmoothing = 16,
			ParametricDarks = 0,
			ParametricHighlightSplit = 75,
			ParametricHighlights = 0,
			ParametricLights = 0,
			ParametricMidtoneSplit = 50,
			ParametricShadowSplit = 25,
			ParametricShadows = 0,
			PostCropVignetteAmount = -8,
			PostCropVignetteFeather = 100,
			PostCropVignetteHighlightContrast = 0,
			PostCropVignetteMidpoint = 0,
			PostCropVignetteRoundness = -33,
			PostCropVignetteStyle = 1,
			ProcessVersion = "6.7",
			RedHue = 0,
			RedSaturation = 0,
			Saturation = 10,
			SaturationAdjustmentAqua = 77,
			SaturationAdjustmentBlue = 33,
			SaturationAdjustmentGreen = 38,
			SaturationAdjustmentMagenta = 0,
			SaturationAdjustmentOrange = -39,
			SaturationAdjustmentPurple = 0,
			SaturationAdjustmentRed = -43,
			SaturationAdjustmentYellow = -43,
			ShadowTint = 0,
			Shadows2012 = 5,
			SharpenDetail = 50,
			SharpenEdgeMasking = 0,
			SharpenRadius = 1,
			Sharpness = 38,
			SplitToningBalance = 0,
			SplitToningHighlightHue = 52,
			SplitToningHighlightSaturation = 21,
			SplitToningShadowHue = 0,
			SplitToningShadowSaturation = 0,
			ToneCurveName2012 = "Custom",
			ToneCurvePV2012 = {
				0,
				38,
				53,
				59,
				122,
				122,
				199,
				195,
				255,
				241,
			},
			ToneCurvePV2012Blue = {
				0,
				0,
				255,
				255,
			},
			ToneCurvePV2012Green = {
				0,
				0,
				255,
				255,
			},
			ToneCurvePV2012Red = {
				0,
				0,
				255,
				255,
			},
			Vibrance = 40,
			VignetteAmount = -49,
			VignetteMidpoint = 20,
			WhiteBalance = "As Shot",
			Whites2012 = 0,
		},
		uuid = "3B8BAEC1-F2CA-412F-A3EA-641B0E551699",
	},
	version = 0,
}
