HQLightroomPresets 505 V.3.4/HQLightroomPresets 505 V.3.4/HQLightroomPresets Lr4-Lr5 JPEG & RAW/False Color II - 35 Red Dodger Blue ~ HQLightroomPresets_.lrtemplate
s = {
	id = "4EFBA447-EFF6-4A0B-961F-1A1A35F63918",
	internalName = "Copyrights © 2012 ~ HQLighroomPresets.com",
	title = "False Color II : 35 Red Dodger Blue ~ HQLightroomPresets ",
	type = "Develop",
	value = {
		settings = {
			AutoLateralCA = 0,
			Blacks2012 = -20,
			BlueHue = 8,
			BlueSaturation = 15,
			CameraProfile = "Embedded",
			ChromaticAberrationB = 0,
			ChromaticAberrationR = 0,
			Clarity2012 = 11,
			ColorNoiseReduction = 18,
			ColorNoiseReductionDetail = 12,
			Contrast2012 = -27,
			ConvertToGrayscale = false,
			Defringe = 0,
			EnableCalibration = true,
			EnableColorAdjustments = true,
			EnableDetail = true,
			EnableEffects = true,
			EnableLensCorrections = true,
			EnableSplitToning = true,
			Exposure2012 = -1.71,
			GrainAmount = 0,
			GrainFrequency = 50,
			GrainSize = 25,
			GreenHue = 61,
			GreenSaturation = 3,
			Highlights2012 = -54,
			HueAdjustmentAqua = 11,
			HueAdjustmentBlue = 2,
			HueAdjustmentGreen = 73,
			HueAdjustmentMagenta = 0,
			HueAdjustmentOrange = 0,
			HueAdjustmentPurple = 23,
			HueAdjustmentRed = 20,
			HueAdjustmentYellow = 0,
			IncrementalTemperature = 77,
			IncrementalTint = -54,
			LuminanceAdjustmentAqua = -45,
			LuminanceAdjustmentBlue = 57,
			LuminanceAdjustmentGreen = 33,
			LuminanceAdjustmentMagenta = 64,
			LuminanceAdjustmentOrange = 16,
			LuminanceAdjustmentPurple = 57,
			LuminanceAdjustmentRed = 11,
			LuminanceAdjustmentYellow = 22,
			LuminanceNoiseReductionContrast = 0,
			LuminanceNoiseReductionDetail = 50,
			LuminanceSmoothing = 15,
			ParametricDarks = 52,
			ParametricHighlightSplit = 90,
			ParametricHighlights = 0,
			ParametricLights = 0,
			ParametricMidtoneSplit = 59,
			ParametricShadowSplit = 10,
			ParametricShadows = 0,
			PostCropVignetteAmount = -8,
			PostCropVignetteFeather = 50,
			PostCropVignetteHighlightContrast = 0,
			PostCropVignetteMidpoint = 10,
			PostCropVignetteRoundness = -27,
			PostCropVignetteStyle = 1,
			ProcessVersion = "6.7",
			RedHue = 95,
			RedSaturation = -33,
			Saturation = 100,
			SaturationAdjustmentAqua = -36,
			SaturationAdjustmentBlue = -2,
			SaturationAdjustmentGreen = -82,
			SaturationAdjustmentMagenta = 0,
			SaturationAdjustmentOrange = -25,
			SaturationAdjustmentPurple = 0,
			SaturationAdjustmentRed = -27,
			SaturationAdjustmentYellow = -57,
			ShadowTint = 95,
			Shadows2012 = 2,
			SharpenDetail = 28,
			SharpenEdgeMasking = 0,
			SharpenRadius = 1.5,
			Sharpness = 67,
			SplitToningBalance = 70,
			SplitToningHighlightHue = 232,
			SplitToningHighlightSaturation = 34,
			SplitToningShadowHue = 306,
			SplitToningShadowSaturation = 91,
			ToneCurveName2012 = "Custom",
			ToneCurvePV2012 = {
				0,
				40,
				116,
				120,
				214,
				241,
			},
			ToneCurvePV2012Blue = {
				0,
				0,
				255,
				255,
			},
			ToneCurvePV2012Green = {
				0,
				0,
				255,
				255,
			},
			ToneCurvePV2012Red = {
				0,
				0,
				255,
				255,
			},
			Vibrance = 100,
			VignetteAmount = -18,
			VignetteMidpoint = 50,
			WhiteBalance = "Custom",
			Whites2012 = -2,
		},
		uuid = "B8EC6FF8-9150-426B-9DDC-B7F988C63939",
	},
	version = 0,
}
