HQLightroomPresets 505 V.3.4/HQLightroomPresets 505 V.3.4/HQLightroomPresets Lr4-Lr5 JPEG & RAW/False Color II - 3 Dark Pale Infra ~ HQLightroomPresets_.lrtemplate
s = {
	id = "6FD809CF-DC22-4D41-902C-87FAC5FDDF70",
	internalName = "Copyrights © 2012 ~ HQLighroomPresets.com",
	title = "False Color II : 3 Dark Pale Infra ~ HQLightroomPresets ",
	type = "Develop",
	value = {
		settings = {
			AutoLateralCA = 0,
			Blacks2012 = 0,
			BlueHue = -93,
			BlueSaturation = 22,
			CameraProfile = "ACR 4.4",
			ChromaticAberrationB = 0,
			ChromaticAberrationR = 0,
			Clarity2012 = 12,
			ColorNoiseReduction = 0,
			ColorNoiseReductionDetail = 50,
			Contrast2012 = -11,
			ConvertToGrayscale = false,
			Defringe = 0,
			EnableCalibration = true,
			EnableColorAdjustments = true,
			EnableDetail = true,
			EnableEffects = true,
			EnableLensCorrections = true,
			EnableSplitToning = true,
			Exposure2012 = -0.61,
			GrainAmount = 0,
			GrainFrequency = 50,
			GrainSize = 50,
			GreenHue = 20,
			GreenSaturation = 6,
			Highlights2012 = -51,
			HueAdjustmentAqua = 100,
			HueAdjustmentBlue = -9,
			HueAdjustmentGreen = -100,
			HueAdjustmentMagenta = 0,
			HueAdjustmentOrange = 0,
			HueAdjustmentPurple = 0,
			HueAdjustmentRed = 100,
			HueAdjustmentYellow = 0,
			IncrementalTemperature = 8,
			IncrementalTint = -70,
			LuminanceAdjustmentAqua = 2,
			LuminanceAdjustmentBlue = -100,
			LuminanceAdjustmentGreen = 100,
			LuminanceAdjustmentMagenta = 0,
			LuminanceAdjustmentOrange = 100,
			LuminanceAdjustmentPurple = 0,
			LuminanceAdjustmentRed = 100,
			LuminanceAdjustmentYellow = 100,
			LuminanceNoiseReductionContrast = 0,
			LuminanceNoiseReductionDetail = 50,
			LuminanceSmoothing = 13,
			ParametricDarks = 52,
			ParametricHighlightSplit = 90,
			ParametricHighlights = 0,
			ParametricLights = 0,
			ParametricMidtoneSplit = 59,
			ParametricShadowSplit = 10,
			ParametricShadows = 0,
			PostCropVignetteAmount = -6,
			PostCropVignetteFeather = 50,
			PostCropVignetteHighlightContrast = 0,
			PostCropVignetteMidpoint = 50,
			PostCropVignetteRoundness = 0,
			PostCropVignetteStyle = 1,
			ProcessVersion = "6.7",
			RedHue = 38,
			RedSaturation = -3,
			Saturation = 22,
			SaturationAdjustmentAqua = -100,
			SaturationAdjustmentBlue = -7,
			SaturationAdjustmentGreen = -100,
			SaturationAdjustmentMagenta = -14,
			SaturationAdjustmentOrange = -18,
			SaturationAdjustmentPurple = -14,
			SaturationAdjustmentRed = 14,
			SaturationAdjustmentYellow = -20,
			ShadowTint = 0,
			Shadows2012 = 0,
			SharpenDetail = 25,
			SharpenEdgeMasking = 0,
			SharpenRadius = 1,
			Sharpness = 50,
			SplitToningBalance = 91,
			SplitToningHighlightHue = 215,
			SplitToningHighlightSaturation = 6,
			SplitToningShadowHue = 302,
			SplitToningShadowSaturation = 43,
			ToneCurveName2012 = "Custom",
			ToneCurvePV2012 = {
				0,
				0,
				94,
				98,
				152,
				147,
				255,
				255,
			},
			ToneCurvePV2012Blue = {
				0,
				0,
				255,
				255,
			},
			ToneCurvePV2012Green = {
				0,
				0,
				255,
				255,
			},
			ToneCurvePV2012Red = {
				0,
				0,
				255,
				255,
			},
			Vibrance = -95,
			VignetteAmount = 0,
			VignetteMidpoint = 50,
			WhiteBalance = "Custom",
			Whites2012 = 0,
		},
		uuid = "3956D7AC-CE59-4820-BC80-986654AD7BEE",
	},
	version = 0,
}
