HQLightroomPresets 505 V.3.4/HQLightroomPresets 505 V.3.4/HQLightroomPresets Lr4-Lr5 JPEG & RAW/False Color II - 100 Dead Purple Infra Red ~ HQLightroomPresets_.lrtemplate
s = {
	id = "EF9E3CA1-F7BA-4AFE-8B50-AA604A581B25",
	internalName = "NIU FC PICOLO",
	title = "False Color II : 100 Dead Purple Infra Red ~ HQLightroomPresets ",
	type = "Develop",
	value = {
		settings = {
			AutoLateralCA = 0,
			Blacks2012 = -12,
			BlueHue = -100,
			BlueSaturation = 31,
			CameraProfile = "Embedded",
			ChromaticAberrationB = 0,
			ChromaticAberrationR = 0,
			Clarity2012 = 18,
			ColorNoiseReduction = 28,
			ColorNoiseReductionDetail = 50,
			Contrast2012 = 14,
			ConvertToGrayscale = false,
			Defringe = 0,
			EnableCalibration = true,
			EnableColorAdjustments = true,
			EnableDetail = true,
			EnableEffects = true,
			EnableLensCorrections = true,
			EnableSplitToning = true,
			Exposure2012 = -1.34,
			GrainAmount = 0,
			GrainFrequency = 50,
			GrainSize = 25,
			GreenHue = 100,
			GreenSaturation = -43,
			Highlights2012 = -5,
			HueAdjustmentAqua = 15,
			HueAdjustmentBlue = 18,
			HueAdjustmentGreen = 0,
			HueAdjustmentMagenta = -10,
			HueAdjustmentOrange = 100,
			HueAdjustmentPurple = -2,
			HueAdjustmentRed = 66,
			HueAdjustmentYellow = -7,
			IncrementalTemperature = 6,
			IncrementalTint = -72,
			LuminanceAdjustmentAqua = -44,
			LuminanceAdjustmentBlue = -38,
			LuminanceAdjustmentGreen = -2,
			LuminanceAdjustmentMagenta = -7,
			LuminanceAdjustmentOrange = 57,
			LuminanceAdjustmentPurple = -24,
			LuminanceAdjustmentRed = 55,
			LuminanceAdjustmentYellow = 50,
			LuminanceNoiseReductionContrast = 0,
			LuminanceNoiseReductionDetail = 50,
			LuminanceSmoothing = 17,
			ParametricDarks = -12,
			ParametricHighlightSplit = 75,
			ParametricHighlights = -30,
			ParametricLights = 17,
			ParametricMidtoneSplit = 50,
			ParametricShadowSplit = 25,
			ParametricShadows = 0,
			PostCropVignetteAmount = -13,
			PostCropVignetteFeather = 89,
			PostCropVignetteHighlightContrast = 0,
			PostCropVignetteMidpoint = 0,
			PostCropVignetteRoundness = 26,
			PostCropVignetteStyle = 1,
			ProcessVersion = "6.7",
			RedHue = 61,
			RedSaturation = 56,
			Saturation = 70,
			SaturationAdjustmentAqua = 22,
			SaturationAdjustmentBlue = -19,
			SaturationAdjustmentGreen = -60,
			SaturationAdjustmentMagenta = 10,
			SaturationAdjustmentOrange = -77,
			SaturationAdjustmentPurple = 26,
			SaturationAdjustmentRed = -64,
			SaturationAdjustmentYellow = -43,
			ShadowTint = 0,
			Shadows2012 = 4,
			SharpenDetail = 50,
			SharpenEdgeMasking = 0,
			SharpenRadius = 1,
			Sharpness = 57,
			SplitToningBalance = 38,
			SplitToningHighlightHue = 41,
			SplitToningHighlightSaturation = 0,
			SplitToningShadowHue = 281,
			SplitToningShadowSaturation = 72,
			ToneCurveName2012 = "Custom",
			ToneCurvePV2012 = {
				0,
				11,
				105,
				150,
				231,
				255,
			},
			ToneCurvePV2012Blue = {
				0,
				0,
				255,
				255,
			},
			ToneCurvePV2012Green = {
				0,
				0,
				255,
				255,
			},
			ToneCurvePV2012Red = {
				0,
				0,
				255,
				255,
			},
			Vibrance = -56,
			VignetteAmount = 0,
			VignetteMidpoint = 20,
			WhiteBalance = "Custom",
			Whites2012 = -5,
		},
		uuid = "FD479781-5988-4267-8A94-DFE3F08D4DF0",
	},
	version = 0,
}
