HQLightroomPresets 505 V.3.4/HQLightroomPresets 505 V.3.4/HQLightroomPresets Lr4-Lr5 JPEG & RAW/False Color II - 26 Capsicum Mixed Up ~ HQLightroomPresets_.lrtemplate
s = {
	id = "2D076EB4-8C6A-4D77-BBEF-EF626C9FD9E1",
	internalName = "Copyrights © 2012 ~ HQLighroomPresets.com",
	title = "False Color II : 26 Capsicum Mixed Up ~ HQLightroomPresets ",
	type = "Develop",
	value = {
		settings = {
			AutoLateralCA = 0,
			Blacks2012 = -11,
			BlueHue = -15,
			BlueSaturation = -31,
			CameraProfile = "Embedded",
			ChromaticAberrationB = 0,
			ChromaticAberrationR = 0,
			Clarity2012 = 11,
			ColorNoiseReduction = 18,
			ColorNoiseReductionDetail = 12,
			Contrast2012 = -20,
			ConvertToGrayscale = false,
			Defringe = 0,
			EnableCalibration = true,
			EnableColorAdjustments = true,
			EnableDetail = true,
			EnableEffects = true,
			EnableLensCorrections = true,
			EnableSplitToning = true,
			Exposure2012 = -0.37,
			GrainAmount = 0,
			GrainFrequency = 50,
			GrainSize = 25,
			GreenHue = 40,
			GreenSaturation = 29,
			Highlights2012 = -41,
			HueAdjustmentAqua = 11,
			HueAdjustmentBlue = 2,
			HueAdjustmentGreen = 73,
			HueAdjustmentMagenta = 0,
			HueAdjustmentOrange = 0,
			HueAdjustmentPurple = 0,
			HueAdjustmentRed = 0,
			HueAdjustmentYellow = 0,
			IncrementalTemperature = 70,
			IncrementalTint = -38,
			LuminanceAdjustmentAqua = -27,
			LuminanceAdjustmentBlue = -30,
			LuminanceAdjustmentGreen = -8,
			LuminanceAdjustmentMagenta = 64,
			LuminanceAdjustmentOrange = 66,
			LuminanceAdjustmentPurple = 57,
			LuminanceAdjustmentRed = 11,
			LuminanceAdjustmentYellow = 34,
			LuminanceNoiseReductionContrast = 0,
			LuminanceNoiseReductionDetail = 50,
			LuminanceSmoothing = 15,
			ParametricDarks = 52,
			ParametricHighlightSplit = 90,
			ParametricHighlights = 0,
			ParametricLights = 0,
			ParametricMidtoneSplit = 59,
			ParametricShadowSplit = 10,
			ParametricShadows = 0,
			PostCropVignetteAmount = -6,
			PostCropVignetteFeather = 50,
			PostCropVignetteHighlightContrast = 0,
			PostCropVignetteMidpoint = 10,
			PostCropVignetteRoundness = -27,
			PostCropVignetteStyle = 1,
			ProcessVersion = "6.7",
			RedHue = 100,
			RedSaturation = -75,
			Saturation = 15,
			SaturationAdjustmentAqua = 3,
			SaturationAdjustmentBlue = 8,
			SaturationAdjustmentGreen = 34,
			SaturationAdjustmentMagenta = 0,
			SaturationAdjustmentOrange = -16,
			SaturationAdjustmentPurple = 0,
			SaturationAdjustmentRed = -2,
			SaturationAdjustmentYellow = -41,
			ShadowTint = 45,
			Shadows2012 = 1,
			SharpenDetail = 28,
			SharpenEdgeMasking = 0,
			SharpenRadius = 1.5,
			Sharpness = 52,
			SplitToningBalance = 49,
			SplitToningHighlightHue = 277,
			SplitToningHighlightSaturation = 0,
			SplitToningShadowHue = 257,
			SplitToningShadowSaturation = 67,
			ToneCurveName2012 = "Custom",
			ToneCurvePV2012 = {
				0,
				19,
				154,
				122,
				255,
				255,
			},
			ToneCurvePV2012Blue = {
				0,
				0,
				255,
				255,
			},
			ToneCurvePV2012Green = {
				0,
				0,
				255,
				255,
			},
			ToneCurvePV2012Red = {
				0,
				0,
				255,
				255,
			},
			Vibrance = -54,
			VignetteAmount = -18,
			VignetteMidpoint = 50,
			WhiteBalance = "Custom",
			Whites2012 = 0,
		},
		uuid = "50807D66-66E7-412A-B544-EA15122B2CF4",
	},
	version = 0,
}
