HQLightroomPresets 505 V.3.4/HQLightroomPresets 505 V.3.4/HQLightroomPresets Lr4-Lr5 JPEG & RAW/False Color II - 32 Bloody Blue ~ HQLightroomPresets_.lrtemplate
s = {
	id = "22CAC11A-C4FA-4948-95CD-5ECFB4818BE0",
	internalName = "Copyrights © 2012 ~ HQLighroomPresets.com",
	title = "False Color II : 32 Bloody Blue ~ HQLightroomPresets ",
	type = "Develop",
	value = {
		settings = {
			AutoLateralCA = 0,
			Blacks2012 = 24,
			BlueHue = 10,
			BlueSaturation = 20,
			CameraProfile = "Embedded",
			ChromaticAberrationB = 0,
			ChromaticAberrationR = 0,
			Clarity2012 = 11,
			ColorNoiseReduction = 18,
			ColorNoiseReductionDetail = 12,
			Contrast2012 = 1,
			ConvertToGrayscale = false,
			Defringe = 0,
			EnableCalibration = true,
			EnableColorAdjustments = true,
			EnableDetail = true,
			EnableEffects = true,
			EnableLensCorrections = true,
			EnableSplitToning = true,
			Exposure2012 = -2.07,
			GrainAmount = 0,
			GrainFrequency = 50,
			GrainSize = 25,
			GreenHue = -22,
			GreenSaturation = -15,
			Highlights2012 = -41,
			HueAdjustmentAqua = 48,
			HueAdjustmentBlue = -2,
			HueAdjustmentGreen = 18,
			HueAdjustmentMagenta = 0,
			HueAdjustmentOrange = -7,
			HueAdjustmentPurple = 0,
			HueAdjustmentRed = -5,
			HueAdjustmentYellow = 0,
			IncrementalTemperature = 49,
			IncrementalTint = -52,
			LuminanceAdjustmentAqua = -100,
			LuminanceAdjustmentBlue = 100,
			LuminanceAdjustmentGreen = 9,
			LuminanceAdjustmentMagenta = 64,
			LuminanceAdjustmentOrange = 100,
			LuminanceAdjustmentPurple = 62,
			LuminanceAdjustmentRed = 100,
			LuminanceAdjustmentYellow = 100,
			LuminanceNoiseReductionContrast = 0,
			LuminanceNoiseReductionDetail = 50,
			LuminanceSmoothing = 15,
			ParametricDarks = 52,
			ParametricHighlightSplit = 90,
			ParametricHighlights = 0,
			ParametricLights = 0,
			ParametricMidtoneSplit = 59,
			ParametricShadowSplit = 10,
			ParametricShadows = 0,
			PostCropVignetteAmount = -6,
			PostCropVignetteFeather = 50,
			PostCropVignetteHighlightContrast = 0,
			PostCropVignetteMidpoint = 10,
			PostCropVignetteRoundness = -27,
			PostCropVignetteStyle = 1,
			ProcessVersion = "6.7",
			RedHue = 15,
			RedSaturation = 31,
			Saturation = 38,
			SaturationAdjustmentAqua = -16,
			SaturationAdjustmentBlue = -2,
			SaturationAdjustmentGreen = -88,
			SaturationAdjustmentMagenta = -73,
			SaturationAdjustmentOrange = -36,
			SaturationAdjustmentPurple = -77,
			SaturationAdjustmentRed = -48,
			SaturationAdjustmentYellow = -32,
			ShadowTint = 100,
			Shadows2012 = 22,
			SharpenDetail = 28,
			SharpenEdgeMasking = 0,
			SharpenRadius = 1.5,
			Sharpness = 67,
			SplitToningBalance = 26,
			SplitToningHighlightHue = 228,
			SplitToningHighlightSaturation = 86,
			SplitToningShadowHue = 348,
			SplitToningShadowSaturation = 74,
			ToneCurveName2012 = "Custom",
			ToneCurvePV2012 = {
				0,
				28,
				115,
				146,
				240,
				255,
			},
			ToneCurvePV2012Blue = {
				0,
				0,
				255,
				255,
			},
			ToneCurvePV2012Green = {
				0,
				0,
				255,
				255,
			},
			ToneCurvePV2012Red = {
				0,
				0,
				255,
				255,
			},
			Vibrance = -7,
			VignetteAmount = -18,
			VignetteMidpoint = 50,
			WhiteBalance = "Custom",
			Whites2012 = 0,
		},
		uuid = "B91A3D4D-77A6-4D7D-9E87-060CE73F0DDA",
	},
	version = 0,
}
