HQLightroomPresets 505 V.3.4/HQLightroomPresets 505 V.3.4/HQLightroomPresets Lr4-Lr5 JPEG & RAW/False Color - Pale Skin ~ HQLightroomPresets_.lrtemplate
s = {
	id = "2E63AD2E-009A-434B-B19D-DA21F1C952FD",
	internalName = "Copyrights © 2012 ~ HQLighroomPresets.com",
	title = "False Color : Pale Skin ~ HQLightroomPresets ",
	type = "Develop",
	value = {
		settings = {
			AutoLateralCA = 0,
			Blacks2012 = -13,
			BlueHue = -100,
			BlueSaturation = -22,
			CameraProfile = "Embedded",
			ChromaticAberrationB = 0,
			ChromaticAberrationR = 0,
			Clarity2012 = 0,
			ColorNoiseReduction = 0,
			ColorNoiseReductionDetail = 50,
			Contrast2012 = -7,
			ConvertToGrayscale = false,
			Defringe = 0,
			EnableCalibration = true,
			EnableColorAdjustments = true,
			EnableDetail = true,
			EnableEffects = true,
			EnableLensCorrections = true,
			EnableSplitToning = true,
			Exposure2012 = 0.12,
			GrainAmount = 0,
			GrainFrequency = 50,
			GrainSize = 50,
			GreenHue = 0,
			GreenSaturation = -31,
			Highlights2012 = -2,
			HueAdjustmentAqua = 0,
			HueAdjustmentBlue = 0,
			HueAdjustmentGreen = 100,
			HueAdjustmentMagenta = 0,
			HueAdjustmentOrange = 0,
			HueAdjustmentPurple = 0,
			HueAdjustmentRed = 0,
			HueAdjustmentYellow = -100,
			LuminanceAdjustmentAqua = 0,
			LuminanceAdjustmentBlue = 0,
			LuminanceAdjustmentGreen = 54,
			LuminanceAdjustmentMagenta = 0,
			LuminanceAdjustmentOrange = 21,
			LuminanceAdjustmentPurple = 0,
			LuminanceAdjustmentRed = 0,
			LuminanceAdjustmentYellow = 100,
			LuminanceNoiseReductionContrast = 0,
			LuminanceNoiseReductionDetail = 50,
			LuminanceSmoothing = 17,
			ParametricDarks = 52,
			ParametricHighlightSplit = 90,
			ParametricHighlights = 0,
			ParametricLights = 0,
			ParametricMidtoneSplit = 59,
			ParametricShadowSplit = 10,
			ParametricShadows = 0,
			PostCropVignetteAmount = -11,
			PostCropVignetteFeather = 67,
			PostCropVignetteHighlightContrast = 0,
			PostCropVignetteMidpoint = 49,
			PostCropVignetteRoundness = 68,
			PostCropVignetteStyle = 1,
			ProcessVersion = "6.7",
			RedHue = 8,
			RedSaturation = 0,
			Saturation = -17,
			SaturationAdjustmentAqua = -14,
			SaturationAdjustmentBlue = -14,
			SaturationAdjustmentGreen = -14,
			SaturationAdjustmentMagenta = -14,
			SaturationAdjustmentOrange = -14,
			SaturationAdjustmentPurple = -14,
			SaturationAdjustmentRed = -12,
			SaturationAdjustmentYellow = -14,
			ShadowTint = 0,
			Shadows2012 = 20,
			SharpenDetail = 25,
			SharpenEdgeMasking = 0,
			SharpenRadius = 1,
			Sharpness = 37,
			SplitToningBalance = 52,
			SplitToningHighlightHue = 77,
			SplitToningHighlightSaturation = 11,
			SplitToningShadowHue = 96,
			SplitToningShadowSaturation = 46,
			Temperature = 5382,
			Tint = 150,
			ToneCurveName2012 = "Custom",
			ToneCurvePV2012 = {
				0,
				0,
				76,
				43,
				124,
				105,
				255,
				255,
			},
			ToneCurvePV2012Blue = {
				0,
				0,
				255,
				255,
			},
			ToneCurvePV2012Green = {
				0,
				0,
				255,
				255,
			},
			ToneCurvePV2012Red = {
				0,
				0,
				255,
				255,
			},
			Vibrance = -17,
			VignetteAmount = 0,
			VignetteMidpoint = 50,
			WhiteBalance = "Custom",
			Whites2012 = -1,
		},
		uuid = "4D2A38DD-7B92-4000-AB9D-C12C66B9E7CA",
	},
	version = 0,
}
