HQLightroomPresets 505 V.3.4/HQLightroomPresets 505 V.3.4/HQLightroomPresets Lr4-Lr5 JPEG & RAW/False Color - Fantasy Island ~ HQLightroomPresets_.lrtemplate
s = {
	id = "D34AD20B-301E-4B0A-A09F-BF54C225986F",
	internalName = "Copyrights © 2012 ~ HQLighroomPresets.com",
	title = "False Color : Fantasy Island ~ HQLightroomPresets ",
	type = "Develop",
	value = {
		settings = {
			AutoLateralCA = 0,
			Blacks2012 = -10,
			BlueHue = 0,
			BlueSaturation = 0,
			CameraProfile = "Embedded",
			ChromaticAberrationB = 0,
			ChromaticAberrationR = 0,
			Clarity2012 = -22,
			ColorNoiseReduction = 28,
			ColorNoiseReductionDetail = 50,
			Contrast2012 = -33,
			ConvertToGrayscale = false,
			Defringe = 0,
			EnableCalibration = true,
			EnableColorAdjustments = true,
			EnableDetail = true,
			EnableEffects = true,
			EnableLensCorrections = true,
			EnableSplitToning = true,
			Exposure2012 = 0.85,
			GrainAmount = 0,
			GrainFrequency = 50,
			GrainSize = 25,
			GreenHue = 0,
			GreenSaturation = 0,
			Highlights2012 = -22,
			HueAdjustmentAqua = -44,
			HueAdjustmentBlue = -46,
			HueAdjustmentGreen = -46,
			HueAdjustmentMagenta = -52,
			HueAdjustmentOrange = -38,
			HueAdjustmentPurple = -48,
			HueAdjustmentRed = -56,
			HueAdjustmentYellow = -46,
			LuminanceAdjustmentAqua = 0,
			LuminanceAdjustmentBlue = 0,
			LuminanceAdjustmentGreen = 0,
			LuminanceAdjustmentMagenta = 41,
			LuminanceAdjustmentOrange = 0,
			LuminanceAdjustmentPurple = 36,
			LuminanceAdjustmentRed = -9,
			LuminanceAdjustmentYellow = 0,
			LuminanceNoiseReductionContrast = 0,
			LuminanceNoiseReductionDetail = 50,
			LuminanceSmoothing = 5,
			ParametricDarks = 0,
			ParametricHighlightSplit = 75,
			ParametricHighlights = 0,
			ParametricLights = 0,
			ParametricMidtoneSplit = 50,
			ParametricShadowSplit = 25,
			ParametricShadows = 0,
			PostCropVignetteAmount = -32,
			PostCropVignetteFeather = 90,
			PostCropVignetteHighlightContrast = 0,
			PostCropVignetteMidpoint = 5,
			PostCropVignetteRoundness = 17,
			PostCropVignetteStyle = 1,
			ProcessVersion = "6.7",
			RedHue = 0,
			RedSaturation = 0,
			Saturation = 3,
			SaturationAdjustmentAqua = 77,
			SaturationAdjustmentBlue = 33,
			SaturationAdjustmentGreen = 38,
			SaturationAdjustmentMagenta = 0,
			SaturationAdjustmentOrange = -50,
			SaturationAdjustmentPurple = -2,
			SaturationAdjustmentRed = -67,
			SaturationAdjustmentYellow = 0,
			ShadowTint = 0,
			Shadows2012 = 46,
			SharpenDetail = 50,
			SharpenEdgeMasking = 0,
			SharpenRadius = 1,
			Sharpness = 45,
			SplitToningBalance = 0,
			SplitToningHighlightHue = 52,
			SplitToningHighlightSaturation = 21,
			SplitToningShadowHue = 0,
			SplitToningShadowSaturation = 0,
			Temperature = 4825,
			Tint = 10,
			ToneCurveName2012 = "Custom",
			ToneCurvePV2012 = {
				0,
				57,
				71,
				56,
				137,
				121,
				190,
				189,
				255,
				233,
			},
			ToneCurvePV2012Blue = {
				0,
				0,
				255,
				255,
			},
			ToneCurvePV2012Green = {
				0,
				0,
				255,
				255,
			},
			ToneCurvePV2012Red = {
				0,
				0,
				255,
				255,
			},
			Vibrance = 59,
			VignetteAmount = 0,
			VignetteMidpoint = 20,
			WhiteBalance = "Custom",
			Whites2012 = 0,
		},
		uuid = "1A7FF3B7-5552-4D40-A227-1656F63B2E92",
	},
	version = 0,
}
