HQLightroomPresets 505 V.3.4/HQLightroomPresets 505 V.3.4/HQLightroomPresets Lr4-Lr5 JPEG & RAW/False Color II - 36 Gold Orange ~ HQLightroomPresets_.lrtemplate
s = {
	id = "11B1A90B-D360-436B-B205-6F50FB98016B",
	internalName = "Copyrights © 2012 ~ HQLighroomPresets.com",
	title = "False Color II : 36 Gold Orange ~ HQLightroomPresets ",
	type = "Develop",
	value = {
		settings = {
			AutoLateralCA = 0,
			Blacks2012 = -7,
			BlueHue = -59,
			BlueSaturation = 54,
			CameraProfile = "Embedded",
			ChromaticAberrationB = 0,
			ChromaticAberrationR = 0,
			Clarity2012 = 13,
			ColorNoiseReduction = 18,
			ColorNoiseReductionDetail = 12,
			Contrast2012 = -5,
			ConvertToGrayscale = false,
			Defringe = 0,
			EnableCalibration = true,
			EnableColorAdjustments = true,
			EnableDetail = true,
			EnableEffects = true,
			EnableLensCorrections = true,
			EnableSplitToning = true,
			Exposure2012 = -0.37,
			GrainAmount = 0,
			GrainFrequency = 50,
			GrainSize = 25,
			GreenHue = -100,
			GreenSaturation = -22,
			Highlights2012 = -73,
			HueAdjustmentAqua = 11,
			HueAdjustmentBlue = 11,
			HueAdjustmentGreen = -100,
			HueAdjustmentMagenta = 0,
			HueAdjustmentOrange = 0,
			HueAdjustmentPurple = 0,
			HueAdjustmentRed = 0,
			HueAdjustmentYellow = 0,
			IncrementalTemperature = 0,
			IncrementalTint = 1,
			LuminanceAdjustmentAqua = 55,
			LuminanceAdjustmentBlue = -95,
			LuminanceAdjustmentGreen = 93,
			LuminanceAdjustmentMagenta = 64,
			LuminanceAdjustmentOrange = 82,
			LuminanceAdjustmentPurple = 57,
			LuminanceAdjustmentRed = 89,
			LuminanceAdjustmentYellow = 82,
			LuminanceNoiseReductionContrast = 0,
			LuminanceNoiseReductionDetail = 50,
			LuminanceSmoothing = 15,
			ParametricDarks = 52,
			ParametricHighlightSplit = 90,
			ParametricHighlights = 0,
			ParametricLights = 0,
			ParametricMidtoneSplit = 59,
			ParametricShadowSplit = 10,
			ParametricShadows = 0,
			PostCropVignetteAmount = -22,
			PostCropVignetteFeather = 50,
			PostCropVignetteHighlightContrast = 0,
			PostCropVignetteMidpoint = 10,
			PostCropVignetteRoundness = -27,
			PostCropVignetteStyle = 1,
			ProcessVersion = "6.7",
			RedHue = -54,
			RedSaturation = 17,
			Saturation = 47,
			SaturationAdjustmentAqua = -27,
			SaturationAdjustmentBlue = 41,
			SaturationAdjustmentGreen = -95,
			SaturationAdjustmentMagenta = 0,
			SaturationAdjustmentOrange = -16,
			SaturationAdjustmentPurple = 0,
			SaturationAdjustmentRed = -2,
			SaturationAdjustmentYellow = -41,
			ShadowTint = 49,
			Shadows2012 = 4,
			SharpenDetail = 28,
			SharpenEdgeMasking = 0,
			SharpenRadius = 1.5,
			Sharpness = 67,
			SplitToningBalance = 49,
			SplitToningHighlightHue = 62,
			SplitToningHighlightSaturation = 14,
			SplitToningShadowHue = 50,
			SplitToningShadowSaturation = 15,
			ToneCurveName2012 = "Custom",
			ToneCurvePV2012 = {
				0,
				19,
				116,
				153,
				255,
				255,
			},
			ToneCurvePV2012Blue = {
				0,
				0,
				255,
				255,
			},
			ToneCurvePV2012Green = {
				0,
				0,
				255,
				255,
			},
			ToneCurvePV2012Red = {
				0,
				0,
				255,
				255,
			},
			Vibrance = -90,
			VignetteAmount = -18,
			VignetteMidpoint = 50,
			WhiteBalance = "Custom",
			Whites2012 = 0,
		},
		uuid = "4537D980-FA8B-44D8-9E37-4FBD895C80F9",
	},
	version = 0,
}
