HQLightroomPresets 505 V.3.4/HQLightroomPresets 505 V.3.4/HQLightroomPresets Lr4-Lr5 JPEG & RAW/Glow & Smooth - Pinky Love ~ HQLightroomPresets.lrtemplate
s = {
	id = "0F838192-1A58-460B-A3DA-C7D7C3751090",
	internalName = "Glow & Smooth : Pinky Love ~ HQLightroomPresets.com 2",
	title = "Glow & Smooth : Pinky Love ~ HQLightroomPresets",
	type = "Develop",
	value = {
		settings = {
			AutoLateralCA = 0,
			Blacks2012 = -68,
			BlueHue = -52,
			BlueSaturation = 33,
			CameraProfile = "ACR 4.4",
			ChromaticAberrationB = 0,
			ChromaticAberrationR = 0,
			Clarity2012 = -15,
			ColorNoiseReduction = 0,
			ColorNoiseReductionDetail = 50,
			Contrast2012 = -17,
			ConvertToGrayscale = false,
			Defringe = 0,
			EnableCalibration = true,
			EnableColorAdjustments = true,
			EnableDetail = true,
			EnableEffects = true,
			EnableLensCorrections = true,
			EnableSplitToning = true,
			Exposure2012 = 0.37,
			GrainAmount = 0,
			GrainFrequency = 50,
			GrainSize = 50,
			GreenHue = 75,
			GreenSaturation = 15,
			Highlights2012 = -14,
			HueAdjustmentAqua = 0,
			HueAdjustmentBlue = 0,
			HueAdjustmentGreen = 0,
			HueAdjustmentMagenta = 0,
			HueAdjustmentOrange = 0,
			HueAdjustmentPurple = 0,
			HueAdjustmentRed = 0,
			HueAdjustmentYellow = 1,
			IncrementalTemperature = 29,
			IncrementalTint = -1,
			LuminanceAdjustmentAqua = 0,
			LuminanceAdjustmentBlue = 0,
			LuminanceAdjustmentGreen = 0,
			LuminanceAdjustmentMagenta = 0,
			LuminanceAdjustmentOrange = 0,
			LuminanceAdjustmentPurple = 0,
			LuminanceAdjustmentRed = 0,
			LuminanceAdjustmentYellow = 0,
			LuminanceNoiseReductionContrast = 0,
			LuminanceNoiseReductionDetail = 89,
			LuminanceSmoothing = 72,
			ParametricDarks = 52,
			ParametricHighlightSplit = 90,
			ParametricHighlights = 0,
			ParametricLights = 0,
			ParametricMidtoneSplit = 59,
			ParametricShadowSplit = 10,
			ParametricShadows = 0,
			PostCropVignetteAmount = -36,
			PostCropVignetteFeather = 67,
			PostCropVignetteHighlightContrast = 0,
			PostCropVignetteMidpoint = 54,
			PostCropVignetteRoundness = 68,
			PostCropVignetteStyle = 1,
			ProcessVersion = "6.7",
			RedHue = 68,
			RedSaturation = 43,
			Saturation = -43,
			SaturationAdjustmentAqua = 0,
			SaturationAdjustmentBlue = 0,
			SaturationAdjustmentGreen = 0,
			SaturationAdjustmentMagenta = 0,
			SaturationAdjustmentOrange = -14,
			SaturationAdjustmentPurple = 0,
			SaturationAdjustmentRed = -12,
			SaturationAdjustmentYellow = 0,
			ShadowTint = 47,
			Shadows2012 = -2,
			SharpenDetail = 25,
			SharpenEdgeMasking = 0,
			SharpenRadius = 1,
			Sharpness = 29,
			SplitToningBalance = 52,
			SplitToningHighlightHue = 188,
			SplitToningHighlightSaturation = 5,
			SplitToningShadowHue = 252,
			SplitToningShadowSaturation = 57,
			ToneCurveName2012 = "Custom",
			ToneCurvePV2012 = {
				34,
				45,
				148,
				131,
				253,
				255,
			},
			ToneCurvePV2012Blue = {
				0,
				0,
				255,
				255,
			},
			ToneCurvePV2012Green = {
				0,
				0,
				255,
				255,
			},
			ToneCurvePV2012Red = {
				0,
				0,
				255,
				255,
			},
			Vibrance = 10,
			VignetteAmount = 0,
			VignetteMidpoint = 50,
			WhiteBalance = "Custom",
			Whites2012 = -39,
		},
		uuid = "DCC51B92-6013-4F6C-B1E0-78D647D0CA87",
	},
	version = 0,
}
