HQLightroomPresets 505 V.3.4/HQLightroomPresets 505 V.3.4/HQLightroomPresets Lr4-Lr5 JPEG & RAW/Glow & Smooth - Fun Red ~ HQLightroomPresets.lrtemplate
s = {
	id = "78D021DB-DDC2-4BD1-B1F1-27130CF473C4",
	internalName = "Glow & Smooth : Fun Red ~ HQLightroomPresets.com 2",
	title = "Glow & Smooth : Fun Red ~ HQLightroomPresets",
	type = "Develop",
	value = {
		settings = {
			AutoLateralCA = 0,
			Blacks2012 = -71,
			BlueHue = -3,
			BlueSaturation = 20,
			CameraProfile = "Embedded",
			ChromaticAberrationB = 0,
			ChromaticAberrationR = 0,
			Clarity2012 = -31,
			ColorNoiseReduction = 28,
			ColorNoiseReductionDetail = 50,
			Contrast2012 = -25,
			ConvertToGrayscale = false,
			Defringe = 0,
			EnableCalibration = true,
			EnableColorAdjustments = true,
			EnableDetail = true,
			EnableEffects = true,
			EnableLensCorrections = true,
			EnableSplitToning = true,
			Exposure2012 = 0.37,
			GrainAmount = 0,
			GrainFrequency = 50,
			GrainSize = 25,
			GreenHue = 40,
			GreenSaturation = -1,
			Highlights2012 = 7,
			HueAdjustmentAqua = 15,
			HueAdjustmentBlue = 18,
			HueAdjustmentGreen = 0,
			HueAdjustmentMagenta = -10,
			HueAdjustmentOrange = -2,
			HueAdjustmentPurple = -2,
			HueAdjustmentRed = -16,
			HueAdjustmentYellow = -12,
			IncrementalTemperature = 0,
			IncrementalTint = -20,
			LuminanceAdjustmentAqua = -49,
			LuminanceAdjustmentBlue = -38,
			LuminanceAdjustmentGreen = -4,
			LuminanceAdjustmentMagenta = -7,
			LuminanceAdjustmentOrange = -10,
			LuminanceAdjustmentPurple = -24,
			LuminanceAdjustmentRed = -1,
			LuminanceAdjustmentYellow = -10,
			LuminanceNoiseReductionContrast = 0,
			LuminanceNoiseReductionDetail = 84,
			LuminanceSmoothing = 83,
			ParametricDarks = -12,
			ParametricHighlightSplit = 75,
			ParametricHighlights = -30,
			ParametricLights = 17,
			ParametricMidtoneSplit = 50,
			ParametricShadowSplit = 25,
			ParametricShadows = 0,
			PostCropVignetteAmount = -6,
			PostCropVignetteFeather = 100,
			PostCropVignetteHighlightContrast = 0,
			PostCropVignetteMidpoint = 0,
			PostCropVignetteRoundness = -33,
			PostCropVignetteStyle = 1,
			ProcessVersion = "6.7",
			RedHue = -36,
			RedSaturation = 13,
			Saturation = 13,
			SaturationAdjustmentAqua = 70,
			SaturationAdjustmentBlue = -19,
			SaturationAdjustmentGreen = -26,
			SaturationAdjustmentMagenta = 0,
			SaturationAdjustmentOrange = 16,
			SaturationAdjustmentPurple = 26,
			SaturationAdjustmentRed = 1,
			SaturationAdjustmentYellow = 10,
			ShadowTint = 0,
			Shadows2012 = 37,
			SharpenDetail = 50,
			SharpenEdgeMasking = 0,
			SharpenRadius = 1,
			Sharpness = 57,
			SplitToningBalance = 63,
			SplitToningHighlightHue = 0,
			SplitToningHighlightSaturation = 0,
			SplitToningShadowHue = 0,
			SplitToningShadowSaturation = 44,
			ToneCurveName2012 = "Custom",
			ToneCurvePV2012 = {
				1,
				36,
				78,
				98,
				184,
				192,
				238,
				255,
			},
			ToneCurvePV2012Blue = {
				0,
				0,
				255,
				255,
			},
			ToneCurvePV2012Green = {
				0,
				0,
				255,
				255,
			},
			ToneCurvePV2012Red = {
				0,
				0,
				255,
				255,
			},
			Vibrance = -29,
			VignetteAmount = 0,
			VignetteMidpoint = 20,
			WhiteBalance = "Custom",
			Whites2012 = -10,
		},
		uuid = "2DACBA95-5F13-48EC-A1D6-A21624781869",
	},
	version = 0,
}
