HQLightroomPresets 505 V.3.4/HQLightroomPresets 505 V.3.4/HQLightroomPresets Lr4-Lr5 JPEG & RAW/Glow & Smooth - Dramatic Scene ~ HQLightroomPresets.lrtemplate
s = {
	id = "03912304-0381-4CA5-979F-209F8CA5B3A5",
	internalName = "Glow & Smooth : Dramatic Scene ~ HQLightroomPresets.com 2",
	title = "Glow & Smooth : Dramatic Scene ~ HQLightroomPresets",
	type = "Develop",
	value = {
		settings = {
			AutoLateralCA = 0,
			Blacks2012 = -66,
			BlueHue = 0,
			BlueSaturation = 0,
			CameraProfile = "Embedded",
			ChromaticAberrationB = 0,
			ChromaticAberrationR = 0,
			Clarity2012 = -31,
			ColorNoiseReduction = 18,
			ColorNoiseReductionDetail = 99,
			Contrast2012 = -38,
			ConvertToGrayscale = false,
			Defringe = 0,
			EnableCalibration = true,
			EnableColorAdjustments = true,
			EnableDetail = true,
			EnableEffects = true,
			EnableLensCorrections = true,
			EnableSplitToning = true,
			Exposure2012 = 0.61,
			GrainAmount = 0,
			GrainFrequency = 50,
			GrainSize = 25,
			GreenHue = 0,
			GreenSaturation = 0,
			Highlights2012 = -37,
			HueAdjustmentAqua = 0,
			HueAdjustmentBlue = 0,
			HueAdjustmentGreen = 0,
			HueAdjustmentMagenta = 0,
			HueAdjustmentOrange = 0,
			HueAdjustmentPurple = 0,
			HueAdjustmentRed = 0,
			HueAdjustmentYellow = 0,
			IncrementalTemperature = 12,
			IncrementalTint = -47,
			LuminanceAdjustmentAqua = 0,
			LuminanceAdjustmentBlue = -38,
			LuminanceAdjustmentGreen = 0,
			LuminanceAdjustmentMagenta = 0,
			LuminanceAdjustmentOrange = 11,
			LuminanceAdjustmentPurple = 0,
			LuminanceAdjustmentRed = 9,
			LuminanceAdjustmentYellow = 20,
			LuminanceNoiseReductionContrast = 0,
			LuminanceNoiseReductionDetail = 89,
			LuminanceSmoothing = 44,
			ParametricDarks = 0,
			ParametricHighlightSplit = 75,
			ParametricHighlights = 0,
			ParametricLights = -2,
			ParametricMidtoneSplit = 50,
			ParametricShadowSplit = 25,
			ParametricShadows = 0,
			PostCropVignetteAmount = -26,
			PostCropVignetteFeather = 79,
			PostCropVignetteHighlightContrast = 0,
			PostCropVignetteMidpoint = 17,
			PostCropVignetteRoundness = 40,
			PostCropVignetteStyle = 1,
			ProcessVersion = "6.7",
			RedHue = 0,
			RedSaturation = 0,
			Saturation = 31,
			SaturationAdjustmentAqua = 0,
			SaturationAdjustmentBlue = 59,
			SaturationAdjustmentGreen = -50,
			SaturationAdjustmentMagenta = 0,
			SaturationAdjustmentOrange = -57,
			SaturationAdjustmentPurple = 0,
			SaturationAdjustmentRed = -50,
			SaturationAdjustmentYellow = -52,
			ShadowTint = 0,
			Shadows2012 = 17,
			SharpenDetail = 25,
			SharpenEdgeMasking = 0,
			SharpenRadius = 1,
			Sharpness = 31,
			SplitToningBalance = 53,
			SplitToningHighlightHue = 290,
			SplitToningHighlightSaturation = 9,
			SplitToningShadowHue = 269,
			SplitToningShadowSaturation = 56,
			ToneCurveName2012 = "Custom",
			ToneCurvePV2012 = {
				0,
				38,
				80,
				65,
				139,
				107,
				191,
				175,
				254,
				251,
			},
			ToneCurvePV2012Blue = {
				0,
				0,
				255,
				255,
			},
			ToneCurvePV2012Green = {
				0,
				0,
				255,
				255,
			},
			ToneCurvePV2012Red = {
				0,
				0,
				255,
				255,
			},
			Vibrance = -22,
			VignetteAmount = -1,
			VignetteMidpoint = 20,
			WhiteBalance = "Custom",
			Whites2012 = 12,
		},
		uuid = "117E687D-BBB1-43D4-BC5F-CBA017F54DC7",
	},
	version = 0,
}
