HQLightroomPresets 505 V.3.4/HQLightroomPresets 505 V.3.4/HQLightroomPresets Lr4-Lr5 JPEG & RAW/Glow & Smooth - Beauty Bright ~ HQLightroomPresets.lrtemplate
s = {
	id = "30A7109D-7312-4BD8-B16C-2CD1EA638195",
	internalName = "Glow & Smooth : Beauty Bright ~ HQLightroomPresets.com 2",
	title = "Glow & Smooth : Beauty Bright ~ HQLightroomPresets",
	type = "Develop",
	value = {
		settings = {
			AutoLateralCA = 0,
			Blacks2012 = -32,
			BlueHue = 0,
			BlueSaturation = 0,
			CameraProfile = "ACR 2.4",
			ChromaticAberrationB = 0,
			ChromaticAberrationR = 0,
			Clarity2012 = -8,
			ColorNoiseReduction = 84,
			ColorNoiseReductionDetail = 72,
			Contrast2012 = -7,
			ConvertToGrayscale = false,
			Defringe = 0,
			EnableCalibration = true,
			EnableColorAdjustments = true,
			EnableDetail = true,
			EnableEffects = true,
			EnableLensCorrections = true,
			EnableSplitToning = true,
			Exposure2012 = 0.24,
			GrainAmount = 0,
			GrainFrequency = 50,
			GrainSize = 25,
			GreenHue = 0,
			GreenSaturation = 0,
			Highlights2012 = -5,
			HueAdjustmentAqua = 0,
			HueAdjustmentBlue = 0,
			HueAdjustmentGreen = -100,
			HueAdjustmentMagenta = 0,
			HueAdjustmentOrange = -13,
			HueAdjustmentPurple = 0,
			HueAdjustmentRed = 0,
			HueAdjustmentYellow = -13,
			IncrementalTemperature = -6,
			IncrementalTint = -3,
			LuminanceAdjustmentAqua = 0,
			LuminanceAdjustmentBlue = 0,
			LuminanceAdjustmentGreen = -4,
			LuminanceAdjustmentMagenta = 0,
			LuminanceAdjustmentOrange = 55,
			LuminanceAdjustmentPurple = 0,
			LuminanceAdjustmentRed = 61,
			LuminanceAdjustmentYellow = 57,
			LuminanceNoiseReductionContrast = 6,
			LuminanceNoiseReductionDetail = 76,
			LuminanceSmoothing = 52,
			ParametricDarks = -6,
			ParametricHighlightSplit = 75,
			ParametricHighlights = -30,
			ParametricLights = 3,
			ParametricMidtoneSplit = 50,
			ParametricShadowSplit = 25,
			ParametricShadows = -6,
			PostCropVignetteAmount = 0,
			PostCropVignetteFeather = 100,
			PostCropVignetteHighlightContrast = 0,
			PostCropVignetteMidpoint = 28,
			PostCropVignetteRoundness = 100,
			PostCropVignetteStyle = 1,
			ProcessVersion = "6.7",
			RedHue = 0,
			RedSaturation = 0,
			Saturation = 12,
			SaturationAdjustmentAqua = 0,
			SaturationAdjustmentBlue = 0,
			SaturationAdjustmentGreen = 21,
			SaturationAdjustmentMagenta = 0,
			SaturationAdjustmentOrange = 38,
			SaturationAdjustmentPurple = 0,
			SaturationAdjustmentRed = 32,
			SaturationAdjustmentYellow = 22,
			ShadowTint = 0,
			Shadows2012 = 41,
			SharpenDetail = 50,
			SharpenEdgeMasking = 0,
			SharpenRadius = 1,
			Sharpness = 60,
			SplitToningBalance = 85,
			SplitToningHighlightHue = 194,
			SplitToningHighlightSaturation = 0,
			SplitToningShadowHue = 29,
			SplitToningShadowSaturation = 52,
			ToneCurveName2012 = "Custom",
			ToneCurvePV2012 = {
				0,
				32,
				91,
				91,
				205,
				215,
				236,
				231,
				251,
				225,
			},
			ToneCurvePV2012Blue = {
				0,
				0,
				255,
				255,
			},
			ToneCurvePV2012Green = {
				0,
				0,
				255,
				255,
			},
			ToneCurvePV2012Red = {
				0,
				0,
				255,
				255,
			},
			Vibrance = -12,
			VignetteAmount = -3,
			VignetteMidpoint = 20,
			WhiteBalance = "Custom",
			Whites2012 = -12,
		},
		uuid = "5FEBA40F-6D82-48F0-8473-1C05ED6FF12D",
	},
	version = 0,
}
