HQLightroomPresets 505 V.3.4/HQLightroomPresets 505 V.3.4/HQLightroomPresets Lr4-Lr5 JPEG & RAW/High Contrast - Mint Tea ~ HQLightroomPresets_.lrtemplate
s = {
	id = "E3305FCA-363C-4FB4-A79B-EC1D52D8F57A",
	internalName = "Copyrights © 2012 ~ HQLighroomPresets.com",
	title = "High Contrast : Mint Tea ~ HQLightroomPresets ",
	type = "Develop",
	value = {
		settings = {
			AutoLateralCA = 0,
			Blacks2012 = -56,
			BlueHue = -36,
			BlueSaturation = -39,
			CameraProfile = "ACR 4.4",
			ChromaticAberrationB = 0,
			ChromaticAberrationR = 0,
			Clarity2012 = 0,
			ColorNoiseReduction = 25,
			ColorNoiseReductionDetail = 50,
			Contrast2012 = -11,
			ConvertToGrayscale = false,
			Defringe = 0,
			EnableCalibration = true,
			EnableColorAdjustments = true,
			EnableDetail = true,
			EnableEffects = true,
			EnableLensCorrections = true,
			EnableSplitToning = true,
			Exposure2012 = 0.73,
			GrainAmount = 0,
			GrainFrequency = 50,
			GrainSize = 25,
			GreenHue = 0,
			GreenSaturation = -30,
			Highlights2012 = -22,
			HueAdjustmentAqua = 0,
			HueAdjustmentBlue = 0,
			HueAdjustmentGreen = 0,
			HueAdjustmentMagenta = 0,
			HueAdjustmentOrange = 0,
			HueAdjustmentPurple = 0,
			HueAdjustmentRed = 0,
			HueAdjustmentYellow = 0,
			LuminanceAdjustmentAqua = 0,
			LuminanceAdjustmentBlue = -1,
			LuminanceAdjustmentGreen = 26,
			LuminanceAdjustmentMagenta = 0,
			LuminanceAdjustmentOrange = 24,
			LuminanceAdjustmentPurple = 0,
			LuminanceAdjustmentRed = 24,
			LuminanceAdjustmentYellow = 0,
			LuminanceNoiseReductionContrast = 0,
			LuminanceNoiseReductionDetail = 50,
			LuminanceSmoothing = 14,
			ParametricDarks = 56,
			ParametricHighlightSplit = 75,
			ParametricHighlights = 0,
			ParametricLights = 12,
			ParametricMidtoneSplit = 50,
			ParametricShadowSplit = 25,
			ParametricShadows = -5,
			PostCropVignetteAmount = -9,
			PostCropVignetteFeather = 71,
			PostCropVignetteHighlightContrast = 0,
			PostCropVignetteMidpoint = 54,
			PostCropVignetteRoundness = 71,
			PostCropVignetteStyle = 1,
			ProcessVersion = "6.7",
			RedHue = -9,
			RedSaturation = 30,
			Saturation = 3,
			SaturationAdjustmentAqua = 0,
			SaturationAdjustmentBlue = 0,
			SaturationAdjustmentGreen = -40,
			SaturationAdjustmentMagenta = -12,
			SaturationAdjustmentOrange = -45,
			SaturationAdjustmentPurple = -32,
			SaturationAdjustmentRed = -21,
			SaturationAdjustmentYellow = -41,
			ShadowTint = -10,
			Shadows2012 = 22,
			SharpenDetail = 0,
			SharpenEdgeMasking = 0,
			SharpenRadius = 0.5,
			Sharpness = 42,
			SplitToningBalance = 22,
			SplitToningHighlightHue = 214,
			SplitToningHighlightSaturation = 20,
			SplitToningShadowHue = 45,
			SplitToningShadowSaturation = 24,
			Temperature = 5736,
			Tint = 10,
			ToneCurveName2012 = "Custom",
			ToneCurvePV2012 = {
				0,
				0,
				32,
				16,
				127,
				93,
				195,
				189,
				255,
				255,
			},
			ToneCurvePV2012Blue = {
				0,
				0,
				255,
				255,
			},
			ToneCurvePV2012Green = {
				0,
				0,
				255,
				255,
			},
			ToneCurvePV2012Red = {
				0,
				0,
				255,
				255,
			},
			Vibrance = -12,
			VignetteAmount = -13,
			VignetteMidpoint = 0,
			WhiteBalance = "Custom",
			Whites2012 = -55,
		},
		uuid = "7AD8FF4E-3ADD-4ABC-9B4B-D5723151E47F",
	},
	version = 0,
}
