HQLightroomPresets 505 V.3.4/HQLightroomPresets 505 V.3.4/HQLightroomPresets Lr4-Lr5 JPEG & RAW/Strong Color - White Bride ~ HQLightroomPresets_.lrtemplate
s = {
	id = "A32DD630-F99F-4DA5-B8FA-C8E278051CCB",
	internalName = "Copyrights © 2012 ~ HQLighroomPresets.com",
	title = "Strong Color : White Bride ~ HQLightroomPresets ",
	type = "Develop",
	value = {
		settings = {
			AutoLateralCA = 0,
			Blacks2012 = -8,
			BlueHue = -30,
			BlueSaturation = 20,
			CameraProfile = "ACR 4.4",
			ChromaticAberrationB = 0,
			ChromaticAberrationR = 0,
			Clarity2012 = 0,
			ColorNoiseReduction = 0,
			ColorNoiseReductionDetail = 50,
			Contrast2012 = -14,
			ConvertToGrayscale = false,
			Defringe = 0,
			EnableCalibration = true,
			EnableColorAdjustments = true,
			EnableDetail = true,
			EnableEffects = true,
			EnableLensCorrections = true,
			EnableSplitToning = true,
			Exposure2012 = 0.73,
			GrainAmount = 0,
			GrainFrequency = 50,
			GrainSize = 50,
			GreenHue = 0,
			GreenSaturation = -20,
			Highlights2012 = 0,
			HueAdjustmentAqua = -5,
			HueAdjustmentBlue = 0,
			HueAdjustmentGreen = 0,
			HueAdjustmentMagenta = 0,
			HueAdjustmentOrange = 0,
			HueAdjustmentPurple = 0,
			HueAdjustmentRed = 0,
			HueAdjustmentYellow = 0,
			LuminanceAdjustmentAqua = -16,
			LuminanceAdjustmentBlue = 0,
			LuminanceAdjustmentGreen = -27,
			LuminanceAdjustmentMagenta = 0,
			LuminanceAdjustmentOrange = 0,
			LuminanceAdjustmentPurple = 0,
			LuminanceAdjustmentRed = 0,
			LuminanceAdjustmentYellow = -4,
			LuminanceNoiseReductionContrast = 0,
			LuminanceNoiseReductionDetail = 50,
			LuminanceSmoothing = 5,
			ParametricDarks = 32,
			ParametricHighlightSplit = 90,
			ParametricHighlights = 0,
			ParametricLights = 0,
			ParametricMidtoneSplit = 59,
			ParametricShadowSplit = 10,
			ParametricShadows = 0,
			PostCropVignetteAmount = 0,
			PostCropVignetteFeather = 77,
			PostCropVignetteHighlightContrast = 0,
			PostCropVignetteMidpoint = 68,
			PostCropVignetteRoundness = 19,
			PostCropVignetteStyle = 1,
			ProcessVersion = "6.7",
			RedHue = 17,
			RedSaturation = -17,
			Saturation = 0,
			SaturationAdjustmentAqua = 0,
			SaturationAdjustmentBlue = 0,
			SaturationAdjustmentGreen = 27,
			SaturationAdjustmentMagenta = 0,
			SaturationAdjustmentOrange = 0,
			SaturationAdjustmentPurple = 0,
			SaturationAdjustmentRed = 0,
			SaturationAdjustmentYellow = 0,
			ShadowTint = 0,
			Shadows2012 = 0,
			SharpenDetail = 25,
			SharpenEdgeMasking = 0,
			SharpenRadius = 1,
			Sharpness = 61,
			SplitToningBalance = 52,
			SplitToningHighlightHue = 233,
			SplitToningHighlightSaturation = 24,
			SplitToningShadowHue = 25,
			SplitToningShadowSaturation = 62,
			Temperature = 4123,
			Tint = -21,
			ToneCurveName2012 = "Custom",
			ToneCurvePV2012 = {
				0,
				0,
				131,
				114,
				169,
				161,
				255,
				255,
			},
			ToneCurvePV2012Blue = {
				0,
				0,
				255,
				255,
			},
			ToneCurvePV2012Green = {
				0,
				0,
				255,
				255,
			},
			ToneCurvePV2012Red = {
				0,
				0,
				255,
				255,
			},
			Vibrance = 0,
			VignetteAmount = -31,
			VignetteMidpoint = 50,
			WhiteBalance = "Custom",
			Whites2012 = -10,
		},
		uuid = "29565035-4575-4BE7-8625-EE974ED08C5C",
	},
	version = 0,
}
