HQLightroomPresets 505 V.3.4/HQLightroomPresets 505 V.3.4/HQLightroomPresets Lr4-Lr5 JPEG & RAW/Strong Color - Strong Fantasy ~ HQLightroomPresets_.lrtemplate
s = {
	id = "CD68D5BE-2020-4961-B6C6-148EEBC8F3AC",
	internalName = "Copyrights © 2012 ~ HQLighroomPresets.com",
	title = "Strong Color : Strong Fantasy ~ HQLightroomPresets ",
	type = "Develop",
	value = {
		settings = {
			AutoLateralCA = 0,
			Blacks2012 = -10,
			BlueHue = 0,
			BlueSaturation = 0,
			CameraProfile = "Embedded",
			ChromaticAberrationB = 0,
			ChromaticAberrationR = 0,
			Clarity2012 = 14,
			ColorNoiseReduction = 28,
			ColorNoiseReductionDetail = 50,
			Contrast2012 = 0,
			ConvertToGrayscale = false,
			Defringe = 0,
			EnableCalibration = true,
			EnableColorAdjustments = true,
			EnableDetail = true,
			EnableEffects = true,
			EnableLensCorrections = true,
			EnableSplitToning = true,
			Exposure2012 = 0.98,
			GrainAmount = 0,
			GrainFrequency = 50,
			GrainSize = 25,
			GreenHue = 0,
			GreenSaturation = 0,
			Highlights2012 = -7,
			HueAdjustmentAqua = -18,
			HueAdjustmentBlue = -2,
			HueAdjustmentGreen = -9,
			HueAdjustmentMagenta = -9,
			HueAdjustmentOrange = 0,
			HueAdjustmentPurple = -2,
			HueAdjustmentRed = 0,
			HueAdjustmentYellow = 0,
			LuminanceAdjustmentAqua = -30,
			LuminanceAdjustmentBlue = -36,
			LuminanceAdjustmentGreen = -59,
			LuminanceAdjustmentMagenta = -9,
			LuminanceAdjustmentOrange = -9,
			LuminanceAdjustmentPurple = -13,
			LuminanceAdjustmentRed = -2,
			LuminanceAdjustmentYellow = -5,
			LuminanceNoiseReductionContrast = 0,
			LuminanceNoiseReductionDetail = 50,
			LuminanceSmoothing = 13,
			ParametricDarks = -12,
			ParametricHighlightSplit = 75,
			ParametricHighlights = -30,
			ParametricLights = 17,
			ParametricMidtoneSplit = 50,
			ParametricShadowSplit = 25,
			ParametricShadows = 0,
			PostCropVignetteAmount = -23,
			PostCropVignetteFeather = 100,
			PostCropVignetteHighlightContrast = 0,
			PostCropVignetteMidpoint = 10,
			PostCropVignetteRoundness = -33,
			PostCropVignetteStyle = 1,
			ProcessVersion = "6.7",
			RedHue = 0,
			RedSaturation = 0,
			Saturation = -5,
			SaturationAdjustmentAqua = 11,
			SaturationAdjustmentBlue = -33,
			SaturationAdjustmentGreen = 36,
			SaturationAdjustmentMagenta = 1,
			SaturationAdjustmentOrange = -32,
			SaturationAdjustmentPurple = 18,
			SaturationAdjustmentRed = -32,
			SaturationAdjustmentYellow = -34,
			ShadowTint = 0,
			Shadows2012 = 7,
			SharpenDetail = 50,
			SharpenEdgeMasking = 0,
			SharpenRadius = 1,
			Sharpness = 45,
			SplitToningBalance = 85,
			SplitToningHighlightHue = 0,
			SplitToningHighlightSaturation = 0,
			SplitToningShadowHue = 265,
			SplitToningShadowSaturation = 84,
			Temperature = 5889,
			Tint = -4,
			ToneCurveName2012 = "Custom",
			ToneCurvePV2012 = {
				0,
				0,
				132,
				111,
				163,
				140,
				255,
				255,
			},
			ToneCurvePV2012Blue = {
				0,
				0,
				255,
				255,
			},
			ToneCurvePV2012Green = {
				0,
				0,
				255,
				255,
			},
			ToneCurvePV2012Red = {
				0,
				0,
				255,
				255,
			},
			Vibrance = 70,
			VignetteAmount = -4,
			VignetteMidpoint = 47,
			WhiteBalance = "Custom",
			Whites2012 = 0,
		},
		uuid = "32C489D7-876B-4698-A955-CDC9A497D435",
	},
	version = 0,
}
