HQLightroomPresets 505 V.3.4/HQLightroomPresets 505 V.3.4/HQLightroomPresets Lr4-Lr5 JPEG & RAW/Update #1 - Whity Black ~ HQLightroomPresets_.lrtemplate
s = {
	id = "17631E52-9884-4747-A448-77F9C7FE5434",
	internalName = "Copyrights © 2012 ~ HQLighroomPresets.com",
	title = "Update #1 : Whity Black ~ HQLightroomPresets ",
	type = "Develop",
	value = {
		settings = {
			AutoLateralCA = 0,
			Blacks2012 = -5,
			BlueHue = 100,
			BlueSaturation = 100,
			CameraProfile = "ACR 4.4",
			ChromaticAberrationB = 0,
			ChromaticAberrationR = 0,
			Clarity2012 = 12,
			ColorNoiseReduction = 0,
			ColorNoiseReductionDetail = 50,
			Contrast2012 = 10,
			ConvertToGrayscale = false,
			Defringe = 0,
			EnableCalibration = true,
			EnableColorAdjustments = true,
			EnableDetail = true,
			EnableEffects = true,
			EnableLensCorrections = true,
			EnableSplitToning = true,
			Exposure2012 = -0.73,
			GrainAmount = 0,
			GrainFrequency = 50,
			GrainSize = 50,
			GreenHue = -100,
			GreenSaturation = 100,
			Highlights2012 = -54,
			HueAdjustmentAqua = 100,
			HueAdjustmentBlue = -9,
			HueAdjustmentGreen = -100,
			HueAdjustmentMagenta = 0,
			HueAdjustmentOrange = 0,
			HueAdjustmentPurple = 0,
			HueAdjustmentRed = 100,
			HueAdjustmentYellow = 0,
			IncrementalTemperature = 8,
			IncrementalTint = -70,
			LuminanceAdjustmentAqua = 100,
			LuminanceAdjustmentBlue = 100,
			LuminanceAdjustmentGreen = 100,
			LuminanceAdjustmentMagenta = 0,
			LuminanceAdjustmentOrange = 73,
			LuminanceAdjustmentPurple = 0,
			LuminanceAdjustmentRed = 100,
			LuminanceAdjustmentYellow = 36,
			LuminanceNoiseReductionContrast = 0,
			LuminanceNoiseReductionDetail = 50,
			LuminanceSmoothing = 13,
			ParametricDarks = 52,
			ParametricHighlightSplit = 90,
			ParametricHighlights = 0,
			ParametricLights = 0,
			ParametricMidtoneSplit = 59,
			ParametricShadowSplit = 10,
			ParametricShadows = 0,
			PostCropVignetteAmount = -21,
			PostCropVignetteFeather = 50,
			PostCropVignetteHighlightContrast = 0,
			PostCropVignetteMidpoint = 50,
			PostCropVignetteRoundness = 0,
			PostCropVignetteStyle = 1,
			ProcessVersion = "6.7",
			RedHue = 100,
			RedSaturation = 100,
			Saturation = 22,
			SaturationAdjustmentAqua = -100,
			SaturationAdjustmentBlue = -7,
			SaturationAdjustmentGreen = -100,
			SaturationAdjustmentMagenta = -14,
			SaturationAdjustmentOrange = -18,
			SaturationAdjustmentPurple = -14,
			SaturationAdjustmentRed = 14,
			SaturationAdjustmentYellow = -20,
			ShadowTint = 0,
			Shadows2012 = 7,
			SharpenDetail = 25,
			SharpenEdgeMasking = 0,
			SharpenRadius = 1,
			Sharpness = 50,
			SplitToningBalance = 91,
			SplitToningHighlightHue = 0,
			SplitToningHighlightSaturation = 0,
			SplitToningShadowHue = 310,
			SplitToningShadowSaturation = 43,
			ToneCurveName2012 = "Custom",
			ToneCurvePV2012 = {
				0,
				0,
				98,
				93,
				154,
				138,
				255,
				255,
			},
			ToneCurvePV2012Blue = {
				0,
				0,
				255,
				255,
			},
			ToneCurvePV2012Green = {
				0,
				0,
				255,
				255,
			},
			ToneCurvePV2012Red = {
				0,
				0,
				255,
				255,
			},
			Vibrance = -95,
			VignetteAmount = 0,
			VignetteMidpoint = 50,
			WhiteBalance = "Custom",
			Whites2012 = 0,
		},
		uuid = "6A7E0B9C-95AC-4F3C-A7E9-065D87C49A13",
	},
	version = 0,
}
