HQLightroomPresets 505 V.3.4/HQLightroomPresets 505 V.3.4/HQLightroomPresets Lr4-Lr5 JPEG & RAW/Update #1 - Color Blind ~ HQLightroomPresets_.lrtemplate
s = {
	id = "062CA98C-C192-442A-B231-A7ABD4565215",
	internalName = "!! fc 323",
	title = "Update #1 : Color Blind ~ HQLightroomPresets ",
	type = "Develop",
	value = {
		settings = {
			AutoLateralCA = 0,
			Blacks2012 = -13,
			BlueHue = 100,
			BlueSaturation = -100,
			CameraProfile = "Embedded",
			ChromaticAberrationB = 0,
			ChromaticAberrationR = 0,
			Clarity2012 = 11,
			ColorNoiseReduction = 18,
			ColorNoiseReductionDetail = 12,
			Contrast2012 = 12,
			ConvertToGrayscale = false,
			Defringe = 0,
			EnableCalibration = true,
			EnableColorAdjustments = true,
			EnableDetail = true,
			EnableEffects = true,
			EnableLensCorrections = true,
			EnableSplitToning = true,
			Exposure2012 = -1.59,
			GrainAmount = 0,
			GrainFrequency = 50,
			GrainSize = 25,
			GreenHue = -72,
			GreenSaturation = -72,
			Highlights2012 = -2,
			HueAdjustmentAqua = 100,
			HueAdjustmentBlue = -100,
			HueAdjustmentGreen = -100,
			HueAdjustmentMagenta = 0,
			HueAdjustmentOrange = 0,
			HueAdjustmentPurple = 0,
			HueAdjustmentRed = -5,
			HueAdjustmentYellow = 0,
			IncrementalTemperature = 82,
			IncrementalTint = -31,
			LuminanceAdjustmentAqua = -20,
			LuminanceAdjustmentBlue = 100,
			LuminanceAdjustmentGreen = 100,
			LuminanceAdjustmentMagenta = 64,
			LuminanceAdjustmentOrange = 100,
			LuminanceAdjustmentPurple = 62,
			LuminanceAdjustmentRed = 100,
			LuminanceAdjustmentYellow = 100,
			LuminanceNoiseReductionContrast = 0,
			LuminanceNoiseReductionDetail = 50,
			LuminanceSmoothing = 15,
			ParametricDarks = 52,
			ParametricHighlightSplit = 90,
			ParametricHighlights = 0,
			ParametricLights = 0,
			ParametricMidtoneSplit = 59,
			ParametricShadowSplit = 10,
			ParametricShadows = 0,
			PostCropVignetteAmount = -31,
			PostCropVignetteFeather = 90,
			PostCropVignetteHighlightContrast = 0,
			PostCropVignetteMidpoint = 10,
			PostCropVignetteRoundness = 6,
			PostCropVignetteStyle = 1,
			ProcessVersion = "6.7",
			RedHue = 86,
			RedSaturation = 29,
			Saturation = 63,
			SaturationAdjustmentAqua = -86,
			SaturationAdjustmentBlue = 100,
			SaturationAdjustmentGreen = -52,
			SaturationAdjustmentMagenta = -73,
			SaturationAdjustmentOrange = -36,
			SaturationAdjustmentPurple = -77,
			SaturationAdjustmentRed = -55,
			SaturationAdjustmentYellow = -32,
			ShadowTint = 100,
			Shadows2012 = 2,
			SharpenDetail = 28,
			SharpenEdgeMasking = 0,
			SharpenRadius = 1.5,
			Sharpness = 67,
			SplitToningBalance = 77,
			SplitToningHighlightHue = 248,
			SplitToningHighlightSaturation = 78,
			SplitToningShadowHue = 161,
			SplitToningShadowSaturation = 91,
			ToneCurveName2012 = "Custom",
			ToneCurvePV2012 = {
				0,
				43,
				115,
				156,
				240,
				255,
			},
			ToneCurvePV2012Blue = {
				0,
				0,
				255,
				255,
			},
			ToneCurvePV2012Green = {
				0,
				0,
				255,
				255,
			},
			ToneCurvePV2012Red = {
				0,
				0,
				255,
				255,
			},
			Vibrance = 73,
			VignetteAmount = -18,
			VignetteMidpoint = 50,
			WhiteBalance = "Custom",
			Whites2012 = 0,
		},
		uuid = "7FAA79E5-7B44-4424-8B3D-C6BFF7BBBC80",
	},
	version = 0,
}
