HQLightroomPresets 505 V.3.4/HQLightroomPresets 505 V.3.4/HQLightroomPresets Lr4-Lr5 JPEG & RAW/Update #2 - Below Yellow ~ HQLightroomPresets.lrtemplate
s = {
	id = "9E2E8AB9-DEEA-4E99-B6D9-CE42B59440F8",
	internalName = "Copyrights © 2014 ~ HQLighroomPresets.com",
	title = "Update #2 : Below Yellow ~ HQLightroomPresets",
	type = "Develop",
	value = {
		settings = {
			AutoLateralCA = 0,
			Blacks2012 = -11,
			BlueHue = 0,
			BlueSaturation = 0,
			CameraProfile = "Embedded",
			ChromaticAberrationB = 0,
			ChromaticAberrationR = 0,
			Clarity2012 = -13,
			ColorNoiseReduction = 0,
			ColorNoiseReductionDetail = 50,
			ColorNoiseReductionSmoothness = 50,
			Contrast2012 = 0,
			ConvertToGrayscale = false,
			Defringe = 0,
			DefringeGreenAmount = 0,
			DefringeGreenHueHi = 60,
			DefringeGreenHueLo = 40,
			DefringePurpleAmount = 0,
			DefringePurpleHueHi = 70,
			DefringePurpleHueLo = 30,
			EnableCalibration = true,
			EnableColorAdjustments = true,
			EnableDetail = true,
			EnableEffects = true,
			EnableLensCorrections = true,
			EnableSplitToning = true,
			Exposure2012 = 0.8,
			GrainAmount = 0,
			GrainFrequency = 0,
			GrainSize = 0,
			GreenHue = 0,
			GreenSaturation = 0,
			Highlights2012 = -25,
			HueAdjustmentAqua = -5,
			HueAdjustmentBlue = 0,
			HueAdjustmentGreen = -38,
			HueAdjustmentMagenta = 0,
			HueAdjustmentOrange = -22,
			HueAdjustmentPurple = 0,
			HueAdjustmentRed = 4,
			HueAdjustmentYellow = 5,
			IncrementalTemperature = -10,
			IncrementalTint = -6,
			LuminanceAdjustmentAqua = 0,
			LuminanceAdjustmentBlue = 0,
			LuminanceAdjustmentGreen = 0,
			LuminanceAdjustmentMagenta = 0,
			LuminanceAdjustmentOrange = 0,
			LuminanceAdjustmentPurple = 0,
			LuminanceAdjustmentRed = 0,
			LuminanceAdjustmentYellow = 0,
			LuminanceNoiseReductionContrast = 0,
			LuminanceNoiseReductionDetail = 95,
			LuminanceSmoothing = 49,
			ParametricDarks = -12,
			ParametricHighlightSplit = 75,
			ParametricHighlights = 0,
			ParametricLights = 17,
			ParametricMidtoneSplit = 50,
			ParametricShadowSplit = 25,
			ParametricShadows = 0,
			PostCropVignetteAmount = -43,
			PostCropVignetteFeather = 94,
			PostCropVignetteHighlightContrast = 100,
			PostCropVignetteMidpoint = 47,
			PostCropVignetteRoundness = 54,
			PostCropVignetteStyle = 1,
			ProcessVersion = "6.7",
			RedHue = 59,
			RedSaturation = 0,
			Saturation = 6,
			SaturationAdjustmentAqua = -50,
			SaturationAdjustmentBlue = -50,
			SaturationAdjustmentGreen = -49,
			SaturationAdjustmentMagenta = -50,
			SaturationAdjustmentOrange = -36,
			SaturationAdjustmentPurple = -50,
			SaturationAdjustmentRed = -69,
			SaturationAdjustmentYellow = -36,
			ShadowTint = 0,
			Shadows2012 = 25,
			SharpenDetail = 25,
			SharpenEdgeMasking = 0,
			SharpenRadius = 1,
			Sharpness = 53,
			SplitToningBalance = 0,
			SplitToningHighlightHue = 65,
			SplitToningHighlightSaturation = 11,
			SplitToningShadowHue = 34,
			SplitToningShadowSaturation = 18,
			ToneCurveName2012 = "Custom",
			ToneCurvePV2012 = {
				0,
				38,
				111,
				92,
				200,
				195,
				255,
				252,
			},
			ToneCurvePV2012Blue = {
				0,
				0,
				255,
				255,
			},
			ToneCurvePV2012Green = {
				0,
				0,
				255,
				255,
			},
			ToneCurvePV2012Red = {
				0,
				0,
				255,
				255,
			},
			Vibrance = -6,
			VignetteAmount = 0,
			VignetteMidpoint = 50,
			WhiteBalance = "Custom",
			Whites2012 = -17,
		},
		uuid = "A5527EC2-9754-424F-BD73-6339DDFC7D92",
	},
	version = 0,
}
