HQLightroomPresets 505 V.3.4/HQLightroomPresets 505 V.3.4/HQLightroomPresets Lr4-Lr5 JPEG & RAW/Yellow Warm - Park Romance ~ HQLightroomPresets_.lrtemplate
s = {
	id = "1A7BE91B-E68D-4A33-8D47-D57D97B88DA1",
	internalName = "Copyrights © 2012 ~ HQLighroomPresets.com",
	title = "Yellow Warm : Park Romance ~ HQLightroomPresets ",
	type = "Develop",
	value = {
		settings = {
			AutoLateralCA = 0,
			Blacks2012 = -34,
			BlueHue = 0,
			BlueSaturation = -25,
			CameraProfile = "Embedded",
			ChromaticAberrationB = 0,
			ChromaticAberrationR = 0,
			Clarity2012 = 4,
			ColorNoiseReduction = 28,
			ColorNoiseReductionDetail = 50,
			Contrast2012 = 10,
			ConvertToGrayscale = false,
			Defringe = 0,
			EnableCalibration = true,
			EnableColorAdjustments = true,
			EnableDetail = true,
			EnableEffects = true,
			EnableLensCorrections = true,
			EnableSplitToning = true,
			Exposure2012 = 1.46,
			GrainAmount = 0,
			GrainFrequency = 50,
			GrainSize = 25,
			GreenHue = 0,
			GreenSaturation = -27,
			Highlights2012 = -1,
			HueAdjustmentAqua = -15,
			HueAdjustmentBlue = 15,
			HueAdjustmentGreen = 15,
			HueAdjustmentMagenta = 15,
			HueAdjustmentOrange = 15,
			HueAdjustmentPurple = -15,
			HueAdjustmentRed = -15,
			HueAdjustmentYellow = -15,
			LuminanceAdjustmentAqua = 0,
			LuminanceAdjustmentBlue = 0,
			LuminanceAdjustmentGreen = 0,
			LuminanceAdjustmentMagenta = 0,
			LuminanceAdjustmentOrange = 0,
			LuminanceAdjustmentPurple = 0,
			LuminanceAdjustmentRed = 0,
			LuminanceAdjustmentYellow = 0,
			LuminanceNoiseReductionContrast = 0,
			LuminanceNoiseReductionDetail = 50,
			LuminanceSmoothing = 18,
			ParametricDarks = -30,
			ParametricHighlightSplit = 75,
			ParametricHighlights = -30,
			ParametricLights = -9,
			ParametricMidtoneSplit = 50,
			ParametricShadowSplit = 25,
			ParametricShadows = 0,
			PostCropVignetteAmount = -38,
			PostCropVignetteFeather = 93,
			PostCropVignetteHighlightContrast = 5,
			PostCropVignetteMidpoint = 16,
			PostCropVignetteRoundness = 49,
			PostCropVignetteStyle = 1,
			ProcessVersion = "6.7",
			RedHue = 0,
			RedSaturation = 0,
			Saturation = -20,
			SaturationAdjustmentAqua = 19,
			SaturationAdjustmentBlue = 0,
			SaturationAdjustmentGreen = -4,
			SaturationAdjustmentMagenta = 15,
			SaturationAdjustmentOrange = 15,
			SaturationAdjustmentPurple = 18,
			SaturationAdjustmentRed = -15,
			SaturationAdjustmentYellow = 7,
			ShadowTint = 0,
			Shadows2012 = 1,
			SharpenDetail = 50,
			SharpenEdgeMasking = 0,
			SharpenRadius = 1,
			Sharpness = 60,
			SplitToningBalance = 85,
			SplitToningHighlightHue = 222,
			SplitToningHighlightSaturation = 4,
			SplitToningShadowHue = 236,
			SplitToningShadowSaturation = 84,
			Temperature = 6387,
			Tint = 6,
			ToneCurveName2012 = "Custom",
			ToneCurvePV2012 = {
				0,
				0,
				122,
				109,
				255,
				255,
			},
			ToneCurvePV2012Blue = {
				0,
				0,
				255,
				255,
			},
			ToneCurvePV2012Green = {
				0,
				0,
				255,
				255,
			},
			ToneCurvePV2012Red = {
				0,
				0,
				255,
				255,
			},
			Vibrance = -5,
			VignetteAmount = 0,
			VignetteMidpoint = 20,
			WhiteBalance = "Custom",
			Whites2012 = -25,
		},
		uuid = "6511D25C-9B71-4B4C-9941-6693A635EE3D",
	},
	version = 0,
}
