HQLightroomPresets 505 V.3.4/HQLightroomPresets 505 V.3.4/HQLightroomPresets Lr4-Lr5 JPEG & RAW/Yellow Warm - Oranges ~ HQLightroomPresets_.lrtemplate
s = {
	id = "AF4157E8-B0B0-477A-8E37-70B895516153",
	internalName = "Copyrights © 2012 ~ HQLighroomPresets.com",
	title = "Yellow Warm : Oranges ~ HQLightroomPresets ",
	type = "Develop",
	value = {
		settings = {
			AutoLateralCA = 0,
			Blacks2012 = -13,
			BlueHue = -44,
			BlueSaturation = 33,
			CameraProfile = "ACR 4.4",
			ChromaticAberrationB = 0,
			ChromaticAberrationR = 0,
			Clarity2012 = 0,
			ColorNoiseReduction = 0,
			ColorNoiseReductionDetail = 50,
			Contrast2012 = 10,
			ConvertToGrayscale = false,
			Defringe = 0,
			EnableCalibration = true,
			EnableColorAdjustments = true,
			EnableDetail = true,
			EnableEffects = true,
			EnableLensCorrections = true,
			EnableSplitToning = true,
			Exposure2012 = 0.37,
			GrainAmount = 0,
			GrainFrequency = 50,
			GrainSize = 50,
			GreenHue = 46,
			GreenSaturation = 0,
			Highlights2012 = -6,
			HueAdjustmentAqua = 0,
			HueAdjustmentBlue = 0,
			HueAdjustmentGreen = 0,
			HueAdjustmentMagenta = 0,
			HueAdjustmentOrange = 0,
			HueAdjustmentPurple = 0,
			HueAdjustmentRed = 0,
			HueAdjustmentYellow = 0,
			LuminanceAdjustmentAqua = 0,
			LuminanceAdjustmentBlue = 0,
			LuminanceAdjustmentGreen = 0,
			LuminanceAdjustmentMagenta = 0,
			LuminanceAdjustmentOrange = 0,
			LuminanceAdjustmentPurple = 0,
			LuminanceAdjustmentRed = 0,
			LuminanceAdjustmentYellow = 0,
			LuminanceNoiseReductionContrast = 0,
			LuminanceNoiseReductionDetail = 50,
			LuminanceSmoothing = 7,
			ParametricDarks = 52,
			ParametricHighlightSplit = 90,
			ParametricHighlights = 0,
			ParametricLights = 0,
			ParametricMidtoneSplit = 59,
			ParametricShadowSplit = 10,
			ParametricShadows = 0,
			PostCropVignetteAmount = -13,
			PostCropVignetteFeather = 50,
			PostCropVignetteHighlightContrast = 0,
			PostCropVignetteMidpoint = 50,
			PostCropVignetteRoundness = 0,
			PostCropVignetteStyle = 1,
			ProcessVersion = "6.7",
			RedHue = 49,
			RedSaturation = 0,
			Saturation = -11,
			SaturationAdjustmentAqua = 0,
			SaturationAdjustmentBlue = 0,
			SaturationAdjustmentGreen = -14,
			SaturationAdjustmentMagenta = 0,
			SaturationAdjustmentOrange = 0,
			SaturationAdjustmentPurple = 0,
			SaturationAdjustmentRed = 0,
			SaturationAdjustmentYellow = 0,
			ShadowTint = 0,
			Shadows2012 = 6,
			SharpenDetail = 25,
			SharpenEdgeMasking = 0,
			SharpenRadius = 1,
			Sharpness = 56,
			SplitToningBalance = 52,
			SplitToningHighlightHue = 172,
			SplitToningHighlightSaturation = 17,
			SplitToningShadowHue = 172,
			SplitToningShadowSaturation = 0,
			Temperature = 5812,
			Tint = 67,
			ToneCurveName2012 = "Custom",
			ToneCurvePV2012 = {
				0,
				0,
				117,
				88,
				149,
				123,
				255,
				255,
			},
			ToneCurvePV2012Blue = {
				0,
				0,
				255,
				255,
			},
			ToneCurvePV2012Green = {
				0,
				0,
				255,
				255,
			},
			ToneCurvePV2012Red = {
				0,
				0,
				255,
				255,
			},
			Vibrance = 15,
			VignetteAmount = -16,
			VignetteMidpoint = 50,
			WhiteBalance = "Custom",
			Whites2012 = 0,
		},
		uuid = "615D5FC7-8A29-4C43-9888-8E361E1DC9BB",
	},
	version = 0,
}
