25-OFF-Vintage-Lightroom-Presets/25-OFF-Vintage-Lightroom-Presets/25-OFF-Vintage/Vintage-7-3 {RAW}.lrtemplate
s = {
	id = "26194CEE-A7B3-428D-BDC4-84D283231A63",
	internalName = "Vintage-7-3",
	title = "Vintage-7-3 {RAW}",
	type = "Develop",
	value = {
		settings = {
			AutoLateralCA = 0,
			Blacks2012 = -1,
			BlueHue = 0,
			BlueSaturation = 0,
			CameraProfile = "Adobe Standard",
			ChromaticAberrationB = 0,
			ChromaticAberrationR = 0,
			Clarity2012 = 41,
			ColorNoiseReduction = 25,
			ColorNoiseReductionDetail = 50,
			ColorNoiseReductionSmoothness = 50,
			Contrast2012 = -45,
			ConvertToGrayscale = false,
			Defringe = 0,
			DefringeGreenAmount = 0,
			DefringeGreenHueHi = 60,
			DefringeGreenHueLo = 40,
			DefringePurpleAmount = 0,
			DefringePurpleHueHi = 70,
			DefringePurpleHueLo = 30,
			EnableCalibration = true,
			EnableColorAdjustments = true,
			EnableDetail = true,
			EnableEffects = true,
			EnableLensCorrections = true,
			EnableSplitToning = true,
			GrainAmount = 76,
			GrainFrequency = 71,
			GrainSize = 38,
			GreenHue = 0,
			GreenSaturation = 0,
			Highlights2012 = -31,
			HueAdjustmentAqua = 0,
			HueAdjustmentBlue = 0,
			HueAdjustmentGreen = 0,
			HueAdjustmentMagenta = 0,
			HueAdjustmentOrange = 0,
			HueAdjustmentPurple = 0,
			HueAdjustmentRed = 43,
			HueAdjustmentYellow = 0,
			LensProfileEnable = 0,
			LensProfileSetup = "LensDefaults",
			LuminanceAdjustmentAqua = 0,
			LuminanceAdjustmentBlue = 0,
			LuminanceAdjustmentGreen = 0,
			LuminanceAdjustmentMagenta = 0,
			LuminanceAdjustmentOrange = 0,
			LuminanceAdjustmentPurple = 0,
			LuminanceAdjustmentRed = 0,
			LuminanceAdjustmentYellow = 0,
			LuminanceNoiseReductionContrast = 0,
			LuminanceNoiseReductionDetail = 50,
			LuminanceSmoothing = 0,
			ParametricDarks = 25,
			ParametricHighlightSplit = 76,
			ParametricHighlights = -47,
			ParametricLights = -29,
			ParametricMidtoneSplit = 49,
			ParametricShadowSplit = 25,
			ParametricShadows = 19,
			PerspectiveUpright = 0,
			PostCropVignetteAmount = -37,
			PostCropVignetteFeather = 79,
			PostCropVignetteHighlightContrast = 0,
			PostCropVignetteMidpoint = 31,
			PostCropVignetteRoundness = 0,
			PostCropVignetteStyle = 1,
			ProcessVersion = "6.7",
			RedHue = 0,
			RedSaturation = 0,
			Saturation = -10,
			SaturationAdjustmentAqua = 0,
			SaturationAdjustmentBlue = 0,
			SaturationAdjustmentGreen = 0,
			SaturationAdjustmentMagenta = 0,
			SaturationAdjustmentOrange = 0,
			SaturationAdjustmentPurple = 0,
			SaturationAdjustmentRed = 0,
			SaturationAdjustmentYellow = 0,
			ShadowTint = 0,
			Shadows2012 = -13,
			SharpenDetail = 35,
			SharpenEdgeMasking = 0,
			SharpenRadius = 0.8,
			Sharpness = 40,
			SplitToningBalance = 33,
			SplitToningHighlightHue = 297,
			SplitToningHighlightSaturation = 14,
			SplitToningShadowHue = 134,
			SplitToningShadowSaturation = 41,
			Temperature = 12701,
			Tint = 10,
			ToneCurveName2012 = "Custom",
			ToneCurvePV2012 = {
				0,
				62,
				17,
				64,
				34,
				66,
				51,
				70,
				68,
				78,
				85,
				91,
				102,
				110,
				119,
				131,
				136,
				152,
				153,
				170,
				170,
				186,
				187,
				199,
				204,
				209,
				221,
				215,
				238,
				219,
				255,
				221,
			},
			ToneCurvePV2012Blue = {
				0,
				0,
				255,
				255,
			},
			ToneCurvePV2012Green = {
				0,
				0,
				255,
				255,
			},
			ToneCurvePV2012Red = {
				0,
				0,
				255,
				255,
			},
			Vibrance = 16,
			WhiteBalance = "Custom",
			Whites2012 = -39,
		},
		uuid = "469E3F29-2D69-4387-9E3A-CAA989E8A2AE",
	},
	version = 0,
}
