CM 6 Summer Vintage Lightroom Presets/CM - 6 Summer Vintage Lightroom Presets 308410/Jana Summer pur feeling.lrtemplate
s = {
	id = "936F2DB9-D7EC-40D9-B37A-468039C7835A",
	internalName = "Jana Summer pur feeling",
	title = "Jana Summer pur feeling",
	type = "Develop",
	value = {
		settings = {
			Blacks2012 = 15,
			BlueHue = 0,
			BlueSaturation = 0,
			CameraProfile = "Adobe Standard",
			Clarity2012 = 33,
			ColorNoiseReduction = 30,
			ColorNoiseReductionDetail = 50,
			ColorNoiseReductionSmoothness = 50,
			Contrast2012 = 30,
			ConvertToGrayscale = false,
			EnableCalibration = true,
			EnableCircularGradientBasedCorrections = true,
			EnableColorAdjustments = true,
			EnableDetail = true,
			EnableEffects = true,
			EnableGradientBasedCorrections = true,
			EnableSplitToning = true,
			Exposure2012 = 0.47,
			GradientBasedCorrections = {
				{
					CorrectionActive = true,
					CorrectionAmount = 1,
					CorrectionID = "56C790C0-A867-4FE2-8CAF-920C2FFCB825",
					CorrectionMasks = {
						{
							FullX = 0.098427,
							FullY = 0.030981,
							MaskID = "388F9ACE-E3AD-41FC-9E7A-6A7604D9B125",
							MaskValue = 1,
							What = "Mask/Gradient",
							ZeroX = 0.251096,
							ZeroY = 0.366366,
						},
					},
					CorrectionReferenceX = 0.174761,
					CorrectionReferenceY = 0.198674,
					LocalBrightness = 0,
					LocalClarity = 0,
					LocalClarity2012 = 0,
					LocalContrast = 0,
					LocalContrast2012 = 0,
					LocalDefringe = 0,
					LocalExposure = 0,
					LocalExposure2012 = 0.395941,
					LocalHighlights2012 = 0,
					LocalLuminanceNoise = 0,
					LocalMoire = 0,
					LocalSaturation = 0,
					LocalShadows2012 = 0,
					LocalSharpness = 0,
					LocalTemperature = 0.490979,
					LocalTint = 0,
					LocalToningHue = 233,
					LocalToningSaturation = 0,
					What = "Correction",
				},
			},
			GrainAmount = 0,
			GrainFrequency = 38,
			GrainSize = 21,
			GreenHue = 0,
			GreenSaturation = 0,
			Highlights2012 = -80,
			HueAdjustmentAqua = 0,
			HueAdjustmentBlue = 0,
			HueAdjustmentGreen = 0,
			HueAdjustmentMagenta = 0,
			HueAdjustmentOrange = 0,
			HueAdjustmentPurple = 0,
			HueAdjustmentRed = 0,
			HueAdjustmentYellow = 0,
			LuminanceAdjustmentAqua = 0,
			LuminanceAdjustmentBlue = 0,
			LuminanceAdjustmentGreen = 0,
			LuminanceAdjustmentMagenta = 0,
			LuminanceAdjustmentOrange = 0,
			LuminanceAdjustmentPurple = 0,
			LuminanceAdjustmentRed = 0,
			LuminanceAdjustmentYellow = 0,
			LuminanceNoiseReductionContrast = 0,
			LuminanceNoiseReductionDetail = 50,
			LuminanceSmoothing = 31,
			ParametricDarks = 0,
			ParametricHighlightSplit = 75,
			ParametricHighlights = 0,
			ParametricLights = 0,
			ParametricMidtoneSplit = 50,
			ParametricShadowSplit = 25,
			ParametricShadows = 0,
			PostCropVignetteAmount = -33,
			PostCropVignetteFeather = 100,
			PostCropVignetteHighlightContrast = 0,
			PostCropVignetteMidpoint = 0,
			PostCropVignetteRoundness = -14,
			PostCropVignetteStyle = 1,
			ProcessVersion = "6.7",
			RedHue = 0,
			RedSaturation = 0,
			Saturation = 3,
			SaturationAdjustmentAqua = 0,
			SaturationAdjustmentBlue = 0,
			SaturationAdjustmentGreen = 0,
			SaturationAdjustmentMagenta = 0,
			SaturationAdjustmentOrange = 0,
			SaturationAdjustmentPurple = 0,
			SaturationAdjustmentRed = 0,
			SaturationAdjustmentYellow = 0,
			ShadowTint = 0,
			Shadows2012 = 85,
			SharpenDetail = 8,
			SharpenEdgeMasking = 28,
			SharpenRadius = 1,
			Sharpness = 53,
			SplitToningBalance = 29,
			SplitToningHighlightHue = 62,
			SplitToningHighlightSaturation = 18,
			SplitToningShadowHue = 239,
			SplitToningShadowSaturation = 21,
			Temperature = 5000,
			Tint = -12,
			ToneCurveName2012 = "Custom",
			ToneCurvePV2012 = {
				0,
				50,
				48,
				78,
				127,
				129,
				255,
				242,
			},
			ToneCurvePV2012Blue = {
				0,
				0,
				60,
				65,
				127,
				127,
				195,
				186,
				255,
				255,
			},
			ToneCurvePV2012Green = {
				0,
				0,
				61,
				57,
				127,
				127,
				192,
				198,
				255,
				255,
			},
			ToneCurvePV2012Red = {
				0,
				0,
				63,
				61,
				127,
				127,
				193,
				200,
				255,
				255,
			},
			Vibrance = 27,
			WhiteBalance = "Custom",
			Whites2012 = -15,
			orientation = "AB",
		},
		uuid = "66032C64-2AA3-4952-A4D1-ACD51A91B921",
	},
	version = 0,
}
