JAY LAY/JAY LAY - Коллекции пресетов Toning #02 (2014)/170 new/NEW TONING.lrtemplate
s = {
	id = "46891DB5-7DD2-46BD-8C1D-53C2BA08AB7A",
	internalName = "NEW TONING",
	title = "NEW TONING",
	type = "Develop",
	value = {
		settings = {
			AutoLateralCA = 0,
			Blacks2012 = 100,
			BlueHue = -12,
			BlueSaturation = -62,
			CameraProfile = "Adobe Standard",
			ChromaticAberrationB = 0,
			ChromaticAberrationR = 0,
			Clarity2012 = -24,
			ColorNoiseReduction = 25,
			ColorNoiseReductionDetail = 50,
			Contrast2012 = -43,
			ConvertToGrayscale = false,
			CropConstrainToWarp = 1,
			Defringe = 0,
			DefringeGreenAmount = 0,
			DefringeGreenHueHi = 60,
			DefringeGreenHueLo = 40,
			DefringePurpleAmount = 0,
			DefringePurpleHueHi = 70,
			DefringePurpleHueLo = 30,
			EnableCalibration = true,
			EnableColorAdjustments = true,
			EnableDetail = true,
			EnableEffects = true,
			EnableLensCorrections = true,
			EnableSplitToning = true,
			Exposure2012 = 0.58,
			GrainAmount = 0,
			GrainFrequency = 50,
			GrainSize = 25,
			GreenHue = 83,
			GreenSaturation = 0,
			Highlights2012 = -81,
			HueAdjustmentAqua = 70,
			HueAdjustmentBlue = 5,
			HueAdjustmentGreen = 70,
			HueAdjustmentMagenta = 0,
			HueAdjustmentOrange = -45,
			HueAdjustmentPurple = 0,
			HueAdjustmentRed = -100,
			HueAdjustmentYellow = -35,
			LensManualDistortionAmount = 14,
			LensProfileEnable = 0,
			LensProfileSetup = "LensDefaults",
			LuminanceAdjustmentAqua = -5,
			LuminanceAdjustmentBlue = -7,
			LuminanceAdjustmentGreen = -100,
			LuminanceAdjustmentMagenta = 28,
			LuminanceAdjustmentOrange = 0,
			LuminanceAdjustmentPurple = 0,
			LuminanceAdjustmentRed = -34,
			LuminanceAdjustmentYellow = -15,
			LuminanceNoiseReductionContrast = 0,
			LuminanceNoiseReductionDetail = 50,
			LuminanceSmoothing = 0,
			ParametricDarks = 0,
			ParametricHighlightSplit = 75,
			ParametricHighlights = 0,
			ParametricLights = 0,
			ParametricMidtoneSplit = 50,
			ParametricShadowSplit = 25,
			ParametricShadows = 0,
			PerspectiveHorizontal = 0,
			PerspectiveRotate = 0,
			PerspectiveScale = 100,
			PerspectiveVertical = 0,
			PostCropVignetteAmount = -18,
			PostCropVignetteFeather = 50,
			PostCropVignetteHighlightContrast = 0,
			PostCropVignetteMidpoint = 30,
			PostCropVignetteRoundness = 100,
			PostCropVignetteStyle = 1,
			ProcessVersion = "6.7",
			RedHue = 98,
			RedSaturation = -75,
			Saturation = -36,
			SaturationAdjustmentAqua = 29,
			SaturationAdjustmentBlue = -33,
			SaturationAdjustmentGreen = -52,
			SaturationAdjustmentMagenta = 0,
			SaturationAdjustmentOrange = 55,
			SaturationAdjustmentPurple = 0,
			SaturationAdjustmentRed = 0,
			SaturationAdjustmentYellow = -7,
			ShadowTint = -3,
			Shadows2012 = 77,
			SharpenDetail = 25,
			SharpenEdgeMasking = 0,
			SharpenRadius = 0.5,
			Sharpness = 150,
			SplitToningBalance = -20,
			SplitToningHighlightHue = 57,
			SplitToningHighlightSaturation = 9,
			SplitToningShadowHue = 192,
			SplitToningShadowSaturation = 7,
			Temperature = 6105,
			Tint = -14,
			ToneCurveName2012 = "Custom",
			ToneCurvePV2012 = {
				0,
				16,
				80,
				27,
				200,
				185,
				253,
				208,
			},
			ToneCurvePV2012Blue = {
				0,
				0,
				77,
				59,
				203,
				200,
				255,
				255,
			},
			ToneCurvePV2012Green = {
				0,
				0,
				63,
				52,
				200,
				201,
				255,
				255,
			},
			ToneCurvePV2012Red = {
				0,
				0,
				63,
				56,
				213,
				210,
				231,
				228,
				255,
				255,
			},
			Vibrance = 50,
			VignetteAmount = 0,
			VignetteMidpoint = 50,
			WhiteBalance = "Custom",
			Whites2012 = 66,
			orientation = "AB",
		},
		uuid = "70F2CAF6-01FA-4E7F-AF45-BE9EDECE2761",
	},
	version = 0,
}
