JAY LAY/JAY LAY - Коллекции пресетов Toning #02 (2014)/170 new/Toning 5.lrtemplate
s = {
	id = "99F3E2BF-9EBB-43A3-AFB8-3A1F65ADE9C3",
	internalName = "Toning 5",
	title = "Toning 5",
	type = "Develop",
	value = {
		settings = {
			AutoLateralCA = 0,
			Blacks2012 = -48,
			BlueHue = -50,
			BlueSaturation = 7,
			CameraProfile = "Adobe Standard",
			ChromaticAberrationB = 0,
			ChromaticAberrationR = 0,
			Clarity2012 = 27,
			ColorNoiseReduction = 25,
			ColorNoiseReductionDetail = 50,
			Contrast2012 = -30,
			ConvertToGrayscale = false,
			Defringe = 0,
			DefringeGreenAmount = 0,
			DefringeGreenHueHi = 60,
			DefringeGreenHueLo = 40,
			DefringePurpleAmount = 0,
			DefringePurpleHueHi = 70,
			DefringePurpleHueLo = 30,
			EnableCalibration = true,
			EnableColorAdjustments = true,
			EnableDetail = true,
			EnableEffects = true,
			EnableLensCorrections = true,
			EnableSplitToning = true,
			Exposure2012 = 0.8,
			GrainAmount = 0,
			GrainFrequency = 50,
			GrainSize = 25,
			GreenHue = -68,
			GreenSaturation = 64,
			Highlights2012 = -100,
			HueAdjustmentAqua = 62,
			HueAdjustmentBlue = -19,
			HueAdjustmentGreen = 0,
			HueAdjustmentMagenta = 0,
			HueAdjustmentOrange = -9,
			HueAdjustmentPurple = 0,
			HueAdjustmentRed = -100,
			HueAdjustmentYellow = -36,
			LuminanceAdjustmentAqua = 0,
			LuminanceAdjustmentBlue = 0,
			LuminanceAdjustmentGreen = 0,
			LuminanceAdjustmentMagenta = 0,
			LuminanceAdjustmentOrange = -19,
			LuminanceAdjustmentPurple = 0,
			LuminanceAdjustmentRed = 0,
			LuminanceAdjustmentYellow = 0,
			LuminanceNoiseReductionContrast = 0,
			LuminanceNoiseReductionDetail = 50,
			LuminanceSmoothing = 0,
			ParametricDarks = 0,
			ParametricHighlightSplit = 75,
			ParametricHighlights = 0,
			ParametricLights = 0,
			ParametricMidtoneSplit = 50,
			ParametricShadowSplit = 25,
			ParametricShadows = 0,
			PostCropVignetteAmount = -30,
			PostCropVignetteFeather = 50,
			PostCropVignetteHighlightContrast = 0,
			PostCropVignetteMidpoint = 30,
			PostCropVignetteRoundness = 100,
			PostCropVignetteStyle = 1,
			ProcessVersion = "6.7",
			RedHue = 36,
			RedSaturation = -73,
			Saturation = -34,
			SaturationAdjustmentAqua = 0,
			SaturationAdjustmentBlue = -30,
			SaturationAdjustmentGreen = 0,
			SaturationAdjustmentMagenta = 0,
			SaturationAdjustmentOrange = 0,
			SaturationAdjustmentPurple = 0,
			SaturationAdjustmentRed = 0,
			SaturationAdjustmentYellow = 0,
			ShadowTint = 0,
			Shadows2012 = 52,
			SharpenDetail = 25,
			SharpenEdgeMasking = 0,
			SharpenRadius = 3,
			Sharpness = 99,
			SplitToningBalance = -91,
			SplitToningHighlightHue = 184,
			SplitToningHighlightSaturation = 9,
			SplitToningShadowHue = 192,
			SplitToningShadowSaturation = 0,
			Temperature = 3477,
			Tint = -14,
			ToneCurveName2012 = "Custom",
			ToneCurvePV2012 = {
				0,
				30,
				71,
				50,
				201,
				177,
				255,
				200,
			},
			ToneCurvePV2012Blue = {
				0,
				0,
				79,
				63,
				203,
				205,
				255,
				255,
			},
			ToneCurvePV2012Green = {
				0,
				0,
				63,
				52,
				200,
				201,
				255,
				255,
			},
			ToneCurvePV2012Red = {
				0,
				0,
				63,
				56,
				213,
				210,
				231,
				228,
				255,
				255,
			},
			Vibrance = 41,
			VignetteAmount = 0,
			VignetteMidpoint = 50,
			WhiteBalance = "Custom",
			Whites2012 = 77,
		},
		uuid = "8AF3A3E2-B2B1-4A3F-8D1C-AFDEB5B7EAF7",
	},
	version = 0,
}
