JAY LAY/JAY LAY - Коллекции пресетов Toning #02 (2014)/170 new/WEDDING preset 2 (blue).lrtemplate
s = {
	id = "B609D2E4-0BA8-4B27-AE84-2FABEA814CA2",
	internalName = "WEDDING preset 2 (blue)",
	title = "WEDDING preset 2 (blue)",
	type = "Develop",
	value = {
		settings = {
			AutoLateralCA = 0,
			Blacks2012 = -57,
			BlueHue = -50,
			BlueSaturation = -86,
			CameraProfile = "Adobe Standard",
			ChromaticAberrationB = 0,
			ChromaticAberrationR = 0,
			Clarity2012 = 0,
			ColorNoiseReduction = 25,
			ColorNoiseReductionDetail = 50,
			Contrast2012 = -45,
			ConvertToGrayscale = false,
			Defringe = 0,
			DefringeGreenAmount = 0,
			DefringeGreenHueHi = 60,
			DefringeGreenHueLo = 40,
			DefringePurpleAmount = 0,
			DefringePurpleHueHi = 70,
			DefringePurpleHueLo = 30,
			EnableCalibration = true,
			EnableColorAdjustments = true,
			EnableDetail = true,
			EnableEffects = true,
			EnableLensCorrections = true,
			EnableSplitToning = true,
			Exposure2012 = 1.04,
			GrainAmount = 0,
			GrainFrequency = 50,
			GrainSize = 25,
			GreenHue = -68,
			GreenSaturation = 75,
			Highlights2012 = -100,
			HueAdjustmentAqua = 100,
			HueAdjustmentBlue = 10,
			HueAdjustmentGreen = 30,
			HueAdjustmentMagenta = 0,
			HueAdjustmentOrange = -21,
			HueAdjustmentPurple = 0,
			HueAdjustmentRed = -64,
			HueAdjustmentYellow = 56,
			LuminanceAdjustmentAqua = 0,
			LuminanceAdjustmentBlue = -35,
			LuminanceAdjustmentGreen = 0,
			LuminanceAdjustmentMagenta = 0,
			LuminanceAdjustmentOrange = -19,
			LuminanceAdjustmentPurple = 0,
			LuminanceAdjustmentRed = -34,
			LuminanceAdjustmentYellow = 0,
			LuminanceNoiseReductionContrast = 0,
			LuminanceNoiseReductionDetail = 50,
			LuminanceSmoothing = 0,
			ParametricDarks = 0,
			ParametricHighlightSplit = 75,
			ParametricHighlights = 0,
			ParametricLights = 0,
			ParametricMidtoneSplit = 50,
			ParametricShadowSplit = 25,
			ParametricShadows = 0,
			PostCropVignetteAmount = -18,
			PostCropVignetteFeather = 50,
			PostCropVignetteHighlightContrast = 0,
			PostCropVignetteMidpoint = 30,
			PostCropVignetteRoundness = 100,
			PostCropVignetteStyle = 1,
			ProcessVersion = "6.7",
			RedHue = 45,
			RedSaturation = -91,
			Saturation = -35,
			SaturationAdjustmentAqua = 0,
			SaturationAdjustmentBlue = 19,
			SaturationAdjustmentGreen = 0,
			SaturationAdjustmentMagenta = 54,
			SaturationAdjustmentOrange = 21,
			SaturationAdjustmentPurple = 50,
			SaturationAdjustmentRed = 0,
			SaturationAdjustmentYellow = 0,
			ShadowTint = 100,
			Shadows2012 = 74,
			SharpenDetail = 25,
			SharpenEdgeMasking = 0,
			SharpenRadius = 2.5,
			Sharpness = 74,
			SplitToningBalance = 88,
			SplitToningHighlightHue = 57,
			SplitToningHighlightSaturation = 14,
			SplitToningShadowHue = 192,
			SplitToningShadowSaturation = 7,
			Temperature = 4518,
			Tint = -21,
			ToneCurveName2012 = "Custom",
			ToneCurvePV2012 = {
				0,
				30,
				71,
				50,
				201,
				179,
				255,
				200,
			},
			ToneCurvePV2012Blue = {
				0,
				0,
				76,
				59,
				203,
				197,
				255,
				255,
			},
			ToneCurvePV2012Green = {
				0,
				0,
				62,
				49,
				196,
				197,
				255,
				255,
			},
			ToneCurvePV2012Red = {
				0,
				0,
				60,
				50,
				213,
				210,
				231,
				228,
				255,
				255,
			},
			Vibrance = 50,
			VignetteAmount = 0,
			VignetteMidpoint = 50,
			WhiteBalance = "Custom",
			Whites2012 = 37,
		},
		uuid = "458E4AA6-36F9-4972-A9E1-5F10F69640A2",
	},
	version = 0,
}
