JAY LAY/JAY LAY - Коллекции пресетов Toning #02 (2014)/170 new/z (40).lrtemplate
s = {
	id = "06603444-EC6D-418A-AAD0-A778AD28C256",
	internalName = "devione@mail.ru preset 4",
	title = "48",
	type = "Develop",
	value = {
		settings = {
			AutoLateralCA = 0,
			Blacks2012 = -48,
			BlueHue = -83,
			BlueSaturation = -100,
			CameraProfile = "Adobe Standard",
			ChromaticAberrationB = 0,
			ChromaticAberrationR = 0,
			Clarity2012 = 48,
			ColorNoiseReduction = 25,
			ColorNoiseReductionDetail = 50,
			Contrast2012 = -70,
			ConvertToGrayscale = false,
			Defringe = 0,
			DefringeGreenAmount = 0,
			DefringeGreenHueHi = 60,
			DefringeGreenHueLo = 40,
			DefringePurpleAmount = 0,
			DefringePurpleHueHi = 70,
			DefringePurpleHueLo = 30,
			EnableCalibration = true,
			EnableColorAdjustments = true,
			EnableDetail = true,
			EnableEffects = true,
			EnableLensCorrections = true,
			EnableSplitToning = true,
			Exposure2012 = 0.83,
			GrainAmount = 0,
			GrainFrequency = 50,
			GrainSize = 25,
			GreenHue = -54,
			GreenSaturation = 70,
			Highlights2012 = -94,
			HueAdjustmentAqua = 100,
			HueAdjustmentBlue = -23,
			HueAdjustmentGreen = 30,
			HueAdjustmentMagenta = 100,
			HueAdjustmentOrange = -21,
			HueAdjustmentPurple = -100,
			HueAdjustmentRed = 100,
			HueAdjustmentYellow = -9,
			LuminanceAdjustmentAqua = 0,
			LuminanceAdjustmentBlue = -36,
			LuminanceAdjustmentGreen = 0,
			LuminanceAdjustmentMagenta = 28,
			LuminanceAdjustmentOrange = -19,
			LuminanceAdjustmentPurple = 0,
			LuminanceAdjustmentRed = -34,
			LuminanceAdjustmentYellow = 0,
			LuminanceNoiseReductionContrast = 0,
			LuminanceNoiseReductionDetail = 50,
			LuminanceSmoothing = 0,
			ParametricDarks = 0,
			ParametricHighlightSplit = 75,
			ParametricHighlights = 0,
			ParametricLights = 0,
			ParametricMidtoneSplit = 50,
			ParametricShadowSplit = 25,
			ParametricShadows = 0,
			PostCropVignetteAmount = -18,
			PostCropVignetteFeather = 50,
			PostCropVignetteHighlightContrast = 0,
			PostCropVignetteMidpoint = 30,
			PostCropVignetteRoundness = 100,
			PostCropVignetteStyle = 1,
			ProcessVersion = "6.7",
			RedHue = 73,
			RedSaturation = -50,
			Saturation = -61,
			SaturationAdjustmentAqua = 0,
			SaturationAdjustmentBlue = 6,
			SaturationAdjustmentGreen = 0,
			SaturationAdjustmentMagenta = 0,
			SaturationAdjustmentOrange = -5,
			SaturationAdjustmentPurple = 0,
			SaturationAdjustmentRed = 0,
			SaturationAdjustmentYellow = 0,
			ShadowTint = 86,
			Shadows2012 = 100,
			SharpenDetail = 25,
			SharpenEdgeMasking = 0,
			SharpenRadius = 3,
			Sharpness = 99,
			SplitToningBalance = 48,
			SplitToningHighlightHue = 199,
			SplitToningHighlightSaturation = 9,
			SplitToningShadowHue = 28,
			SplitToningShadowSaturation = 7,
			Temperature = 5309,
			Tint = -49,
			ToneCurveName2012 = "Custom",
			ToneCurvePV2012 = {
				0,
				30,
				71,
				50,
				201,
				179,
				255,
				200,
			},
			ToneCurvePV2012Blue = {
				0,
				0,
				79,
				63,
				203,
				205,
				255,
				255,
			},
			ToneCurvePV2012Green = {
				0,
				0,
				63,
				52,
				200,
				201,
				255,
				255,
			},
			ToneCurvePV2012Red = {
				0,
				0,
				63,
				56,
				213,
				210,
				231,
				228,
				255,
				255,
			},
			Vibrance = 70,
			VignetteAmount = 0,
			VignetteMidpoint = 50,
			WhiteBalance = "Custom",
			Whites2012 = 50,
		},
		uuid = "72807C35-5979-4E34-B20E-8DE8CE88FD1F",
	},
	version = 0,
}
