CM The Ultimate Lightroom Preset Bundle 317028/Ultimate Sleeklens lightroom presets/Bonus 1 Natural nature/Nature - HDR.lrtemplate
s = {
	id = "6433FD06-47BC-41A5-A68E-B96A9652D237",
	internalName = "Nature - HDR",
	title = "Nature - HDR",
	type = "Develop",
	value = {
		settings = {
			AutoLateralCA = 1,
			Blacks2012 = -76,
			BlueHue = -24,
			BlueSaturation = 0,
			CameraProfile = "Adobe Standard",
			ChromaticAberrationB = 0,
			ChromaticAberrationR = 0,
			Clarity2012 = 17,
			ColorNoiseReduction = 25,
			ColorNoiseReductionDetail = 50,
			Contrast2012 = 45,
			ConvertToGrayscale = false,
			CropConstrainToWarp = 0,
			Defringe = 0,
			DefringeGreenAmount = 0,
			DefringeGreenHueHi = 60,
			DefringeGreenHueLo = 40,
			DefringePurpleAmount = 0,
			DefringePurpleHueHi = 70,
			DefringePurpleHueLo = 30,
			EnableCalibration = true,
			EnableCircularGradientBasedCorrections = true,
			EnableColorAdjustments = true,
			EnableDetail = true,
			EnableEffects = true,
			EnableGradientBasedCorrections = true,
			EnableLensCorrections = true,
			EnableSplitToning = true,
			Exposure2012 = 1.55,
			GradientBasedCorrections = {
				{
					CorrectionActive = true,
					CorrectionAmount = 1,
					CorrectionID = "E074411C-3B92-48C0-854C-202316F7EA8B",
					CorrectionMasks = {
						{
							FullX = 0.545455,
							FullY = 0.054545,
							MaskID = "B829A0EB-ED8B-410E-9A8C-730246FF5810",
							MaskValue = 1,
							What = "Mask/Gradient",
							ZeroX = 0.654545,
							ZeroY = 0.518182,
						},
					},
					CorrectionReferenceX = 0.6,
					CorrectionReferenceY = 0.286363,
					LocalBrightness = 0,
					LocalClarity = 0,
					LocalClarity2012 = 0.34752,
					LocalContrast = 0,
					LocalContrast2012 = 0,
					LocalDefringe = 0,
					LocalExposure = 0,
					LocalExposure2012 = -0.29075,
					LocalHighlights2012 = -0.7305,
					LocalLuminanceNoise = 0,
					LocalMoire = 0,
					LocalSaturation = 0,
					LocalShadows2012 = 0.94326,
					LocalSharpness = 0,
					LocalTemperature = 0.00709,
					LocalTint = 0,
					LocalToningHue = 0,
					LocalToningSaturation = 0,
					What = "Correction",
				},
				{
					CorrectionActive = true,
					CorrectionAmount = 1,
					CorrectionID = "13EC588C-A04A-4338-B005-F696AC7F788B",
					CorrectionMasks = {
						{
							FullX = 0.806937,
							FullY = 0.055343,
							MaskID = "CF6E97DE-F7AE-4C4E-8FE0-4437E66FCE66",
							MaskValue = 1,
							What = "Mask/Gradient",
							ZeroX = 0.686118,
							ZeroY = 0.778412,
						},
					},
					CorrectionReferenceX = 0.746528,
					CorrectionReferenceY = 0.416878,
					LocalBrightness = 0,
					LocalClarity = 0,
					LocalClarity2012 = 0.46099,
					LocalContrast = 0,
					LocalContrast2012 = 0,
					LocalDefringe = 0,
					LocalExposure = 0,
					LocalExposure2012 = -0.1065,
					LocalHighlights2012 = -0.7305,
					LocalLuminanceNoise = 0,
					LocalMoire = 0,
					LocalSaturation = 0,
					LocalShadows2012 = 0.80142,
					LocalSharpness = 0,
					LocalTemperature = 0.03546,
					LocalTint = -0.00709,
					LocalToningHue = 0,
					LocalToningSaturation = 0,
					What = "Correction",
				},
			},
			GrainAmount = 0,
			GrainFrequency = 50,
			GrainSize = 25,
			GreenHue = 0,
			GreenSaturation = 0,
			Highlights2012 = -97,
			HueAdjustmentAqua = 0,
			HueAdjustmentBlue = 0,
			HueAdjustmentGreen = 0,
			HueAdjustmentMagenta = 0,
			HueAdjustmentOrange = -26,
			HueAdjustmentPurple = 0,
			HueAdjustmentRed = 3,
			HueAdjustmentYellow = -6,
			LensManualDistortionAmount = 0,
			LensProfileChromaticAberrationScale = 100,
			LensProfileDigest = "7B0BAB9F81F5D3619E136019545B6413",
			LensProfileDistortionScale = 100,
			LensProfileEnable = 1,
			LensProfileFilename = "Canon EOS 50D (Canon EF-S 18-55mm f3.5-5.6 IS) - RAW.lcp",
			LensProfileName = "Adobe (Canon EF-S 18-55mm f/3.5-5.6 IS)",
			LensProfileSetup = "Custom",
			LensProfileVignettingScale = 100,
			LuminanceAdjustmentAqua = -46,
			LuminanceAdjustmentBlue = -28,
			LuminanceAdjustmentGreen = 0,
			LuminanceAdjustmentMagenta = -3,
			LuminanceAdjustmentOrange = -45,
			LuminanceAdjustmentPurple = -2,
			LuminanceAdjustmentRed = -9,
			LuminanceAdjustmentYellow = -31,
			LuminanceNoiseReductionContrast = 0,
			LuminanceNoiseReductionDetail = 50,
			LuminanceSmoothing = 0,
			ParametricDarks = 0,
			ParametricHighlightSplit = 75,
			ParametricHighlights = 0,
			ParametricLights = 0,
			ParametricMidtoneSplit = 50,
			ParametricShadowSplit = 25,
			ParametricShadows = 0,
			PerspectiveAspect = 0,
			PerspectiveHorizontal = 0,
			PerspectiveRotate = 0,
			PerspectiveScale = 100,
			PerspectiveUpright = 0,
			PerspectiveVertical = 0,
			PostCropVignetteAmount = 0,
			PostCropVignetteFeather = 50,
			PostCropVignetteHighlightContrast = 0,
			PostCropVignetteMidpoint = 50,
			PostCropVignetteRoundness = 0,
			PostCropVignetteStyle = 1,
			ProcessVersion = "6.7",
			RedHue = 5,
			RedSaturation = -11,
			Saturation = 15,
			SaturationAdjustmentAqua = -48,
			SaturationAdjustmentBlue = -45,
			SaturationAdjustmentGreen = -41,
			SaturationAdjustmentMagenta = -60,
			SaturationAdjustmentOrange = 21,
			SaturationAdjustmentPurple = -70,
			SaturationAdjustmentRed = 0,
			SaturationAdjustmentYellow = -13,
			ShadowTint = 0,
			Shadows2012 = 93,
			SharpenDetail = 25,
			SharpenEdgeMasking = 0,
			SharpenRadius = 1,
			Sharpness = 73,
			SplitToningBalance = 0,
			SplitToningHighlightHue = 197,
			SplitToningHighlightSaturation = 5,
			SplitToningShadowHue = 39,
			SplitToningShadowSaturation = 40,
			ToneCurveName2012 = "Custom",
			ToneCurvePV2012 = {
				0,
				10,
				65,
				65,
				210,
				203,
				255,
				234,
			},
			ToneCurvePV2012Blue = {
				0,
				0,
				255,
				255,
			},
			ToneCurvePV2012Green = {
				0,
				0,
				255,
				255,
			},
			ToneCurvePV2012Red = {
				0,
				0,
				255,
				255,
			},
			Vibrance = 37,
			VignetteAmount = 0,
			VignetteMidpoint = 50,
			WhiteBalance = "As Shot",
			Whites2012 = -12,
			orientation = "AB",
		},
		uuid = "6BA50A15-E1EA-47F2-A38B-BB5FF19CBCFD",
	},
	version = 0,
}
