CM 1000+ Lightroom Preset Pack 317985/HDR Collection (91)/HDR Preset (33).lrtemplate
s = {
	id = "ACC5212E-4551-46AA-8DE6-624AD1D87CFD",
	internalName = "08_HDR Lightroom Presets Vol.1",
	title = "08_HDR Lightroom Presets Vol.1",
	type = "Develop",
	value = {
		settings = {
			Blacks2012 = 100,
			BlueHue = -100,
			BlueSaturation = -100,
			CameraProfile = "Embedded",
			Clarity2012 = 100,
			ColorNoiseReduction = 25,
			ColorNoiseReductionDetail = 50,
			ColorNoiseReductionSmoothness = 50,
			Contrast2012 = -100,
			ConvertToGrayscale = false,
			EnableCalibration = true,
			EnableCircularGradientBasedCorrections = true,
			EnableColorAdjustments = true,
			EnableDetail = true,
			EnableEffects = true,
			EnableGradientBasedCorrections = true,
			EnableSplitToning = true,
			GradientBasedCorrections = {
				{
					CorrectionActive = true,
					CorrectionAmount = 1,
					CorrectionID = "64D765B9-084E-41E8-AEEE-D417A9F2539D",
					CorrectionMasks = {
						{
							FullX = 0.062954,
							FullY = 1.09455,
							MaskID = "C6C79D30-0BF9-440B-A877-1FC870A5B008",
							MaskValue = 1,
							What = "Mask/Gradient",
							ZeroX = 0.062954,
							ZeroY = 1.19636,
						},
					},
					CorrectionReferenceX = 0.062954,
					CorrectionReferenceY = 1.14546,
					LocalBrightness = 0,
					LocalClarity = 0,
					LocalClarity2012 = 1,
					LocalContrast = 0,
					LocalContrast2012 = 0,
					LocalDefringe = 0,
					LocalExposure = 0,
					LocalExposure2012 = 0,
					LocalHighlights2012 = -1,
					LocalLuminanceNoise = 0,
					LocalMoire = 0,
					LocalSaturation = 0,
					LocalShadows2012 = 1,
					LocalSharpness = 0,
					LocalTemperature = 0,
					LocalTint = 0,
					LocalToningHue = 0,
					LocalToningSaturation = 0,
					What = "Correction",
				},
				{
					CorrectionActive = true,
					CorrectionAmount = 1,
					CorrectionID = "E142D0A2-911E-480B-B085-02CC11D3A5F8",
					CorrectionMasks = {
						{
							FullX = 0.089588,
							FullY = -0.076363,
							MaskID = "9017E4D3-A4D3-48DD-B424-C40DCD4E2227",
							MaskValue = 1,
							What = "Mask/Gradient",
							ZeroX = 0.089588,
							ZeroY = -0.167272,
						},
					},
					CorrectionReferenceX = 0.089588,
					CorrectionReferenceY = -0.121818,
					LocalBrightness = 0,
					LocalClarity = 0,
					LocalClarity2012 = 1,
					LocalContrast = 0,
					LocalContrast2012 = 0,
					LocalDefringe = 0,
					LocalExposure = 0,
					LocalExposure2012 = 0,
					LocalHighlights2012 = -1,
					LocalLuminanceNoise = 0,
					LocalMoire = 0,
					LocalSaturation = 0,
					LocalShadows2012 = 1,
					LocalSharpness = 0,
					LocalTemperature = 0,
					LocalTint = 0,
					LocalToningHue = 0,
					LocalToningSaturation = 0,
					What = "Correction",
				},
				{
					CorrectionActive = true,
					CorrectionAmount = 1,
					CorrectionID = "AAF3B6F6-5C22-4348-9697-FEF055B5FA20",
					CorrectionMasks = {
						{
							FullX = 0.140436,
							FullY = 1.10909,
							MaskID = "C55BDBFD-770A-422F-AFED-05D5231492C7",
							MaskValue = 1,
							What = "Mask/Gradient",
							ZeroX = 0.140436,
							ZeroY = 1.18182,
						},
					},
					CorrectionReferenceX = 0.140436,
					CorrectionReferenceY = 1.14546,
					LocalBrightness = 0,
					LocalClarity = 0,
					LocalClarity2012 = 1,
					LocalContrast = 0,
					LocalContrast2012 = 0,
					LocalDefringe = 0,
					LocalExposure = 0,
					LocalExposure2012 = 0,
					LocalHighlights2012 = -1,
					LocalLuminanceNoise = 0,
					LocalMoire = 0,
					LocalSaturation = 0,
					LocalShadows2012 = 1,
					LocalSharpness = 0,
					LocalTemperature = 0,
					LocalTint = 0,
					LocalToningHue = 0,
					LocalToningSaturation = 0,
					What = "Correction",
				},
				{
					CorrectionActive = true,
					CorrectionAmount = 1,
					CorrectionID = "22710227-396D-48E5-9A62-6DFA0AF452E6",
					CorrectionMasks = {
						{
							FullX = 0.162228,
							FullY = -0.101818,
							MaskID = "C24CD7F3-8657-44EE-A9F7-E649D4CDFC80",
							MaskValue = 1,
							What = "Mask/Gradient",
							ZeroX = 0.162228,
							ZeroY = -0.149091,
						},
					},
					CorrectionReferenceX = 0.162228,
					CorrectionReferenceY = -0.125455,
					LocalBrightness = 0,
					LocalClarity = 0,
					LocalClarity2012 = 1,
					LocalContrast = 0,
					LocalContrast2012 = 0,
					LocalDefringe = 0,
					LocalExposure = 0,
					LocalExposure2012 = 0,
					LocalHighlights2012 = -1,
					LocalLuminanceNoise = 0,
					LocalMoire = 0,
					LocalSaturation = 0,
					LocalShadows2012 = 1,
					LocalSharpness = 0,
					LocalTemperature = 0,
					LocalTint = 0,
					LocalToningHue = 0,
					LocalToningSaturation = 0,
					What = "Correction",
				},
			},
			GrainAmount = 0,
			GrainFrequency = 50,
			GrainSize = 25,
			GreenHue = 0,
			GreenSaturation = 100,
			Highlights2012 = -100,
			HueAdjustmentAqua = 72,
			HueAdjustmentBlue = 12,
			HueAdjustmentGreen = 8,
			HueAdjustmentMagenta = 0,
			HueAdjustmentOrange = 100,
			HueAdjustmentPurple = 0,
			HueAdjustmentRed = 10,
			HueAdjustmentYellow = 24,
			IncrementalTemperature = 0,
			IncrementalTint = 0,
			LuminanceAdjustmentAqua = 37,
			LuminanceAdjustmentBlue = -34,
			LuminanceAdjustmentGreen = -13,
			LuminanceAdjustmentMagenta = 0,
			LuminanceAdjustmentOrange = 0,
			LuminanceAdjustmentPurple = 0,
			LuminanceAdjustmentRed = -23,
			LuminanceAdjustmentYellow = -10,
			LuminanceNoiseReductionContrast = 0,
			LuminanceNoiseReductionDetail = 50,
			LuminanceSmoothing = 22,
			ParametricDarks = 0,
			ParametricHighlightSplit = 75,
			ParametricHighlights = 0,
			ParametricLights = 0,
			ParametricMidtoneSplit = 50,
			ParametricShadowSplit = 25,
			ParametricShadows = 0,
			PostCropVignetteAmount = 0,
			PostCropVignetteFeather = 50,
			PostCropVignetteHighlightContrast = 0,
			PostCropVignetteMidpoint = 50,
			PostCropVignetteRoundness = 0,
			PostCropVignetteStyle = 1,
			ProcessVersion = "6.7",
			RedHue = 0,
			RedSaturation = 51,
			Saturation = 0,
			SaturationAdjustmentAqua = 0,
			SaturationAdjustmentBlue = 29,
			SaturationAdjustmentGreen = 16,
			SaturationAdjustmentMagenta = -32,
			SaturationAdjustmentOrange = 15,
			SaturationAdjustmentPurple = -12,
			SaturationAdjustmentRed = 12,
			SaturationAdjustmentYellow = 37,
			ShadowTint = 0,
			Shadows2012 = 100,
			SharpenDetail = 38,
			SharpenEdgeMasking = 73,
			SharpenRadius = 2,
			Sharpness = 46,
			SplitToningBalance = 64,
			SplitToningHighlightHue = 47,
			SplitToningHighlightSaturation = 26,
			SplitToningShadowHue = 226,
			SplitToningShadowSaturation = 27,
			ToneCurveName2012 = "Custom",
			ToneCurvePV2012 = {
				0,
				0,
				47,
				36,
				175,
				198,
				255,
				255,
			},
			ToneCurvePV2012Blue = {
				0,
				0,
				255,
				255,
			},
			ToneCurvePV2012Green = {
				0,
				0,
				255,
				255,
			},
			ToneCurvePV2012Red = {
				0,
				0,
				255,
				255,
			},
			Vibrance = 44,
			WhiteBalance = "Custom",
			Whites2012 = 0,
			orientation = "AB",
		},
		uuid = "B2B62C84-C8CC-4735-A89A-B1DEC3FEC87D",
	},
	version = 0,
}
