CM 1000+ Lightroom Preset Pack 317985/HDR Collection (91)/HDR Preset (44).lrtemplate
s = {
	id = "E58E96D6-891B-4DE0-8458-3A318A9C04CC",
	internalName = "16_HDR Retro Old Effect",
	title = "16_HDR Retro Old Effect",
	type = "Develop",
	value = {
		settings = {
			Blacks2012 = 100,
			BlueHue = 0,
			BlueSaturation = -100,
			CameraProfile = "Camera Standard",
			Clarity2012 = 30,
			ColorNoiseReduction = 25,
			ColorNoiseReductionDetail = 50,
			ColorNoiseReductionSmoothness = 50,
			Contrast2012 = 55,
			ConvertToGrayscale = false,
			EnableCalibration = true,
			EnableColorAdjustments = true,
			EnableDetail = true,
			EnableEffects = true,
			EnableSplitToning = true,
			Exposure2012 = -1.12,
			GrainAmount = 9,
			GrainFrequency = 50,
			GrainSize = 25,
			GreenHue = 100,
			GreenSaturation = 70,
			Highlights2012 = -100,
			HueAdjustmentAqua = 8,
			HueAdjustmentBlue = 0,
			HueAdjustmentGreen = -100,
			HueAdjustmentMagenta = -94,
			HueAdjustmentOrange = 5,
			HueAdjustmentPurple = -60,
			HueAdjustmentRed = -3,
			HueAdjustmentYellow = -100,
			IncrementalTemperature = 27,
			IncrementalTint = 58,
			LuminanceAdjustmentAqua = 0,
			LuminanceAdjustmentBlue = 0,
			LuminanceAdjustmentGreen = 0,
			LuminanceAdjustmentMagenta = 0,
			LuminanceAdjustmentOrange = 76,
			LuminanceAdjustmentPurple = 0,
			LuminanceAdjustmentRed = -16,
			LuminanceAdjustmentYellow = -32,
			LuminanceNoiseReductionContrast = 0,
			LuminanceNoiseReductionDetail = 50,
			LuminanceSmoothing = 0,
			ParametricDarks = 0,
			ParametricHighlightSplit = 75,
			ParametricHighlights = 0,
			ParametricLights = 0,
			ParametricMidtoneSplit = 50,
			ParametricShadowSplit = 25,
			ParametricShadows = 0,
			PostCropVignetteAmount = -28,
			PostCropVignetteFeather = 100,
			PostCropVignetteHighlightContrast = 0,
			PostCropVignetteMidpoint = 10,
			PostCropVignetteRoundness = -9,
			PostCropVignetteStyle = 1,
			ProcessVersion = "6.7",
			RedHue = 20,
			RedSaturation = 98,
			Saturation = -55,
			SaturationAdjustmentAqua = -100,
			SaturationAdjustmentBlue = -100,
			SaturationAdjustmentGreen = -76,
			SaturationAdjustmentMagenta = -74,
			SaturationAdjustmentOrange = 12,
			SaturationAdjustmentPurple = -63,
			SaturationAdjustmentRed = -98,
			SaturationAdjustmentYellow = 48,
			ShadowTint = -56,
			Shadows2012 = 100,
			SharpenDetail = 65,
			SharpenEdgeMasking = 0,
			SharpenRadius = 1.3,
			Sharpness = 63,
			SplitToningBalance = 60,
			SplitToningHighlightHue = 84,
			SplitToningHighlightSaturation = 19,
			SplitToningShadowHue = 210,
			SplitToningShadowSaturation = 16,
			ToneCurveName2012 = "Custom",
			ToneCurvePV2012 = {
				0,
				25,
				39,
				45,
				64,
				70,
				178,
				196,
				212,
				214,
				255,
				240,
			},
			ToneCurvePV2012Blue = {
				0,
				0,
				255,
				255,
			},
			ToneCurvePV2012Green = {
				0,
				7,
				67,
				67,
				194,
				197,
				255,
				241,
			},
			ToneCurvePV2012Red = {
				1,
				5,
				58,
				65,
				255,
				255,
			},
			Vibrance = 34,
			WhiteBalance = "Custom",
			Whites2012 = 6,
		},
		uuid = "0B434FA1-68D1-4D3C-BA0B-8D67118107A9",
	},
	version = 0,
}
