CM 200+ All Seasons presets 181273/Pastel Presets Matte/BlackWhiteVignette.lrtemplate
s = {
	id = "D9AAB9B2-5947-4ED6-A2E9-41E55335D259",
	internalName = "BlackWhiteVignette",
	title = "BlackWhiteVignette",
	type = "Develop",
	value = {
		settings = {
			Clarity2012 = 11,
			ColorNoiseReduction = 25,
			ColorNoiseReductionDetail = 50,
			ColorNoiseReductionSmoothness = 50,
			ConvertToGrayscale = true,
			EnableDetail = true,
			EnableEffects = true,
			LuminanceNoiseReductionContrast = 0,
			LuminanceNoiseReductionDetail = 50,
			LuminanceSmoothing = 14,
			ParametricDarks = 0,
			ParametricHighlightSplit = 75,
			ParametricHighlights = 0,
			ParametricLights = 0,
			ParametricMidtoneSplit = 50,
			ParametricShadowSplit = 25,
			ParametricShadows = 0,
			PostCropVignetteAmount = -64,
			PostCropVignetteFeather = 100,
			PostCropVignetteHighlightContrast = 4,
			PostCropVignetteMidpoint = 12,
			PostCropVignetteRoundness = -18,
			PostCropVignetteStyle = 3,
			ProcessVersion = "6.7",
			Shadows2012 = 28,
			ToneCurveName2012 = "Custom",
			ToneCurvePV2012 = {
				57,
				57,
				255,
				255,
			},
			ToneCurvePV2012Blue = {
				0,
				0,
				255,
				255,
			},
			ToneCurvePV2012Green = {
				0,
				0,
				255,
				255,
			},
			ToneCurvePV2012Red = {
				0,
				0,
				255,
				255,
			},
		},
		uuid = "E852F2E9-55B9-4B67-BDDF-493DA22FDE77",
	},
	version = 0,
}
