CM 200+ All Seasons presets 181273/Pastel Presets Matte/Matte Soft.lrtemplate
s = {
	id = "037C5D3B-BF9A-4753-9C14-1E3B9BFF8E41",
	internalName = "Matte Soft",
	title = "Matte Soft",
	type = "Develop",
	value = {
		settings = {
			Clarity2012 = 11,
			ColorNoiseReduction = 25,
			ColorNoiseReductionDetail = 50,
			ColorNoiseReductionSmoothness = 50,
			EnableDetail = true,
			LuminanceNoiseReductionContrast = 0,
			LuminanceNoiseReductionDetail = 50,
			LuminanceSmoothing = 14,
			ParametricDarks = 0,
			ParametricHighlightSplit = 75,
			ParametricHighlights = 0,
			ParametricLights = 0,
			ParametricMidtoneSplit = 50,
			ParametricShadowSplit = 25,
			ParametricShadows = 0,
			ProcessVersion = "6.7",
			Shadows2012 = 28,
			ToneCurveName2012 = "Custom",
			ToneCurvePV2012 = {
				27,
				56,
				255,
				255,
			},
			ToneCurvePV2012Blue = {
				0,
				0,
				255,
				255,
			},
			ToneCurvePV2012Green = {
				0,
				0,
				255,
				255,
			},
			ToneCurvePV2012Red = {
				0,
				0,
				255,
				255,
			},
		},
		uuid = "1746089C-01BB-4CD5-8206-373E27589F58",
	},
	version = 0,
}
