1100 Lightroom Presets/CM 1100+ Lightroom Presets 320973/100 Underwater Lightroom Presets/Underwater Effect 97.lrtemplate
s = {
	id = "AF0FA315-F180-4E45-9811-63D3A32F06D3",
	internalName = "Underwater Effect 97",
	title = "Underwater Effect 97",
	type = "Develop",
	value = {
		settings = {
			AutoLateralCA = 0,
			Blacks2012 = 0,
			BlueHue = 0,
			BlueSaturation = 0,
			CameraProfile = "Embedded",
			ChromaticAberrationB = 0,
			ChromaticAberrationR = 0,
			Clarity2012 = 19,
			ColorNoiseReduction = 0,
			ColorNoiseReductionDetail = 50,
			ColorNoiseReductionSmoothness = 50,
			Contrast2012 = -17,
			ConvertToGrayscale = true,
			CropConstrainToWarp = 0,
			Defringe = 0,
			DefringeGreenAmount = 0,
			DefringeGreenHueHi = 60,
			DefringeGreenHueLo = 40,
			DefringePurpleAmount = 0,
			DefringePurpleHueHi = 70,
			DefringePurpleHueLo = 30,
			EnableCalibration = false,
			EnableCircularGradientBasedCorrections = true,
			EnableDetail = false,
			EnableEffects = true,
			EnableGradientBasedCorrections = true,
			EnableGrayscaleMix = true,
			EnableLensCorrections = true,
			EnableSplitToning = true,
			Exposure2012 = 0,
			GrainAmount = 0,
			GrainFrequency = 50,
			GrainSize = 100,
			GrayMixerAqua = -5,
			GrayMixerBlue = 26,
			GrayMixerGreen = -2,
			GrayMixerMagenta = 0,
			GrayMixerOrange = 18,
			GrayMixerPurple = 22,
			GrayMixerRed = 29,
			GrayMixerYellow = 24,
			GreenHue = 0,
			GreenSaturation = 0,
			Highlights2012 = 0,
			IncrementalTemperature = -17,
			IncrementalTint = -29,
			LensManualDistortionAmount = 0,
			LensProfileEnable = 0,
			LensProfileSetup = "LensDefaults",
			LuminanceNoiseReductionContrast = 0,
			LuminanceNoiseReductionDetail = 50,
			LuminanceSmoothing = 0,
			ParametricDarks = 0,
			ParametricHighlightSplit = 75,
			ParametricHighlights = 0,
			ParametricLights = 0,
			ParametricMidtoneSplit = 50,
			ParametricShadowSplit = 25,
			ParametricShadows = 0,
			PerspectiveAspect = 0,
			PerspectiveHorizontal = 0,
			PerspectiveRotate = 0,
			PerspectiveScale = 100,
			PerspectiveUpright = 0,
			PerspectiveVertical = 0,
			PostCropVignetteAmount = -19,
			PostCropVignetteFeather = 50,
			PostCropVignetteHighlightContrast = 0,
			PostCropVignetteMidpoint = 54,
			PostCropVignetteRoundness = 0,
			PostCropVignetteStyle = 3,
			ProcessVersion = "6.7",
			RedHue = 0,
			RedSaturation = 0,
			ShadowTint = 0,
			Shadows2012 = 14,
			SharpenDetail = 0,
			SharpenEdgeMasking = 0,
			SharpenRadius = 0.9,
			Sharpness = 46,
			SplitToningBalance = 0,
			SplitToningHighlightHue = 316,
			SplitToningHighlightSaturation = 5,
			SplitToningShadowHue = 216,
			SplitToningShadowSaturation = 36,
			ToneCurveName2012 = "Linear",
			ToneCurvePV2012 = {
				0,
				0,
				255,
				255,
			},
			ToneCurvePV2012Blue = {
				0,
				0,
				255,
				255,
			},
			ToneCurvePV2012Green = {
				0,
				0,
				255,
				255,
			},
			ToneCurvePV2012Red = {
				0,
				0,
				255,
				255,
			},
			VignetteAmount = 0,
			VignetteMidpoint = 50,
			WhiteBalance = "Custom",
			Whites2012 = 17,
			orientation = "AB",
		},
		uuid = "83606012-DD46-4FF3-BD61-15055F1ACC30",
	},
	version = 0,
}
