30 ACR Adobe Lightroom Presets/ACR & Lightroom Presets/Adobe Camera Raw Presets/1 Black and White - dark sky.xmp
<x:xmpmeta xmlns:x="adobe:ns:meta/" x:xmptk="Adobe XMP Core 5.5-c002 1.148022, 2012/07/15-18:06:45        ">
 <rdf:RDF xmlns:rdf="http://www.w3.org/1999/02/22-rdf-syntax-ns#">
  <rdf:Description rdf:about=""
    xmlns:crs="http://ns.adobe.com/camera-raw-settings/1.0/"
   crs:Version="9.0"
   crs:ProcessVersion="6.7"
   crs:AutoExposure="False"
   crs:AutoShadows="False"
   crs:AutoBrightness="False"
   crs:AutoContrast="False"
   crs:GrayMixerRed="+62"
   crs:GrayMixerOrange="+55"
   crs:GrayMixerYellow="-7"
   crs:GrayMixerGreen="+50"
   crs:GrayMixerAqua="+28"
   crs:GrayMixerBlue="-87"
   crs:GrayMixerPurple="-15"
   crs:GrayMixerMagenta="+4"
   crs:ConvertToGrayscale="True"
   crs:AutoGrayscaleMix="False"
   crs:EnableGrayscaleMix="True"
   crs:GrainSeed="2944266884"
   crs:HasSettings="True"/>
 </rdf:RDF>
</x:xmpmeta>
