30 ACR Adobe Lightroom Presets/ACR & Lightroom Presets/Adobe Camera Raw Presets/1 Faded - Black and White.xmp
<x:xmpmeta xmlns:x="adobe:ns:meta/" x:xmptk="Adobe XMP Core 5.5-c002 1.148022, 2012/07/15-18:06:45        ">
 <rdf:RDF xmlns:rdf="http://www.w3.org/1999/02/22-rdf-syntax-ns#">
  <rdf:Description rdf:about=""
    xmlns:crs="http://ns.adobe.com/camera-raw-settings/1.0/"
   crs:Version="9.0"
   crs:ProcessVersion="6.7"
   crs:AutoExposure="False"
   crs:AutoShadows="False"
   crs:AutoBrightness="False"
   crs:AutoContrast="False"
   crs:Sharpness="90"
   crs:GrayMixerRed="-10"
   crs:GrayMixerOrange="-19"
   crs:GrayMixerYellow="-24"
   crs:GrayMixerGreen="-27"
   crs:GrayMixerAqua="-18"
   crs:GrayMixerBlue="+11"
   crs:GrayMixerPurple="+17"
   crs:GrayMixerMagenta="+4"
   crs:SharpenRadius="+1.0"
   crs:SharpenDetail="25"
   crs:SharpenEdgeMasking="0"
   crs:ConvertToGrayscale="True"
   crs:AutoGrayscaleMix="False"
   crs:EnableToneCurve="True"
   crs:EnableGrayscaleMix="True"
   crs:EnableDetail="True"
   crs:ToneCurveName="Custom"
   crs:ToneCurveName2012="Custom"
   crs:GrainSeed="3618589113"
   crs:HasSettings="True">
   <crs:ToneCurve>
    <rdf:Seq>
     <rdf:li>0, 51</rdf:li>
     <rdf:li>73, 88</rdf:li>
     <rdf:li>255, 255</rdf:li>
    </rdf:Seq>
   </crs:ToneCurve>
   <crs:ToneCurveRed>
    <rdf:Seq>
     <rdf:li>0, 0</rdf:li>
     <rdf:li>255, 255</rdf:li>
    </rdf:Seq>
   </crs:ToneCurveRed>
   <crs:ToneCurveGreen>
    <rdf:Seq>
     <rdf:li>0, 0</rdf:li>
     <rdf:li>255, 255</rdf:li>
    </rdf:Seq>
   </crs:ToneCurveGreen>
   <crs:ToneCurveBlue>
    <rdf:Seq>
     <rdf:li>0, 0</rdf:li>
     <rdf:li>255, 255</rdf:li>
    </rdf:Seq>
   </crs:ToneCurveBlue>
   <crs:ToneCurvePV2012>
    <rdf:Seq>
     <rdf:li>0, 51</rdf:li>
     <rdf:li>73, 88</rdf:li>
     <rdf:li>255, 255</rdf:li>
    </rdf:Seq>
   </crs:ToneCurvePV2012>
   <crs:ToneCurvePV2012Red>
    <rdf:Seq>
     <rdf:li>0, 0</rdf:li>
     <rdf:li>255, 255</rdf:li>
    </rdf:Seq>
   </crs:ToneCurvePV2012Red>
   <crs:ToneCurvePV2012Green>
    <rdf:Seq>
     <rdf:li>0, 0</rdf:li>
     <rdf:li>255, 255</rdf:li>
    </rdf:Seq>
   </crs:ToneCurvePV2012Green>
   <crs:ToneCurvePV2012Blue>
    <rdf:Seq>
     <rdf:li>0, 0</rdf:li>
     <rdf:li>255, 255</rdf:li>
    </rdf:Seq>
   </crs:ToneCurvePV2012Blue>
  </rdf:Description>
 </rdf:RDF>
</x:xmpmeta>
