30 ACR Adobe Lightroom Presets/ACR & Lightroom Presets/Adobe Camera Raw Presets/1 Vintage Sepia.xmp
<x:xmpmeta xmlns:x="adobe:ns:meta/" x:xmptk="Adobe XMP Core 5.5-c002 1.148022, 2012/07/15-18:06:45        ">
 <rdf:RDF xmlns:rdf="http://www.w3.org/1999/02/22-rdf-syntax-ns#">
  <rdf:Description rdf:about=""
    xmlns:crs="http://ns.adobe.com/camera-raw-settings/1.0/"
   crs:Version="9.0"
   crs:ProcessVersion="6.7"
   crs:AutoExposure="False"
   crs:AutoShadows="False"
   crs:AutoBrightness="False"
   crs:AutoContrast="False"
   crs:Sharpness="90"
   crs:GrayMixerRed="-11"
   crs:GrayMixerOrange="-20"
   crs:GrayMixerYellow="-24"
   crs:GrayMixerGreen="-28"
   crs:GrayMixerAqua="-17"
   crs:GrayMixerBlue="+12"
   crs:GrayMixerPurple="+17"
   crs:GrayMixerMagenta="+4"
   crs:SplitToningShadowHue="29"
   crs:SplitToningShadowSaturation="40"
   crs:SplitToningHighlightHue="54"
   crs:SplitToningHighlightSaturation="8"
   crs:SplitToningBalance="-19"
   crs:SharpenRadius="+1.0"
   crs:SharpenDetail="25"
   crs:SharpenEdgeMasking="0"
   crs:PostCropVignetteAmount="-12"
   crs:PostCropVignetteMidpoint="50"
   crs:PostCropVignetteFeather="50"
   crs:PostCropVignetteRoundness="0"
   crs:PostCropVignetteStyle="1"
   crs:PostCropVignetteHighlightContrast="50"
   crs:GrainAmount="50"
   crs:GrainSize="50"
   crs:GrainFrequency="50"
   crs:Clarity2012="+21"
   crs:ConvertToGrayscale="True"
   crs:AutoGrayscaleMix="False"
   crs:EnableSplitToning="True"
   crs:EnableGrayscaleMix="True"
   crs:EnableDetail="True"
   crs:EnableEffects="True"
   crs:GrainSeed="3618611628"
   crs:HasSettings="True"/>
 </rdf:RDF>
</x:xmpmeta>
