CM 600 Lightroom Presets Bundle Vol  2 52062/20 Premium Light Leak Presets V-3/Effect 13.lrtemplate
s = {
	id = "319F6122-E4A3-437A-9079-7CAC3A0E006B",
	internalName = "Effect 13",
	title = "Effect 13",
	type = "Develop",
	value = {
		settings = {
			AutoLateralCA = 0,
			Blacks2012 = 27,
			BlueHue = 0,
			BlueSaturation = 0,
			CameraProfile = "Embedded",
			ChromaticAberrationB = 0,
			ChromaticAberrationR = 0,
			Clarity2012 = 0,
			ColorNoiseReduction = 0,
			ColorNoiseReductionDetail = 50,
			Contrast2012 = -56,
			ConvertToGrayscale = false,
			CropConstrainToWarp = 0,
			Defringe = 0,
			EnableCalibration = true,
			EnableColorAdjustments = true,
			EnableDetail = true,
			EnableEffects = true,
			EnableGradientBasedCorrections = true,
			EnableLensCorrections = true,
			EnableSplitToning = true,
			Exposure2012 = -0.37,
			GradientBasedCorrections = {
				{
					CorrectionActive = true,
					CorrectionAmount = 1,
					CorrectionID = "20DBC902-3E76-4CA8-854B-A9E1EEDEF83C",
					CorrectionMasks = {
						{
							FullX = 0.030356,
							FullY = 0.457152,
							MaskID = "171DEADE-766A-4000-91D9-67D6D024DB9C",
							MaskValue = 1,
							What = "Mask/Gradient",
							ZeroX = 0.30644,
							ZeroY = 0.465191,
						},
					},
					CorrectionReferenceX = 0.168398,
					CorrectionReferenceY = 0.461172,
					LocalBrightness = 0,
					LocalClarity = 0,
					LocalClarity2012 = 0,
					LocalContrast = 0,
					LocalContrast2012 = 0,
					LocalExposure = 0.25,
					LocalExposure2012 = 0.153,
					LocalHighlights2012 = -0.43529,
					LocalLuminanceNoise = 0,
					LocalMoire = 0,
					LocalSaturation = 0,
					LocalShadows2012 = 0.43529,
					LocalSharpness = 0,
					LocalTemperature = 0.12941,
					LocalTint = -1,
					LocalToningHue = 349,
					LocalToningSaturation = 0.68,
					What = "Correction",
				},
				{
					CorrectionActive = true,
					CorrectionAmount = 1,
					CorrectionID = "A247C900-96D5-41D4-882A-64BA2CB793C0",
					CorrectionMasks = {
						{
							FullX = -0.071412,
							FullY = 0.488587,
							MaskID = "C090EA6E-4ED3-42AF-8AD0-2DFFFB750B75",
							MaskValue = 1,
							What = "Mask/Gradient",
							ZeroX = 0.376157,
							ZeroY = 0.514153,
						},
					},
					CorrectionReferenceX = 0.152373,
					CorrectionReferenceY = 0.50137,
					LocalBrightness = 0,
					LocalClarity = 0,
					LocalClarity2012 = 0,
					LocalContrast = 0,
					LocalContrast2012 = -0.10588,
					LocalExposure = 0.25,
					LocalExposure2012 = 0.2,
					LocalHighlights2012 = -0.43529,
					LocalLuminanceNoise = 0,
					LocalMoire = 0,
					LocalSaturation = 0,
					LocalShadows2012 = 0.43529,
					LocalSharpness = 0,
					LocalTemperature = -0.57647,
					LocalTint = -1,
					LocalToningHue = 0,
					LocalToningSaturation = 0.83,
					What = "Correction",
				},
				{
					CorrectionActive = true,
					CorrectionAmount = 1,
					CorrectionID = "F3F3D06B-21AD-4228-8E59-2A4866A7DBAD",
					CorrectionMasks = {
						{
							FullX = -0.014247,
							FullY = 0.773107,
							MaskID = "975864FD-3071-4354-96CF-B3FFC61AFD75",
							MaskValue = 1,
							What = "Mask/Gradient",
							ZeroX = 0.58543,
							ZeroY = 0.771294,
						},
					},
					CorrectionReferenceX = 0.285592,
					CorrectionReferenceY = 0.772201,
					LocalBrightness = 0,
					LocalClarity = 0,
					LocalClarity2012 = 0,
					LocalContrast = 0,
					LocalContrast2012 = 0,
					LocalExposure = 0.25,
					LocalExposure2012 = 0.153,
					LocalHighlights2012 = -1,
					LocalLuminanceNoise = 0,
					LocalMoire = 0,
					LocalSaturation = 0,
					LocalShadows2012 = 0.43529,
					LocalSharpness = 0,
					LocalTemperature = 0.85882,
					LocalTint = -0.74118,
					LocalToningHue = 0,
					LocalToningSaturation = 0.83,
					What = "Correction",
				},
				{
					CorrectionActive = true,
					CorrectionAmount = 1,
					CorrectionID = "F96D8BD5-6DF7-49AE-AD97-7AEB5518E433",
					CorrectionMasks = {
						{
							FullX = 0.114758,
							FullY = 0.631836,
							MaskID = "91B9A9F7-6D19-4DD8-BBC7-C4C5044CBCB3",
							MaskValue = 1,
							What = "Mask/Gradient",
							ZeroX = 0.389758,
							ZeroY = 0.587629,
						},
					},
					CorrectionReferenceX = 0.252258,
					CorrectionReferenceY = 0.609733,
					LocalBrightness = 0,
					LocalClarity = 0,
					LocalClarity2012 = 0,
					LocalContrast = 0,
					LocalContrast2012 = 0.08235,
					LocalExposure = 0.25,
					LocalExposure2012 = 0.106,
					LocalHighlights2012 = -0.43529,
					LocalLuminanceNoise = 0,
					LocalMoire = 0,
					LocalSaturation = 0,
					LocalShadows2012 = 0.43529,
					LocalSharpness = 0,
					LocalTemperature = 0.31765,
					LocalTint = 1,
					LocalToningHue = 0,
					LocalToningSaturation = 0.83,
					What = "Correction",
				},
				{
					CorrectionActive = true,
					CorrectionAmount = 1,
					CorrectionID = "E59BBDF0-D6D8-4423-9C9E-23B87EACF0EA",
					CorrectionMasks = {
						{
							FullX = 1.07159,
							FullY = 0.09396,
							MaskID = "9A9D1EF8-B64A-450C-8175-8F2D8ACBB4AC",
							MaskValue = 1,
							What = "Mask/Gradient",
							ZeroX = -0.232662,
							ZeroY = 0.87472,
						},
					},
					CorrectionReferenceX = 0.419464,
					CorrectionReferenceY = 0.48434,
					LocalBrightness = 0,
					LocalClarity = 0,
					LocalClarity2012 = 0,
					LocalContrast = 0,
					LocalContrast2012 = 0,
					LocalExposure = 0.25,
					LocalExposure2012 = 0.153,
					LocalHighlights2012 = 0,
					LocalLuminanceNoise = 0,
					LocalMoire = 0,
					LocalSaturation = 0,
					LocalShadows2012 = 0,
					LocalSharpness = 0,
					LocalTemperature = 0,
					LocalTint = 0,
					LocalToningHue = 0,
					LocalToningSaturation = 0,
					What = "Correction",
				},
			},
			GrainAmount = 0,
			GrainFrequency = 50,
			GrainSize = 25,
			GreenHue = 0,
			GreenSaturation = 0,
			Highlights2012 = 0,
			HueAdjustmentAqua = 0,
			HueAdjustmentBlue = 0,
			HueAdjustmentGreen = 0,
			HueAdjustmentMagenta = 0,
			HueAdjustmentOrange = 0,
			HueAdjustmentPurple = 0,
			HueAdjustmentRed = 0,
			HueAdjustmentYellow = 0,
			IncrementalTemperature = 20,
			IncrementalTint = 0,
			LensManualDistortionAmount = 0,
			LensProfileEnable = 0,
			LensProfileSetup = "LensDefaults",
			LuminanceAdjustmentAqua = 0,
			LuminanceAdjustmentBlue = 0,
			LuminanceAdjustmentGreen = 0,
			LuminanceAdjustmentMagenta = 0,
			LuminanceAdjustmentOrange = 0,
			LuminanceAdjustmentPurple = 0,
			LuminanceAdjustmentRed = 0,
			LuminanceAdjustmentYellow = 0,
			LuminanceNoiseReductionContrast = 0,
			LuminanceNoiseReductionDetail = 50,
			LuminanceSmoothing = 0,
			ParametricDarks = 0,
			ParametricHighlightSplit = 75,
			ParametricHighlights = 0,
			ParametricLights = 0,
			ParametricMidtoneSplit = 50,
			ParametricShadowSplit = 25,
			ParametricShadows = 0,
			PerspectiveHorizontal = 0,
			PerspectiveRotate = 0,
			PerspectiveScale = 100,
			PerspectiveVertical = 0,
			PostCropVignetteAmount = 0,
			PostCropVignetteFeather = 50,
			PostCropVignetteHighlightContrast = 0,
			PostCropVignetteMidpoint = 50,
			PostCropVignetteRoundness = 0,
			PostCropVignetteStyle = 1,
			ProcessVersion = "6.7",
			RedHue = 0,
			RedSaturation = 0,
			Saturation = 0,
			SaturationAdjustmentAqua = 0,
			SaturationAdjustmentBlue = 0,
			SaturationAdjustmentGreen = 0,
			SaturationAdjustmentMagenta = 0,
			SaturationAdjustmentOrange = 0,
			SaturationAdjustmentPurple = 0,
			SaturationAdjustmentRed = 0,
			SaturationAdjustmentYellow = 0,
			ShadowTint = 0,
			Shadows2012 = 0,
			SharpenDetail = 25,
			SharpenEdgeMasking = 0,
			SharpenRadius = 1,
			Sharpness = 0,
			SplitToningBalance = 0,
			SplitToningHighlightHue = 33,
			SplitToningHighlightSaturation = 29,
			SplitToningShadowHue = 272,
			SplitToningShadowSaturation = 43,
			ToneCurveName2012 = "Linear",
			ToneCurvePV2012 = {
				0,
				0,
				255,
				255,
			},
			ToneCurvePV2012Blue = {
				0,
				0,
				255,
				255,
			},
			ToneCurvePV2012Green = {
				0,
				0,
				255,
				255,
			},
			ToneCurvePV2012Red = {
				0,
				0,
				255,
				255,
			},
			Vibrance = 0,
			VignetteAmount = 0,
			VignetteMidpoint = 50,
			WhiteBalance = "Custom",
			Whites2012 = -34,
			orientation = "AB",
		},
		uuid = "96B15215-050F-4FA1-A942-95A6668E4D75",
	},
	version = 0,
}
