1100 Lightroom Presets/CM 1100+ Lightroom Presets 320973/30 HDR Pro Lightroom Presets/HDR Effect 29.lrtemplate
s = {
	id = "64CBCB58-BA87-4391-A554-10C854ACC332",
	internalName = "HDR Effect 29",
	title = "HDR Effect 29",
	type = "Develop",
	value = {
		settings = {
			AutoLateralCA = 0,
			Blacks2012 = -29,
			BlueHue = 0,
			BlueSaturation = 0,
			CameraProfile = "Embedded",
			ChromaticAberrationB = 0,
			ChromaticAberrationR = 0,
			Clarity2012 = 60,
			ColorNoiseReduction = 0,
			ColorNoiseReductionDetail = 50,
			ColorNoiseReductionSmoothness = 50,
			Contrast2012 = -26,
			ConvertToGrayscale = true,
			CropConstrainToWarp = 0,
			Defringe = 0,
			DefringeGreenAmount = 0,
			DefringeGreenHueHi = 60,
			DefringeGreenHueLo = 40,
			DefringePurpleAmount = 0,
			DefringePurpleHueHi = 70,
			DefringePurpleHueLo = 30,
			EnableCalibration = false,
			EnableCircularGradientBasedCorrections = true,
			EnableDetail = false,
			EnableEffects = false,
			EnableGradientBasedCorrections = true,
			EnableGrayscaleMix = true,
			EnableLensCorrections = true,
			EnableSplitToning = true,
			Exposure2012 = -0.12,
			GradientBasedCorrections = {
				{
					CorrectionActive = true,
					CorrectionAmount = 1,
					CorrectionID = "63CA4EE9-9D0E-4D2E-B578-0ED40E9FE411",
					CorrectionMasks = {
						{
							FullX = 1.03148,
							FullY = 0.061005,
							MaskID = "98436349-4091-4453-9F94-19C2819D70C5",
							MaskValue = 1,
							What = "Mask/Gradient",
							ZeroX = 1.13727,
							ZeroY = 0.060946,
						},
					},
					CorrectionReferenceX = 1.08438,
					CorrectionReferenceY = 0.0609755,
					LocalBrightness = 0,
					LocalClarity = 0,
					LocalClarity2012 = 1,
					LocalContrast = 0,
					LocalContrast2012 = 0.14943,
					LocalDefringe = 0,
					LocalExposure = 0,
					LocalExposure2012 = 0.1725,
					LocalHighlights2012 = 0.21839,
					LocalLuminanceNoise = 0,
					LocalMoire = 0,
					LocalSaturation = 0,
					LocalShadows2012 = 0.24138,
					LocalSharpness = 1,
					LocalTemperature = 0,
					LocalTint = 0,
					LocalToningHue = 12,
					LocalToningSaturation = 0,
					What = "Correction",
				},
				{
					CorrectionActive = true,
					CorrectionAmount = 1,
					CorrectionID = "58E259BA-6F7A-4794-9EB8-98175AB855BC",
					CorrectionMasks = {
						{
							FullX = 0.194514,
							FullY = 0.686679,
							MaskID = "6F1BDAAF-83B1-4E48-B499-8E5FAC0C8234",
							MaskValue = 1,
							What = "Mask/Gradient",
							ZeroX = 0.047382,
							ZeroY = 0.883678,
						},
					},
					CorrectionReferenceX = 0.120948,
					CorrectionReferenceY = 0.785179,
					LocalBrightness = 0,
					LocalClarity = 0,
					LocalClarity2012 = 0.24138,
					LocalContrast = 0,
					LocalContrast2012 = -0.6092,
					LocalDefringe = 0,
					LocalExposure = 0,
					LocalExposure2012 = -0.0575,
					LocalHighlights2012 = 0,
					LocalLuminanceNoise = 0,
					LocalMoire = 0,
					LocalSaturation = 0,
					LocalShadows2012 = 0,
					LocalSharpness = 0,
					LocalTemperature = 0,
					LocalTint = 0,
					LocalToningHue = 0,
					LocalToningSaturation = 0,
					What = "Correction",
				},
			},
			GrainAmount = 0,
			GrainFrequency = 50,
			GrainSize = 25,
			GrayMixerAqua = -18,
			GrayMixerBlue = 8,
			GrayMixerGreen = -24,
			GrayMixerMagenta = 3,
			GrayMixerOrange = -16,
			GrayMixerPurple = 13,
			GrayMixerRed = -8,
			GrayMixerYellow = -19,
			GreenHue = 0,
			GreenSaturation = 0,
			Highlights2012 = 2,
			IncrementalTemperature = -5,
			IncrementalTint = -17,
			LensManualDistortionAmount = 0,
			LensProfileEnable = 0,
			LensProfileSetup = "LensDefaults",
			LuminanceNoiseReductionContrast = 0,
			LuminanceNoiseReductionDetail = 50,
			LuminanceSmoothing = 29,
			ParametricDarks = 0,
			ParametricHighlightSplit = 75,
			ParametricHighlights = 0,
			ParametricLights = 0,
			ParametricMidtoneSplit = 50,
			ParametricShadowSplit = 25,
			ParametricShadows = 0,
			PerspectiveAspect = 0,
			PerspectiveHorizontal = 0,
			PerspectiveRotate = 0,
			PerspectiveScale = 100,
			PerspectiveUpright = 0,
			PerspectiveVertical = 0,
			PostCropVignetteAmount = 0,
			PostCropVignetteFeather = 50,
			PostCropVignetteHighlightContrast = 0,
			PostCropVignetteMidpoint = 50,
			PostCropVignetteRoundness = 0,
			PostCropVignetteStyle = 1,
			ProcessVersion = "6.7",
			RedHue = 0,
			RedSaturation = 0,
			ShadowTint = 0,
			Shadows2012 = 48,
			SharpenDetail = 25,
			SharpenEdgeMasking = 0,
			SharpenRadius = 0.7,
			Sharpness = 150,
			SplitToningBalance = 0,
			SplitToningHighlightHue = 65,
			SplitToningHighlightSaturation = 0,
			SplitToningShadowHue = 255,
			SplitToningShadowSaturation = 0,
			ToneCurveName2012 = "Custom",
			ToneCurvePV2012 = {
				11,
				31,
				115,
				124,
				255,
				255,
			},
			ToneCurvePV2012Blue = {
				0,
				0,
				255,
				255,
			},
			ToneCurvePV2012Green = {
				0,
				0,
				255,
				255,
			},
			ToneCurvePV2012Red = {
				0,
				0,
				255,
				255,
			},
			VignetteAmount = 0,
			VignetteMidpoint = 50,
			WhiteBalance = "Custom",
			Whites2012 = 0,
			orientation = "AB",
		},
		uuid = "AB14A06A-5E89-41CF-BA85-7FE1420BD605",
	},
	version = 0,
}
