CM 600 Lightroom Presets Bundle Vol  2 52062/30 Wedding Photography Pro Presets V-2/Wedding Effect 15.lrtemplate
s = {
	id = "315D0F46-A8EF-4875-9E70-F4252143CF6F",
	internalName = "Effect 15",
	title = "Wedding Effect 15",
	type = "Develop",
	value = {
		settings = {
			AutoLateralCA = 0,
			Blacks2012 = -37,
			BlueHue = 0,
			BlueSaturation = 0,
			CameraProfile = "Embedded",
			ChromaticAberrationB = 0,
			ChromaticAberrationR = 0,
			Clarity2012 = 32,
			ColorNoiseReduction = 0,
			ColorNoiseReductionDetail = 50,
			Contrast2012 = 37,
			ConvertToGrayscale = true,
			CropConstrainToWarp = 0,
			Defringe = 0,
			EnableCalibration = true,
			EnableDetail = true,
			EnableEffects = true,
			EnableGradientBasedCorrections = true,
			EnableGrayscaleMix = true,
			EnableLensCorrections = true,
			EnableSplitToning = true,
			Exposure2012 = 0.98,
			GrainAmount = 0,
			GrainFrequency = 50,
			GrainSize = 25,
			GrayMixerAqua = -18,
			GrayMixerBlue = 9,
			GrayMixerGreen = -27,
			GrayMixerMagenta = 4,
			GrayMixerOrange = -19,
			GrayMixerPurple = 15,
			GrayMixerRed = -10,
			GrayMixerYellow = -23,
			GreenHue = 0,
			GreenSaturation = 0,
			Highlights2012 = -100,
			LensManualDistortionAmount = 0,
			LensProfileEnable = 0,
			LensProfileSetup = "LensDefaults",
			LuminanceNoiseReductionContrast = 100,
			LuminanceNoiseReductionDetail = 95,
			LuminanceSmoothing = 62,
			ParametricDarks = 0,
			ParametricHighlightSplit = 75,
			ParametricHighlights = 0,
			ParametricLights = 0,
			ParametricMidtoneSplit = 50,
			ParametricShadowSplit = 25,
			ParametricShadows = 0,
			PerspectiveHorizontal = 0,
			PerspectiveRotate = 0,
			PerspectiveScale = 100,
			PerspectiveVertical = 0,
			PostCropVignetteAmount = 0,
			PostCropVignetteFeather = 50,
			PostCropVignetteHighlightContrast = 0,
			PostCropVignetteMidpoint = 50,
			PostCropVignetteRoundness = 0,
			PostCropVignetteStyle = 1,
			ProcessVersion = "6.7",
			RedHue = 0,
			RedSaturation = 0,
			ShadowTint = 0,
			Shadows2012 = -68,
			SharpenDetail = 0,
			SharpenEdgeMasking = 0,
			SharpenRadius = 0.5,
			Sharpness = 49,
			SplitToningBalance = 0,
			SplitToningHighlightHue = 53,
			SplitToningHighlightSaturation = 0,
			SplitToningShadowHue = 0,
			SplitToningShadowSaturation = 0,
			ToneCurveName2012 = "Linear",
			ToneCurvePV2012 = {
				0,
				0,
				255,
				255,
			},
			ToneCurvePV2012Blue = {
				0,
				0,
				255,
				255,
			},
			ToneCurvePV2012Green = {
				0,
				0,
				255,
				255,
			},
			ToneCurvePV2012Red = {
				0,
				0,
				255,
				255,
			},
			VignetteAmount = 0,
			VignetteMidpoint = 50,
			WhiteBalance = "As Shot",
			Whites2012 = -100,
			orientation = "AB",
		},
		uuid = "6A24FBC5-CE3F-4AB7-AF31-AF3BE5051F9A",
	},
	version = 0,
}
