CM - Hazelnut Lightroom Presets 302469/Hazelnut Lightroom Presets/A Sunny Touch.lrtemplate
s = {
	id = "E1919970-CEF3-4F06-8F9A-E4C8670368C9",
	internalName = "A Surprising Touch",
	title = "A Sunny Touch",
	type = "Develop",
	value = {
		settings = {
			AutoBrightness = false,
			AutoContrast = false,
			AutoExposure = false,
			AutoLateralCA = 0,
			AutoShadows = false,
			BlueHue = 0,
			BlueSaturation = 0,
			Brightness = 65,
			CameraProfile = "Matrix",
			ChromaticAberrationB = 0,
			ChromaticAberrationR = 0,
			Clarity = 0,
			ColorNoiseReduction = 25,
			ColorNoiseReductionDetail = 44,
			Contrast = -28,
			ConvertToGrayscale = false,
			Defringe = 0,
			DefringeGreenAmount = 0,
			DefringeGreenHueHi = 60,
			DefringeGreenHueLo = 40,
			DefringePurpleAmount = 0,
			DefringePurpleHueHi = 70,
			DefringePurpleHueLo = 30,
			EnableCalibration = true,
			EnableColorAdjustments = true,
			EnableDetail = true,
			EnableEffects = true,
			EnableGradientBasedCorrections = true,
			EnableLensCorrections = true,
			EnableSplitToning = true,
			Exposure = 0,
			FillLight = 25,
			GradientBasedCorrections = {
				{
					CorrectionActive = true,
					CorrectionAmount = 1,
					CorrectionID = "F3BB27AD-D7B3-4286-AC49-DB777B7CE402",
					CorrectionMasks = {
						{
							FullX = 0.525687,
							FullY = 0.112802,
							MaskID = "B80A5F40-31E8-4DB5-8542-16DE156987FB",
							MaskValue = 1,
							What = "Mask/Gradient",
							ZeroX = 0.528076,
							ZeroY = 0.520143,
						},
					},
					CorrectionReferenceX = 0.526882,
					CorrectionReferenceY = 0.316472,
					LocalBrightness = 0,
					LocalClarity = 0,
					LocalClarity2012 = 0,
					LocalContrast = 0,
					LocalContrast2012 = 0,
					LocalDefringe = 0,
					LocalExposure = 0,
					LocalExposure2012 = -0.250085,
					LocalHighlights2012 = 0,
					LocalLuminanceNoise = 0,
					LocalMoire = 0,
					LocalSaturation = 0,
					LocalShadows2012 = 0,
					LocalSharpness = 0,
					LocalTemperature = 0,
					LocalTint = 0,
					LocalToningHue = 205.09,
					LocalToningSaturation = 0.249531,
					What = "Correction",
				},
			},
			GrainAmount = 5,
			GrainFrequency = 50,
			GrainSize = 25,
			GreenHue = 7,
			GreenSaturation = 0,
			HighlightRecovery = 44,
			HueAdjustmentAqua = 0,
			HueAdjustmentBlue = 0,
			HueAdjustmentGreen = 0,
			HueAdjustmentMagenta = 0,
			HueAdjustmentOrange = 0,
			HueAdjustmentPurple = 0,
			HueAdjustmentRed = 0,
			HueAdjustmentYellow = 0,
			IncrementalTemperature = 17,
			IncrementalTint = -2,
			LuminanceAdjustmentAqua = -6,
			LuminanceAdjustmentBlue = -55,
			LuminanceAdjustmentGreen = 0,
			LuminanceAdjustmentMagenta = 0,
			LuminanceAdjustmentOrange = 31,
			LuminanceAdjustmentPurple = 13,
			LuminanceAdjustmentRed = 43,
			LuminanceAdjustmentYellow = 0,
			LuminanceNoiseReductionContrast = 0,
			LuminanceNoiseReductionDetail = 50,
			LuminanceSmoothing = 0,
			ParametricDarks = 0,
			ParametricHighlightSplit = 75,
			ParametricHighlights = 0,
			ParametricLights = 0,
			ParametricMidtoneSplit = 50,
			ParametricShadowSplit = 25,
			ParametricShadows = 0,
			PostCropVignetteAmount = -34,
			PostCropVignetteFeather = 49,
			PostCropVignetteHighlightContrast = 7,
			PostCropVignetteMidpoint = 50,
			PostCropVignetteRoundness = 0,
			PostCropVignetteStyle = 1,
			ProcessVersion = "5.7",
			RedHue = -9,
			RedSaturation = -16,
			Saturation = -27,
			SaturationAdjustmentAqua = 0,
			SaturationAdjustmentBlue = 0,
			SaturationAdjustmentGreen = 0,
			SaturationAdjustmentMagenta = 0,
			SaturationAdjustmentOrange = 0,
			SaturationAdjustmentPurple = 0,
			SaturationAdjustmentRed = 0,
			SaturationAdjustmentYellow = 0,
			ShadowTint = 0,
			Shadows = 5,
			SharpenDetail = 25,
			SharpenEdgeMasking = 0,
			SharpenRadius = 1,
			Sharpness = 25,
			SplitToningBalance = -33,
			SplitToningHighlightHue = 47,
			SplitToningHighlightSaturation = 80,
			SplitToningShadowHue = 233,
			SplitToningShadowSaturation = 14,
			ToneCurve = {
				0,
				0,
				32,
				16,
				64,
				50,
				128,
				128,
				192,
				202,
				255,
				255,
			},
			ToneCurveName = "Strong Contrast",
			Vibrance = 0,
			VignetteAmount = 0,
			VignetteMidpoint = 50,
			WhiteBalance = "Custom",
			orientation = "AB",
		},
		uuid = "EFB90DD2-17E5-4CCE-96D5-07BE62426F7E",
	},
	version = 0,
}
