CM - Hazelnut Lightroom Presets 302469/Hazelnut Lightroom Presets/Fairytale.lrtemplate
s = {
	id = "FF2A5B24-57CE-49EA-8662-D3968BA8ADD4",
	internalName = "Matt's Wedding Fairytale",
	title = "Fairytale",
	type = "Develop",
	value = {
		settings = {
			AutoBrightness = false,
			AutoContrast = false,
			AutoExposure = false,
			AutoShadows = false,
			Brightness = 45,
			Clarity = 19,
			Contrast = 31,
			ConvertToGrayscale = false,
			EnableColorAdjustments = true,
			EnableVignettes = true,
			Exposure = 0.34,
			FillLight = 2,
			HighlightRecovery = 5,
			HueAdjustmentAqua = 0,
			HueAdjustmentBlue = 0,
			HueAdjustmentGreen = 0,
			HueAdjustmentMagenta = 0,
			HueAdjustmentOrange = 0,
			HueAdjustmentPurple = 0,
			HueAdjustmentRed = 0,
			HueAdjustmentYellow = 0,
			IncrementalTemperature = 47,
			IncrementalTint = 18,
			LuminanceAdjustmentAqua = 0,
			LuminanceAdjustmentBlue = 0,
			LuminanceAdjustmentGreen = 0,
			LuminanceAdjustmentMagenta = 0,
			LuminanceAdjustmentOrange = 12,
			LuminanceAdjustmentPurple = 0,
			LuminanceAdjustmentRed = 0,
			LuminanceAdjustmentYellow = 14,
			ParametricDarks = -7,
			ParametricHighlightSplit = 75,
			ParametricHighlights = 6,
			ParametricLights = 1,
			ParametricMidtoneSplit = 50,
			ParametricShadowSplit = 25,
			ParametricShadows = -13,
			PostCropVignetteAmount = -5,
			PostCropVignetteFeather = 50,
			PostCropVignetteMidpoint = 50,
			PostCropVignetteRoundness = 0,
			Saturation = -67,
			SaturationAdjustmentAqua = 0,
			SaturationAdjustmentBlue = 0,
			SaturationAdjustmentGreen = 0,
			SaturationAdjustmentMagenta = 0,
			SaturationAdjustmentOrange = 0,
			SaturationAdjustmentPurple = 0,
			SaturationAdjustmentRed = 0,
			SaturationAdjustmentYellow = 0,
			Shadows = 12,
			ToneCurve = {
				0,
				0,
				255,
				255,
			},
			ToneCurveName = "Linear",
			Vibrance = 3,
			VignetteAmount = -56,
			VignetteMidpoint = 27,
			WhiteBalance = "Custom",
		},
		uuid = "C31B3EA7-7C0E-4159-9FAE-983E46C1DD85",
	},
	version = 0,
}
