CM - Hazelnut Lightroom Presets 302469/Hazelnut Lightroom Presets/Washedlove 1.lrtemplate
s = {
	id = "75CE80B4-6A91-4A8D-A92A-F81BC2277996",
	internalName = "C+V_WarmOld_1",
	title = "Washedlove 1",
	type = "Develop",
	value = {
		settings = {
			ConvertToGrayscale = false,
			EnableColorAdjustments = true,
			EnableEffects = true,
			EnableSplitToning = true,
			GrainAmount = 30,
			GrainFrequency = 23,
			GrainSize = 67,
			HueAdjustmentAqua = 0,
			HueAdjustmentBlue = -38,
			HueAdjustmentGreen = 0,
			HueAdjustmentMagenta = 0,
			HueAdjustmentOrange = 0,
			HueAdjustmentPurple = 0,
			HueAdjustmentRed = 0,
			HueAdjustmentYellow = 0,
			LuminanceAdjustmentAqua = -20,
			LuminanceAdjustmentBlue = -35,
			LuminanceAdjustmentGreen = 0,
			LuminanceAdjustmentMagenta = 0,
			LuminanceAdjustmentOrange = 0,
			LuminanceAdjustmentPurple = 0,
			LuminanceAdjustmentRed = 0,
			LuminanceAdjustmentYellow = 0,
			ParametricDarks = -50,
			ParametricHighlightSplit = 70,
			ParametricHighlights = -50,
			ParametricLights = 35,
			ParametricMidtoneSplit = 40,
			ParametricShadowSplit = 20,
			ParametricShadows = 0,
			PostCropVignetteAmount = -13,
			PostCropVignetteFeather = 100,
			PostCropVignetteHighlightContrast = 63,
			PostCropVignetteMidpoint = 0,
			PostCropVignetteRoundness = 0,
			PostCropVignetteStyle = 1,
			ProcessVersion = "6.7",
			Saturation = 0,
			SaturationAdjustmentAqua = -23,
			SaturationAdjustmentBlue = -44,
			SaturationAdjustmentGreen = 0,
			SaturationAdjustmentMagenta = 0,
			SaturationAdjustmentOrange = -20,
			SaturationAdjustmentPurple = 0,
			SaturationAdjustmentRed = -20,
			SaturationAdjustmentYellow = 0,
			SplitToningBalance = 0,
			SplitToningHighlightHue = 0,
			SplitToningHighlightSaturation = 0,
			SplitToningShadowHue = 228,
			SplitToningShadowSaturation = 20,
			ToneCurveName2012 = "Custom",
			ToneCurvePV2012 = {
				0,
				52,
				128,
				128,
				255,
				253,
			},
			ToneCurvePV2012Blue = {
				0,
				0,
				57,
				63,
				124,
				139,
				208,
				202,
				255,
				224,
			},
			ToneCurvePV2012Green = {
				0,
				4,
				74,
				67,
				118,
				143,
				255,
				242,
			},
			ToneCurvePV2012Red = {
				0,
				20,
				68,
				61,
				114,
				146,
				182,
				206,
				255,
				255,
			},
			Vibrance = 0,
		},
		uuid = "1EAF32F7-28D6-4A9F-9DA9-2D42A212B247",
	},
	version = 0,
}
