CM 200+ All Seasons presets 181273/Pastel Presets Autumn/AutumnLight.lrtemplate
s = {
	id = "E8A51052-CE31-4B70-9836-344D00AFC66B",
	internalName = "AutumnColors",
	title = "AutumnLight",
	type = "Develop",
	value = {
		settings = {
			AutoLateralCA = 0,
			Blacks2012 = 0,
			BlueHue = 0,
			BlueSaturation = 0,
			CameraProfile = "Embedded",
			ChromaticAberrationB = 0,
			ChromaticAberrationR = 0,
			CircularGradientBasedCorrections = {
				{
					CorrectionActive = true,
					CorrectionAmount = 1,
					CorrectionID = "D460DA1A-EFDA-4ABD-84BD-CD5D8C19EFE0",
					CorrectionMasks = {
						{
							Angle = 0,
							Bottom = 0.486143,
							Feather = 63,
							Flipped = true,
							Left = 0.385723,
							MaskID = "FDA7DC4D-1B37-474E-A07E-DF25750D60BC",
							MaskValue = 1,
							Midpoint = 50,
							Right = 0.45504,
							Roundness = 0,
							Top = 0.406839,
							Version = 2,
							What = "Mask/CircularGradient",
						},
					},
					CorrectionReferenceX = 0.420381,
					CorrectionReferenceY = 0.446491,
					LocalBrightness = 0,
					LocalClarity = 0,
					LocalClarity2012 = 0,
					LocalContrast = 0,
					LocalContrast2012 = 0,
					LocalDefringe = 0,
					LocalExposure = 0,
					LocalExposure2012 = 0.066125,
					LocalHighlights2012 = 0,
					LocalLuminanceNoise = 0,
					LocalMoire = 0,
					LocalSaturation = 0,
					LocalShadows2012 = 0.441891,
					LocalSharpness = 0,
					LocalTemperature = 0,
					LocalTint = 0,
					LocalToningHue = 240,
					LocalToningSaturation = 0,
					What = "Correction",
				},
				{
					CorrectionActive = true,
					CorrectionAmount = 1,
					CorrectionID = "48D3E460-15AA-463F-82C0-896A257690DB",
					CorrectionMasks = {
						{
							Angle = 0,
							Bottom = 0.676511,
							Feather = 63,
							Flipped = true,
							Left = 0.531683,
							MaskID = "AD915C49-446F-43A3-8EDB-B3711B7E20EB",
							MaskValue = 1,
							Midpoint = 50,
							Right = 0.59792,
							Roundness = 0,
							Top = 0.60495,
							Version = 2,
							What = "Mask/CircularGradient",
						},
					},
					CorrectionReferenceX = 0.564801,
					CorrectionReferenceY = 0.64073,
					LocalBrightness = 0,
					LocalClarity = 0,
					LocalClarity2012 = 0,
					LocalContrast = 0,
					LocalContrast2012 = 0,
					LocalDefringe = 0,
					LocalExposure = 0,
					LocalExposure2012 = 0.084048,
					LocalHighlights2012 = 0,
					LocalLuminanceNoise = 0,
					LocalMoire = 0,
					LocalSaturation = 0,
					LocalShadows2012 = 0.434028,
					LocalSharpness = 0,
					LocalTemperature = 0,
					LocalTint = 0,
					LocalToningHue = 240,
					LocalToningSaturation = 0,
					What = "Correction",
				},
			},
			Clarity2012 = 40,
			ColorNoiseReduction = 25,
			ColorNoiseReductionDetail = 50,
			ColorNoiseReductionSmoothness = 50,
			Contrast2012 = 14,
			ConvertToGrayscale = false,
			CropConstrainToWarp = 0,
			Defringe = 0,
			DefringeGreenAmount = 0,
			DefringeGreenHueHi = 60,
			DefringeGreenHueLo = 40,
			DefringePurpleAmount = 0,
			DefringePurpleHueHi = 70,
			DefringePurpleHueLo = 30,
			EnableCalibration = true,
			EnableCircularGradientBasedCorrections = true,
			EnableColorAdjustments = true,
			EnableDetail = true,
			EnableEffects = true,
			EnableGradientBasedCorrections = true,
			EnableLensCorrections = true,
			EnableSplitToning = true,
			Exposure2012 = 0.9,
			GradientBasedCorrections = {
				{
					CorrectionActive = true,
					CorrectionAmount = 1,
					CorrectionID = "F418034C-F1D3-4E7E-B439-5A93751106A2",
					CorrectionMasks = {
						{
							FullX = 0.129059,
							FullY = 0.387804,
							MaskID = "80091D33-442D-4C43-98A4-66BD3844C985",
							MaskValue = 1,
							What = "Mask/Gradient",
							ZeroX = 0.842714,
							ZeroY = 0.366073,
						},
					},
					CorrectionReferenceX = 0.485886,
					CorrectionReferenceY = 0.376938,
					LocalBrightness = 0,
					LocalClarity = 0,
					LocalClarity2012 = -0.171773,
					LocalContrast = 0,
					LocalContrast2012 = -0.026859,
					LocalDefringe = 0,
					LocalExposure = 0,
					LocalExposure2012 = 0.175756,
					LocalHighlights2012 = 0,
					LocalLuminanceNoise = 0,
					LocalMoire = 0,
					LocalSaturation = 0.145731,
					LocalShadows2012 = 0.227635,
					LocalSharpness = -0.158701,
					LocalTemperature = 0.281863,
					LocalTint = 0,
					LocalToningHue = 240,
					LocalToningSaturation = 0,
					What = "Correction",
				},
			},
			GrainAmount = 0,
			GrainFrequency = 50,
			GrainSize = 25,
			GreenHue = 0,
			GreenSaturation = 0,
			Highlights2012 = 32,
			HueAdjustmentAqua = 0,
			HueAdjustmentBlue = 0,
			HueAdjustmentGreen = -19,
			HueAdjustmentMagenta = 0,
			HueAdjustmentOrange = -17,
			HueAdjustmentPurple = 0,
			HueAdjustmentRed = 0,
			HueAdjustmentYellow = -9,
			LensManualDistortionAmount = 0,
			LensProfileEnable = 0,
			LensProfileSetup = "LensDefaults",
			LuminanceAdjustmentAqua = 0,
			LuminanceAdjustmentBlue = -16,
			LuminanceAdjustmentGreen = 0,
			LuminanceAdjustmentMagenta = -16,
			LuminanceAdjustmentOrange = -43,
			LuminanceAdjustmentPurple = -15,
			LuminanceAdjustmentRed = -30,
			LuminanceAdjustmentYellow = -47,
			LuminanceNoiseReductionContrast = 0,
			LuminanceNoiseReductionDetail = 50,
			LuminanceSmoothing = 21,
			ParametricDarks = 0,
			ParametricHighlightSplit = 75,
			ParametricHighlights = 0,
			ParametricLights = 0,
			ParametricMidtoneSplit = 50,
			ParametricShadowSplit = 25,
			ParametricShadows = 0,
			PerspectiveAspect = 0,
			PerspectiveHorizontal = 0,
			PerspectiveRotate = 0,
			PerspectiveScale = 100,
			PerspectiveUpright = 0,
			PerspectiveVertical = 0,
			PostCropVignetteAmount = -16,
			PostCropVignetteFeather = 50,
			PostCropVignetteHighlightContrast = 0,
			PostCropVignetteMidpoint = 20,
			PostCropVignetteRoundness = -25,
			PostCropVignetteStyle = 1,
			ProcessVersion = "6.7",
			RedHue = 0,
			RedSaturation = 0,
			Saturation = 0,
			SaturationAdjustmentAqua = 0,
			SaturationAdjustmentBlue = 0,
			SaturationAdjustmentGreen = 0,
			SaturationAdjustmentMagenta = 0,
			SaturationAdjustmentOrange = 30,
			SaturationAdjustmentPurple = 0,
			SaturationAdjustmentRed = 5,
			SaturationAdjustmentYellow = 30,
			ShadowTint = 0,
			Shadows2012 = 0,
			SharpenDetail = 25,
			SharpenEdgeMasking = 0,
			SharpenRadius = 1,
			Sharpness = 25,
			SplitToningBalance = 33,
			SplitToningHighlightHue = 53,
			SplitToningHighlightSaturation = 12,
			SplitToningShadowHue = 4,
			SplitToningShadowSaturation = 9,
			ToneCurveName2012 = "Custom",
			ToneCurvePV2012 = {
				47,
				62,
				255,
				255,
			},
			ToneCurvePV2012Blue = {
				0,
				0,
				64,
				82,
				156,
				157,
				255,
				255,
			},
			ToneCurvePV2012Green = {
				3,
				0,
				91,
				86,
				157,
				157,
				255,
				255,
			},
			ToneCurvePV2012Red = {
				0,
				0,
				72,
				61,
				159,
				160,
				255,
				255,
			},
			Vibrance = 15,
			VignetteAmount = 0,
			VignetteMidpoint = 50,
			WhiteBalance = "As Shot",
			Whites2012 = 25,
			orientation = "AB",
		},
		uuid = "5931350E-E248-4848-B8EC-6D113B3CC39F",
	},
	version = 0,
}
