CM 200+ All Seasons presets 181273/Pastel Presets Autumn/AutumnSun.lrtemplate
s = {
	id = "E433D8C2-1FC4-4BEA-BD11-26004971DD69",
	internalName = "AutumnSun",
	title = "AutumnSun",
	type = "Develop",
	value = {
		settings = {
			AutoLateralCA = 0,
			Blacks2012 = 18,
			BlueHue = 0,
			BlueSaturation = 0,
			CameraProfile = "Embedded",
			ChromaticAberrationB = 0,
			ChromaticAberrationR = 0,
			Clarity2012 = 23,
			ColorNoiseReduction = 0,
			ColorNoiseReductionDetail = 50,
			ColorNoiseReductionSmoothness = 50,
			Contrast2012 = 0,
			ConvertToGrayscale = false,
			CropConstrainToWarp = 0,
			Defringe = 0,
			DefringeGreenAmount = 0,
			DefringeGreenHueHi = 60,
			DefringeGreenHueLo = 40,
			DefringePurpleAmount = 0,
			DefringePurpleHueHi = 70,
			DefringePurpleHueLo = 30,
			EnableCalibration = true,
			EnableCircularGradientBasedCorrections = true,
			EnableColorAdjustments = true,
			EnableDetail = true,
			EnableEffects = true,
			EnableGradientBasedCorrections = true,
			EnableLensCorrections = true,
			EnableSplitToning = true,
			Exposure2012 = 0.3,
			GradientBasedCorrections = {
				{
					CorrectionActive = true,
					CorrectionAmount = 1,
					CorrectionID = "F418034C-F1D3-4E7E-B439-5A93751106A2",
					CorrectionMasks = {
						{
							FullX = 0.612196,
							FullY = 0.129059,
							MaskID = "80091D33-442D-4C43-98A4-66BD3844C985",
							MaskValue = 1,
							What = "Mask/Gradient",
							ZeroX = 0.633927,
							ZeroY = 0.842714,
						},
					},
					CorrectionReferenceX = 0.623061,
					CorrectionReferenceY = 0.485886,
					LocalBrightness = 0,
					LocalClarity = 0,
					LocalClarity2012 = -0.171773,
					LocalContrast = 0,
					LocalContrast2012 = -0.165441,
					LocalDefringe = 0,
					LocalExposure = 0,
					LocalExposure2012 = 0.30142,
					LocalHighlights2012 = 0,
					LocalLuminanceNoise = 0,
					LocalMoire = 0,
					LocalSaturation = 0.145731,
					LocalShadows2012 = 0.227635,
					LocalSharpness = -0.158701,
					LocalTemperature = 0.133323,
					LocalTint = 0,
					LocalToningHue = 240,
					LocalToningSaturation = 0,
					What = "Correction",
				},
			},
			GrainAmount = 0,
			GrainFrequency = 50,
			GrainSize = 25,
			GreenHue = 0,
			GreenSaturation = 0,
			Highlights2012 = 0,
			HueAdjustmentAqua = 13,
			HueAdjustmentBlue = 1,
			HueAdjustmentGreen = 0,
			HueAdjustmentMagenta = 0,
			HueAdjustmentOrange = 0,
			HueAdjustmentPurple = 0,
			HueAdjustmentRed = 0,
			HueAdjustmentYellow = 0,
			LensManualDistortionAmount = 0,
			LensProfileEnable = 0,
			LensProfileSetup = "LensDefaults",
			LuminanceAdjustmentAqua = 8,
			LuminanceAdjustmentBlue = 9,
			LuminanceAdjustmentGreen = 0,
			LuminanceAdjustmentMagenta = 0,
			LuminanceAdjustmentOrange = -13,
			LuminanceAdjustmentPurple = 0,
			LuminanceAdjustmentRed = -13,
			LuminanceAdjustmentYellow = 0,
			LuminanceNoiseReductionContrast = 0,
			LuminanceNoiseReductionDetail = 50,
			LuminanceSmoothing = 0,
			ParametricDarks = 0,
			ParametricHighlightSplit = 75,
			ParametricHighlights = 0,
			ParametricLights = 0,
			ParametricMidtoneSplit = 50,
			ParametricShadowSplit = 25,
			ParametricShadows = 0,
			PerspectiveAspect = 0,
			PerspectiveHorizontal = 0,
			PerspectiveRotate = 0,
			PerspectiveScale = 100,
			PerspectiveUpright = 0,
			PerspectiveVertical = 0,
			PostCropVignetteAmount = -25,
			PostCropVignetteFeather = 50,
			PostCropVignetteHighlightContrast = 0,
			PostCropVignetteMidpoint = 27,
			PostCropVignetteRoundness = -5,
			PostCropVignetteStyle = 1,
			ProcessVersion = "6.7",
			RedHue = 0,
			RedSaturation = 0,
			Saturation = 0,
			SaturationAdjustmentAqua = 10,
			SaturationAdjustmentBlue = 10,
			SaturationAdjustmentGreen = 0,
			SaturationAdjustmentMagenta = 0,
			SaturationAdjustmentOrange = 15,
			SaturationAdjustmentPurple = 0,
			SaturationAdjustmentRed = 19,
			SaturationAdjustmentYellow = 0,
			ShadowTint = 0,
			Shadows2012 = 41,
			SharpenDetail = 25,
			SharpenEdgeMasking = 0,
			SharpenRadius = 1,
			Sharpness = 0,
			SplitToningBalance = 0,
			SplitToningHighlightHue = 85,
			SplitToningHighlightSaturation = 15,
			SplitToningShadowHue = 231,
			SplitToningShadowSaturation = 19,
			Temperature = 5590,
			Tint = 10,
			ToneCurveName2012 = "Custom",
			ToneCurvePV2012 = {
				0,
				27,
				63,
				63,
				118,
				110,
				255,
				255,
			},
			ToneCurvePV2012Blue = {
				0,
				0,
				255,
				255,
			},
			ToneCurvePV2012Green = {
				0,
				0,
				255,
				255,
			},
			ToneCurvePV2012Red = {
				0,
				0,
				255,
				255,
			},
			Vibrance = 29,
			VignetteAmount = 0,
			VignetteMidpoint = 50,
			WhiteBalance = "Custom",
			Whites2012 = 0,
			orientation = "DA",
		},
		uuid = "09E80FB4-C646-4C91-A72F-ACA8D79FE4E9",
	},
	version = 0,
}
