wswd/Pair pastel 1.lrtemplate
s = {
	id = "80EAD0CE-C810-4410-82AE-DD2BAB0A0873",
	internalName = "Pair pastel 1",
	title = "Pair pastel 1",
	type = "Develop",
	value = {
		settings = {
			AutoLateralCA = 1,
			Blacks2012 = -50,
			BlueHue = 0,
			BlueSaturation = 0,
			CameraProfile = "Embedded",
			ChromaticAberrationB = 0,
			ChromaticAberrationR = 0,
			Clarity2012 = 6,
			ColorNoiseReduction = 25,
			ColorNoiseReductionDetail = 50,
			ColorNoiseReductionSmoothness = 50,
			Contrast2012 = -5,
			ConvertToGrayscale = false,
			Defringe = 0,
			DefringeGreenAmount = 0,
			DefringeGreenHueHi = 60,
			DefringeGreenHueLo = 40,
			DefringePurpleAmount = 9,
			DefringePurpleHueHi = 64,
			DefringePurpleHueLo = 44,
			EnableCalibration = true,
			EnableColorAdjustments = true,
			EnableDetail = true,
			EnableEffects = true,
			EnableLensCorrections = true,
			EnableSplitToning = true,
			Exposure2012 = 0.66,
			GrainAmount = 11,
			GrainFrequency = 50,
			GrainSize = 5,
			GreenHue = 0,
			GreenSaturation = 0,
			Highlights2012 = -70,
			HueAdjustmentAqua = 0,
			HueAdjustmentBlue = 0,
			HueAdjustmentGreen = 17,
			HueAdjustmentMagenta = 0,
			HueAdjustmentOrange = 11,
			HueAdjustmentPurple = 0,
			HueAdjustmentRed = -84,
			HueAdjustmentYellow = 64,
			IncrementalTemperature = 25,
			IncrementalTint = -5,
			LuminanceAdjustmentAqua = 0,
			LuminanceAdjustmentBlue = 0,
			LuminanceAdjustmentGreen = 0,
			LuminanceAdjustmentMagenta = 0,
			LuminanceAdjustmentOrange = 34,
			LuminanceAdjustmentPurple = 0,
			LuminanceAdjustmentRed = 9,
			LuminanceAdjustmentYellow = 0,
			LuminanceNoiseReductionContrast = 0,
			LuminanceNoiseReductionDetail = 50,
			LuminanceSmoothing = 25,
			ParametricDarks = 0,
			ParametricHighlightSplit = 75,
			ParametricHighlights = 0,
			ParametricLights = 0,
			ParametricMidtoneSplit = 50,
			ParametricShadowSplit = 25,
			ParametricShadows = 0,
			PostCropVignetteAmount = -13,
			PostCropVignetteFeather = 50,
			PostCropVignetteHighlightContrast = 0,
			PostCropVignetteMidpoint = 50,
			PostCropVignetteRoundness = 0,
			PostCropVignetteStyle = 1,
			ProcessVersion = "6.7",
			RedHue = 0,
			RedSaturation = 0,
			Saturation = -10,
			SaturationAdjustmentAqua = 0,
			SaturationAdjustmentBlue = 0,
			SaturationAdjustmentGreen = 51,
			SaturationAdjustmentMagenta = 0,
			SaturationAdjustmentOrange = 14,
			SaturationAdjustmentPurple = 0,
			SaturationAdjustmentRed = 88,
			SaturationAdjustmentYellow = -56,
			ShadowTint = 0,
			Shadows2012 = -12,
			SharpenDetail = 25,
			SharpenEdgeMasking = 0,
			SharpenRadius = 1,
			Sharpness = 50,
			SplitToningBalance = 7,
			SplitToningHighlightHue = 262,
			SplitToningHighlightSaturation = 5,
			SplitToningShadowHue = 155,
			SplitToningShadowSaturation = 3,
			ToneCurveName2012 = "Custom",
			ToneCurvePV2012 = {
				0,
				40,
				52,
				61,
				152,
				147,
				255,
				255,
			},
			ToneCurvePV2012Blue = {
				0,
				0,
				255,
				255,
			},
			ToneCurvePV2012Green = {
				0,
				0,
				255,
				255,
			},
			ToneCurvePV2012Red = {
				0,
				0,
				255,
				255,
			},
			Vibrance = -12,
			VignetteAmount = 0,
			VignetteMidpoint = 50,
			WhiteBalance = "Custom",
			Whites2012 = -30,
		},
		uuid = "8F7F30F9-046E-4EF4-AE47-3077DB513E6F",
	},
	version = 0,
}
