CM 600 Lightroom Presets Bundle Vol  2 52062/100 Underwater Lightroom Presets/Underwater Effect 70.lrtemplate
s = {
	id = "BD430B18-9381-4C88-95C7-99AC0E21828C",
	internalName = "Underwater Effect 70",
	title = "Underwater Effect 70",
	type = "Develop",
	value = {
		settings = {
			AutoLateralCA = 0,
			Blacks2012 = 2,
			BlueHue = 0,
			BlueSaturation = 0,
			CameraProfile = "Embedded",
			ChromaticAberrationB = 0,
			ChromaticAberrationR = 0,
			Clarity2012 = 60,
			ColorNoiseReduction = 0,
			ColorNoiseReductionDetail = 50,
			ColorNoiseReductionSmoothness = 50,
			Contrast2012 = 0,
			ConvertToGrayscale = false,
			CropConstrainToWarp = 0,
			Defringe = 0,
			DefringeGreenAmount = 0,
			DefringeGreenHueHi = 60,
			DefringeGreenHueLo = 40,
			DefringePurpleAmount = 0,
			DefringePurpleHueHi = 70,
			DefringePurpleHueLo = 30,
			EnableCalibration = true,
			EnableCircularGradientBasedCorrections = true,
			EnableColorAdjustments = true,
			EnableDetail = true,
			EnableEffects = true,
			EnableGradientBasedCorrections = true,
			EnableLensCorrections = true,
			EnableSplitToning = false,
			Exposure2012 = 0,
			GrainAmount = 0,
			GrainFrequency = 50,
			GrainSize = 25,
			GreenHue = 0,
			GreenSaturation = 0,
			Highlights2012 = -79,
			HueAdjustmentAqua = 33,
			HueAdjustmentBlue = -100,
			HueAdjustmentGreen = 0,
			HueAdjustmentMagenta = 24,
			HueAdjustmentOrange = 0,
			HueAdjustmentPurple = -56,
			HueAdjustmentRed = 0,
			HueAdjustmentYellow = 0,
			IncrementalTemperature = 29,
			IncrementalTint = 0,
			LensManualDistortionAmount = 0,
			LensProfileEnable = 0,
			LensProfileSetup = "LensDefaults",
			LuminanceAdjustmentAqua = 0,
			LuminanceAdjustmentBlue = 0,
			LuminanceAdjustmentGreen = 0,
			LuminanceAdjustmentMagenta = 0,
			LuminanceAdjustmentOrange = 0,
			LuminanceAdjustmentPurple = 0,
			LuminanceAdjustmentRed = 0,
			LuminanceAdjustmentYellow = 0,
			LuminanceNoiseReductionContrast = 0,
			LuminanceNoiseReductionDetail = 50,
			LuminanceSmoothing = 0,
			ParametricDarks = 0,
			ParametricHighlightSplit = 75,
			ParametricHighlights = 0,
			ParametricLights = 0,
			ParametricMidtoneSplit = 50,
			ParametricShadowSplit = 25,
			ParametricShadows = 0,
			PerspectiveAspect = 0,
			PerspectiveHorizontal = 0,
			PerspectiveRotate = 0,
			PerspectiveScale = 100,
			PerspectiveUpright = 0,
			PerspectiveVertical = 0,
			PostCropVignetteAmount = -48,
			PostCropVignetteFeather = 50,
			PostCropVignetteHighlightContrast = 0,
			PostCropVignetteMidpoint = 74,
			PostCropVignetteRoundness = 0,
			PostCropVignetteStyle = 3,
			ProcessVersion = "6.7",
			RedHue = 0,
			RedSaturation = 0,
			Saturation = -12,
			SaturationAdjustmentAqua = 0,
			SaturationAdjustmentBlue = -84,
			SaturationAdjustmentGreen = 24,
			SaturationAdjustmentMagenta = 0,
			SaturationAdjustmentOrange = -13,
			SaturationAdjustmentPurple = 0,
			SaturationAdjustmentRed = -47,
			SaturationAdjustmentYellow = -36,
			ShadowTint = 0,
			Shadows2012 = 26,
			SharpenDetail = 0,
			SharpenEdgeMasking = 0,
			SharpenRadius = 1.4,
			Sharpness = 18,
			SplitToningBalance = 0,
			SplitToningHighlightHue = 154,
			SplitToningHighlightSaturation = 0,
			SplitToningShadowHue = 0,
			SplitToningShadowSaturation = 36,
			ToneCurveName2012 = "Custom",
			ToneCurvePV2012 = {
				0,
				31,
				138,
				133,
				255,
				255,
			},
			ToneCurvePV2012Blue = {
				0,
				0,
				114,
				139,
				249,
				249,
			},
			ToneCurvePV2012Green = {
				21,
				25,
				131,
				133,
				234,
				247,
			},
			ToneCurvePV2012Red = {
				0,
				0,
				255,
				255,
			},
			Vibrance = 33,
			VignetteAmount = 0,
			VignetteMidpoint = 50,
			WhiteBalance = "Custom",
			Whites2012 = 0,
			orientation = "AB",
		},
		uuid = "638FD6FE-633F-4BA7-B9E2-0F23E6E01C05",
	},
	version = 0,
}
