1100 Lightroom Presets/CM 1100+ Lightroom Presets 320973/50 Premium Matte Effect/Matte Effect 36.lrtemplate
s = {
	id = "E5D30FDD-41EA-4A56-B662-F62FED034260",
	internalName = "Effect 36",
	title = "Matte Effect 36",
	type = "Develop",
	value = {
		settings = {
			AutoLateralCA = 0,
			Blacks2012 = 50,
			BlueHue = -93,
			BlueSaturation = 0,
			CameraProfile = "Embedded",
			ChromaticAberrationB = 0,
			ChromaticAberrationR = 0,
			Clarity2012 = 60,
			ColorNoiseReduction = 0,
			ColorNoiseReductionDetail = 50,
			Contrast2012 = -36,
			ConvertToGrayscale = true,
			CropConstrainToWarp = 0,
			Defringe = 0,
			EnableCalibration = true,
			EnableDetail = true,
			EnableEffects = true,
			EnableGradientBasedCorrections = true,
			EnableGrayscaleMix = true,
			EnableLensCorrections = true,
			EnableSplitToning = true,
			Exposure2012 = 1.46,
			GradientBasedCorrections = {
				{
					CorrectionActive = true,
					CorrectionAmount = 1,
					CorrectionID = "A0A6359D-F938-4C5A-AC7F-9EDC4E970F44",
					CorrectionMasks = {
						{
							FullX = 1.0546,
							FullY = 0.530043,
							MaskID = "07FD7D64-BEA5-4FC1-B3BC-ECB1E35F91DA",
							MaskValue = 1,
							What = "Mask/Gradient",
							ZeroX = 0.353449,
							ZeroY = 0.527897,
						},
					},
					CorrectionReferenceX = 0.704025,
					CorrectionReferenceY = 0.52897,
					LocalBrightness = 0,
					LocalClarity = 0,
					LocalContrast = 0,
					LocalExposure = 0,
					LocalSaturation = 0,
					LocalSharpness = 0,
					LocalToningHue = 230,
					LocalToningSaturation = 0.555,
					What = "Correction",
				},
				{
					CorrectionActive = true,
					CorrectionAmount = 1,
					CorrectionID = "06BCCEDB-3A35-413F-AAFF-E5994B9347BD",
					CorrectionMasks = {
						{
							FullX = 1,
							FullY = 0.517167,
							MaskID = "6CBE477F-4FAE-4925-B76E-6F952D7E5AD8",
							MaskValue = 1,
							What = "Mask/Gradient",
							ZeroX = 0.928161,
							ZeroY = 0.517167,
						},
					},
					CorrectionReferenceX = 0.964081,
					CorrectionReferenceY = 0.517167,
					LocalBrightness = 0,
					LocalClarity = 0,
					LocalContrast = 0,
					LocalExposure = 0,
					LocalSaturation = 0,
					LocalSharpness = 0,
					LocalToningHue = 230,
					LocalToningSaturation = 0.233,
					What = "Correction",
				},
				{
					CorrectionActive = true,
					CorrectionAmount = 1,
					CorrectionID = "297D706D-C216-4736-9E38-9D9EE2DDA91C",
					CorrectionMasks = {
						{
							FullX = -0.104885,
							FullY = 0.495708,
							MaskID = "66189F2B-0175-434A-85DB-5561F793FB37",
							MaskValue = 1,
							What = "Mask/Gradient",
							ZeroX = 0.182471,
							ZeroY = 0.495708,
						},
					},
					CorrectionReferenceX = 0.038793,
					CorrectionReferenceY = 0.495708,
					LocalBrightness = 0,
					LocalClarity = 0,
					LocalContrast = 0,
					LocalExposure = 0,
					LocalSaturation = 0,
					LocalSharpness = 0,
					LocalToningHue = 230,
					LocalToningSaturation = 0.666,
					What = "Correction",
				},
				{
					CorrectionActive = true,
					CorrectionAmount = 1,
					CorrectionID = "1F389BF3-E66F-4861-B83A-0F404FE17892",
					CorrectionMasks = {
						{
							FullX = 0.479846,
							FullY = -0.014327,
							MaskID = "B48B00D6-0D3D-405E-BCF4-F11DA3B7A66C",
							MaskValue = 1,
							What = "Mask/Gradient",
							ZeroX = 0.479846,
							ZeroY = 0.203438,
						},
					},
					CorrectionReferenceX = 0.479846,
					CorrectionReferenceY = 0.0945555,
					LocalBrightness = 0,
					LocalClarity = 0,
					LocalContrast = 0,
					LocalExposure = 0,
					LocalSaturation = 0,
					LocalSharpness = 0,
					LocalToningHue = 230,
					LocalToningSaturation = 0.48,
					What = "Correction",
				},
				{
					CorrectionActive = true,
					CorrectionAmount = 1,
					CorrectionID = "8662E037-DFA0-431A-A36A-C790E0383CB4",
					CorrectionMasks = {
						{
							FullX = 0.512476,
							FullY = 1.12894,
							MaskID = "2F364F8F-5A33-4DB8-9B09-244ED75E5081",
							MaskValue = 1,
							What = "Mask/Gradient",
							ZeroX = 0.512476,
							ZeroY = 0.716333,
						},
					},
					CorrectionReferenceX = 0.512476,
					CorrectionReferenceY = 0.922637,
					LocalBrightness = 0,
					LocalClarity = 0,
					LocalContrast = 0,
					LocalExposure = 0,
					LocalSaturation = 0,
					LocalSharpness = 0,
					LocalToningHue = 230,
					LocalToningSaturation = 0.79,
					What = "Correction",
				},
			},
			GrainAmount = 0,
			GrainFrequency = 50,
			GrainSize = 25,
			GrayMixerAqua = -16,
			GrayMixerBlue = 12,
			GrayMixerGreen = -27,
			GrayMixerMagenta = 2,
			GrayMixerOrange = -20,
			GrayMixerPurple = 16,
			GrayMixerRed = -11,
			GrayMixerYellow = -24,
			GreenHue = 2,
			GreenSaturation = -46,
			Highlights2012 = -100,
			IncrementalTemperature = 0,
			IncrementalTint = 0,
			LensManualDistortionAmount = 0,
			LensProfileEnable = 0,
			LensProfileSetup = "LensDefaults",
			LuminanceNoiseReductionContrast = 0,
			LuminanceNoiseReductionDetail = 50,
			LuminanceSmoothing = 0,
			ParametricDarks = -38,
			ParametricHighlightSplit = 75,
			ParametricHighlights = -52,
			ParametricLights = -2,
			ParametricMidtoneSplit = 50,
			ParametricShadowSplit = 25,
			ParametricShadows = 69,
			PerspectiveHorizontal = 0,
			PerspectiveRotate = 0,
			PerspectiveScale = 100,
			PerspectiveVertical = 0,
			PostCropVignetteAmount = 0,
			PostCropVignetteFeather = 50,
			PostCropVignetteHighlightContrast = 0,
			PostCropVignetteMidpoint = 50,
			PostCropVignetteRoundness = 0,
			PostCropVignetteStyle = 1,
			ProcessVersion = "6.7",
			RedHue = -73,
			RedSaturation = -49,
			ShadowTint = -100,
			Shadows2012 = 0,
			SharpenDetail = 25,
			SharpenEdgeMasking = 0,
			SharpenRadius = 1,
			Sharpness = 0,
			SplitToningBalance = 0,
			SplitToningHighlightHue = 307,
			SplitToningHighlightSaturation = 7,
			SplitToningShadowHue = 325,
			SplitToningShadowSaturation = 6,
			ToneCurveName2012 = "Custom",
			ToneCurvePV2012 = {
				0,
				82,
				62,
				76,
				192,
				192,
				255,
				212,
			},
			ToneCurvePV2012Blue = {
				0,
				0,
				255,
				255,
			},
			ToneCurvePV2012Green = {
				0,
				0,
				255,
				255,
			},
			ToneCurvePV2012Red = {
				0,
				0,
				255,
				255,
			},
			VignetteAmount = 0,
			VignetteMidpoint = 50,
			WhiteBalance = "Custom",
			Whites2012 = 0,
			orientation = "AB",
		},
		uuid = "D166D607-77EA-43B3-AC43-155800871BE9",
	},
	version = 0,
}
