CM Lightroom Presets JUMBO Collection 331112/JUMBO Preset Collection From NUUGraphics/NUUGraphics Newborn/Cot.lrtemplate
s = {
	id = "2D426A00-50FF-4530-8F7F-E9CF000586C0",
	internalName = "Cot",
	title = "Cot",
	type = "Develop",
	value = {
		settings = {
			Blacks2012 = -15,
			BlueHue = 0,
			BlueSaturation = 0,
			CameraProfile = "Embedded",
			Clarity2012 = -15,
			ColorNoiseReduction = 0,
			ColorNoiseReductionDetail = 50,
			ColorNoiseReductionSmoothness = 50,
			Contrast2012 = -20,
			ConvertToGrayscale = true,
			EnableCalibration = true,
			EnableCircularGradientBasedCorrections = true,
			EnableDetail = true,
			EnableEffects = true,
			EnableGradientBasedCorrections = true,
			EnableGrayscaleMix = true,
			EnableSplitToning = true,
			Exposure2012 = 0.24,
			GrainAmount = 0,
			GrainFrequency = 50,
			GrainSize = 25,
			GrayMixerAqua = -18,
			GrayMixerBlue = 10,
			GrayMixerGreen = -28,
			GrayMixerMagenta = 3,
			GrayMixerOrange = -21,
			GrayMixerPurple = 16,
			GrayMixerRed = -11,
			GrayMixerYellow = -24,
			GreenHue = 0,
			GreenSaturation = 0,
			Highlights2012 = -21,
			LuminanceNoiseReductionContrast = 0,
			LuminanceNoiseReductionDetail = 50,
			LuminanceSmoothing = 0,
			ParametricDarks = 0,
			ParametricHighlightSplit = 75,
			ParametricHighlights = 0,
			ParametricLights = 0,
			ParametricMidtoneSplit = 50,
			ParametricShadowSplit = 25,
			ParametricShadows = 0,
			PostCropVignetteAmount = 0,
			PostCropVignetteFeather = 50,
			PostCropVignetteHighlightContrast = 0,
			PostCropVignetteMidpoint = 50,
			PostCropVignetteRoundness = 0,
			PostCropVignetteStyle = 1,
			ProcessVersion = "6.7",
			RedHue = 0,
			RedSaturation = 0,
			ShadowTint = 0,
			Shadows2012 = 43,
			SharpenDetail = 25,
			SharpenEdgeMasking = 0,
			SharpenRadius = 1,
			Sharpness = 0,
			SplitToningBalance = 0,
			SplitToningHighlightHue = 81,
			SplitToningHighlightSaturation = 18,
			SplitToningShadowHue = 0,
			SplitToningShadowSaturation = 0,
			ToneCurveName2012 = "Linear",
			ToneCurvePV2012 = {
				0,
				0,
				255,
				255,
			},
			ToneCurvePV2012Blue = {
				0,
				0,
				255,
				255,
			},
			ToneCurvePV2012Green = {
				0,
				0,
				255,
				255,
			},
			ToneCurvePV2012Red = {
				0,
				0,
				255,
				255,
			},
			WhiteBalance = "As Shot",
			Whites2012 = 36,
			orientation = "AB",
		},
		uuid = "CAC70430-15CB-435A-AD10-D860F343CB58",
	},
	version = 0,
}
