Wedding Presets/Wedding Preset 26.lrtemplate
s = {
	id = "77D2EED2-8E92-4EF2-AD04-DA10EF358F66",
	internalName = "Wedding Preset 26",
	title = "Wedding Preset 26",
	type = "Develop",
	value = {
		settings = {
			AutoLateralCA = 0,
			Blacks2012 = -26,
			BlueHue = 0,
			BlueSaturation = 0,
			CameraProfile = "Embedded",
			ChromaticAberrationB = 0,
			ChromaticAberrationR = 0,
			Clarity2012 = 0,
			ColorNoiseReduction = 0,
			ColorNoiseReductionDetail = 50,
			Contrast2012 = 7,
			ConvertToGrayscale = false,
			Defringe = 0,
			DefringeGreenAmount = 0,
			DefringeGreenHueHi = 60,
			DefringeGreenHueLo = 40,
			DefringePurpleAmount = 0,
			DefringePurpleHueHi = 70,
			DefringePurpleHueLo = 30,
			EnableCalibration = true,
			EnableCircularGradientBasedCorrections = true,
			EnableColorAdjustments = true,
			EnableDetail = true,
			EnableEffects = true,
			EnableGradientBasedCorrections = true,
			EnableLensCorrections = true,
			EnableSplitToning = true,
			Exposure2012 = 0,
			GradientBasedCorrections = {
				{
					CorrectionActive = true,
					CorrectionAmount = 1,
					CorrectionID = "01A11E1E-B34D-4D75-95EC-63926F895F99",
					CorrectionMasks = {
						{
							FullX = 0.5,
							FullY = -0.012438,
							MaskID = "E27F0A48-F717-4BF7-9E93-BEB2DB0DF542",
							MaskValue = 1,
							What = "Mask/Gradient",
							ZeroX = 0.498344,
							ZeroY = 1.04229,
						},
					},
					CorrectionReferenceX = 0.499172,
					CorrectionReferenceY = 0.514926,
					LocalBrightness = 0,
					LocalClarity = 0,
					LocalClarity2012 = -0.35632,
					LocalContrast = 0,
					LocalContrast2012 = 0,
					LocalDefringe = -0.15644,
					LocalExposure = 0,
					LocalExposure2012 = 0.0575,
					LocalHighlights2012 = 0,
					LocalLuminanceNoise = 0.33333,
					LocalMoire = 0.24138,
					LocalSaturation = 0.58621,
					LocalShadows2012 = 0.24138,
					LocalSharpness = 0.28736,
					LocalTemperature = 0,
					LocalTint = 0,
					LocalToningHue = 0,
					LocalToningSaturation = 0,
					What = "Correction",
				},
			},
			GrainAmount = 0,
			GrainFrequency = 50,
			GrainSize = 25,
			GreenHue = 0,
			GreenSaturation = 0,
			Highlights2012 = -100,
			HueAdjustmentAqua = 0,
			HueAdjustmentBlue = 0,
			HueAdjustmentGreen = 0,
			HueAdjustmentMagenta = 0,
			HueAdjustmentOrange = 0,
			HueAdjustmentPurple = 0,
			HueAdjustmentRed = 0,
			HueAdjustmentYellow = 0,
			IncrementalTemperature = 2,
			IncrementalTint = 5,
			LuminanceAdjustmentAqua = 0,
			LuminanceAdjustmentBlue = 0,
			LuminanceAdjustmentGreen = 0,
			LuminanceAdjustmentMagenta = 0,
			LuminanceAdjustmentOrange = 0,
			LuminanceAdjustmentPurple = 0,
			LuminanceAdjustmentRed = 0,
			LuminanceAdjustmentYellow = 0,
			LuminanceNoiseReductionContrast = 0,
			LuminanceNoiseReductionDetail = 50,
			LuminanceSmoothing = 0,
			ParametricDarks = 0,
			ParametricHighlightSplit = 75,
			ParametricHighlights = -9,
			ParametricLights = 0,
			ParametricMidtoneSplit = 50,
			ParametricShadowSplit = 25,
			ParametricShadows = 20,
			PostCropVignetteAmount = 0,
			PostCropVignetteFeather = 50,
			PostCropVignetteHighlightContrast = 0,
			PostCropVignetteMidpoint = 50,
			PostCropVignetteRoundness = 0,
			PostCropVignetteStyle = 1,
			ProcessVersion = "6.7",
			RedHue = 0,
			RedSaturation = 0,
			Saturation = 21,
			SaturationAdjustmentAqua = 0,
			SaturationAdjustmentBlue = 33,
			SaturationAdjustmentGreen = 0,
			SaturationAdjustmentMagenta = 0,
			SaturationAdjustmentOrange = 0,
			SaturationAdjustmentPurple = 0,
			SaturationAdjustmentRed = 42,
			SaturationAdjustmentYellow = 0,
			ShadowTint = 0,
			Shadows2012 = 100,
			SharpenDetail = 25,
			SharpenEdgeMasking = 0,
			SharpenRadius = 1,
			Sharpness = 0,
			SplitToningBalance = 0,
			SplitToningHighlightHue = 240,
			SplitToningHighlightSaturation = 35,
			SplitToningShadowHue = 189,
			SplitToningShadowSaturation = 15,
			ToneCurveName2012 = "Strong Contrast",
			ToneCurvePV2012 = {
				0,
				0,
				32,
				16,
				64,
				50,
				128,
				128,
				192,
				202,
				255,
				255,
			},
			ToneCurvePV2012Blue = {
				0,
				0,
				255,
				255,
			},
			ToneCurvePV2012Green = {
				0,
				0,
				255,
				255,
			},
			ToneCurvePV2012Red = {
				0,
				0,
				255,
				255,
			},
			Vibrance = 50,
			VignetteAmount = 0,
			VignetteMidpoint = 50,
			WhiteBalance = "Custom",
			Whites2012 = 36,
			orientation = "AB",
		},
		uuid = "D7DC4E25-508C-4A1B-8197-B802D0A353F7",
	},
	version = 0,
}
