CM - Creative Bundle Lightroom Presets 318651/Creative Bundle CM/Soft Pastels/Subtle Watercolor Rainbow.lrtemplate
s = {
	id = "30F8681D-45CC-41ED-B1C2-9E4FDD911F8B",
	internalName = "Subtle Watercolor Rainbow",
	title = "Subtle Watercolor Rainbow",
	type = "Develop",
	value = {
		settings = {
			AutoLateralCA = 0,
			Blacks2012 = 14,
			BlueHue = 0,
			BlueSaturation = 0,
			CameraProfile = "Embedded",
			ChromaticAberrationB = 0,
			ChromaticAberrationR = 0,
			CircularGradientBasedCorrections = {
				{
					CorrectionActive = true,
					CorrectionAmount = 1,
					CorrectionID = "F1F46167-88DF-4B02-8D6F-66AFED3F7D40",
					CorrectionMasks = {
						{
							Angle = 0,
							Bottom = 0.912066,
							Feather = 100,
							Flipped = true,
							Left = 0.103543,
							MaskID = "3F8D6F01-C184-4B8C-B249-E66AEC88306B",
							MaskValue = 1,
							Midpoint = 50,
							Right = 0.536784,
							Roundness = 0,
							Top = 0.282208,
							Version = 2,
							What = "Mask/CircularGradient",
						},
					},
					CorrectionReferenceX = 0.320164,
					CorrectionReferenceY = 0.597137,
					LocalBrightness = 0,
					LocalClarity = 0,
					LocalClarity2012 = 0,
					LocalContrast = 0,
					LocalContrast2012 = 0,
					LocalDefringe = 0,
					LocalExposure = 0,
					LocalExposure2012 = 0,
					LocalHighlights2012 = 0,
					LocalLuminanceNoise = 0,
					LocalMoire = 0,
					LocalSaturation = 0,
					LocalShadows2012 = 0,
					LocalSharpness = 0,
					LocalTemperature = 0,
					LocalTint = 0,
					LocalToningHue = 291,
					LocalToningSaturation = 0.26,
					What = "Correction",
				},
				{
					CorrectionActive = true,
					CorrectionAmount = 1,
					CorrectionID = "A37E9142-789E-43E7-B009-7A2BFEF66B77",
					CorrectionMasks = {
						{
							Angle = 0,
							Bottom = 0.867076,
							Feather = 100,
							Flipped = true,
							Left = 0.177353,
							MaskID = "D916F165-9C73-457E-86BC-24599FE1074E",
							MaskValue = 1,
							Midpoint = 50,
							Right = 0.845838,
							Roundness = 0,
							Top = 0.147239,
							Version = 2,
							What = "Mask/CircularGradient",
						},
					},
					CorrectionReferenceX = 0.511595,
					CorrectionReferenceY = 0.507157,
					LocalBrightness = 0,
					LocalClarity = 0,
					LocalClarity2012 = 0,
					LocalContrast = 0,
					LocalContrast2012 = 0,
					LocalDefringe = 0,
					LocalExposure = 0,
					LocalExposure2012 = 0,
					LocalHighlights2012 = 0,
					LocalLuminanceNoise = 0,
					LocalMoire = 0,
					LocalSaturation = 0,
					LocalShadows2012 = 0,
					LocalSharpness = 0,
					LocalTemperature = 0,
					LocalTint = 0,
					LocalToningHue = 45,
					LocalToningSaturation = 0.21,
					What = "Correction",
				},
				{
					CorrectionActive = true,
					CorrectionAmount = 1,
					CorrectionID = "A4E447E4-7F33-4214-B5D2-B7081FEE61F8",
					CorrectionMasks = {
						{
							Angle = 0,
							Bottom = 0.472393,
							Feather = 50,
							Flipped = true,
							Left = 0.060027,
							MaskID = "D10380CE-49D6-4526-B13D-B02890D2C234",
							MaskValue = 1,
							Midpoint = 50,
							Right = 0.368349,
							Roundness = 0,
							Top = -0.034765,
							Version = 2,
							What = "Mask/CircularGradient",
						},
					},
					CorrectionReferenceX = 0.214188,
					CorrectionReferenceY = 0.218814,
					LocalBrightness = 0,
					LocalClarity = 0,
					LocalClarity2012 = 0,
					LocalContrast = 0,
					LocalContrast2012 = 0,
					LocalDefringe = 0,
					LocalExposure = 0,
					LocalExposure2012 = 0,
					LocalHighlights2012 = 0,
					LocalLuminanceNoise = 0,
					LocalMoire = 0,
					LocalSaturation = 0,
					LocalShadows2012 = 0,
					LocalSharpness = 0,
					LocalTemperature = 0,
					LocalTint = 0,
					LocalToningHue = 188,
					LocalToningSaturation = 0.14,
					What = "Correction",
				},
				{
					CorrectionActive = true,
					CorrectionAmount = 1,
					CorrectionID = "BD07A935-6080-4188-9E9F-D9E1FC5E0603",
					CorrectionMasks = {
						{
							Angle = 0,
							Bottom = 0.408999,
							Feather = 50,
							Flipped = true,
							Left = 0.35607,
							MaskID = "F5FFBD6C-9C3B-4022-81D1-4A465941179D",
							MaskValue = 1,
							Midpoint = 50,
							Right = 0.702592,
							Roundness = 0,
							Top = -0.044989,
							Version = 2,
							What = "Mask/CircularGradient",
						},
					},
					CorrectionReferenceX = 0.529331,
					CorrectionReferenceY = 0.182005,
					LocalBrightness = 0,
					LocalClarity = 0,
					LocalClarity2012 = 0,
					LocalContrast = 0,
					LocalContrast2012 = 0,
					LocalDefringe = 0,
					LocalExposure = 0,
					LocalExposure2012 = 0,
					LocalHighlights2012 = 0,
					LocalLuminanceNoise = 0,
					LocalMoire = 0,
					LocalSaturation = 0,
					LocalShadows2012 = 0,
					LocalSharpness = 0,
					LocalTemperature = 0,
					LocalTint = 0,
					LocalToningHue = 281,
					LocalToningSaturation = 0.16,
					What = "Correction",
				},
			},
			Clarity2012 = 10,
			ColorNoiseReduction = 0,
			ColorNoiseReductionDetail = 50,
			ColorNoiseReductionSmoothness = 50,
			Contrast2012 = -10,
			ConvertToGrayscale = false,
			Defringe = 0,
			DefringeGreenAmount = 0,
			DefringeGreenHueHi = 60,
			DefringeGreenHueLo = 40,
			DefringePurpleAmount = 0,
			DefringePurpleHueHi = 70,
			DefringePurpleHueLo = 30,
			EnableCalibration = true,
			EnableCircularGradientBasedCorrections = true,
			EnableColorAdjustments = true,
			EnableDetail = true,
			EnableEffects = true,
			EnableGradientBasedCorrections = true,
			EnableLensCorrections = true,
			EnableSplitToning = true,
			Exposure2012 = 0.1,
			GradientBasedCorrections = {
				{
					CorrectionActive = true,
					CorrectionAmount = 1,
					CorrectionID = "B80178C6-20FD-4C15-A2C6-856E99EF467E",
					CorrectionMasks = {
						{
							FullX = 0.11526,
							FullY = 0.035636,
							MaskID = "B02C5893-3AF1-4B65-9F13-419B8DD52A49",
							MaskValue = 1,
							What = "Mask/Gradient",
							ZeroX = 0.241144,
							ZeroY = 0.280164,
						},
					},
					CorrectionReferenceX = 0.178202,
					CorrectionReferenceY = 0.1579,
					LocalBrightness = 0,
					LocalClarity = 0,
					LocalClarity2012 = 0,
					LocalContrast = 0,
					LocalContrast2012 = 0,
					LocalDefringe = 0,
					LocalExposure = 0,
					LocalExposure2012 = 0,
					LocalHighlights2012 = 0,
					LocalLuminanceNoise = 0,
					LocalMoire = 0,
					LocalSaturation = 0,
					LocalShadows2012 = 0,
					LocalSharpness = 0,
					LocalTemperature = 0,
					LocalTint = 0,
					LocalToningHue = 45,
					LocalToningSaturation = 0.4,
					What = "Correction",
				},
				{
					CorrectionActive = true,
					CorrectionAmount = 1,
					CorrectionID = "5774A8C9-3BB7-41F3-B254-626DC90818F2",
					CorrectionMasks = {
						{
							FullX = 1.00136,
							FullY = 1.01022,
							MaskID = "4FC87855-254C-420B-8F14-BDFCADC18E67",
							MaskValue = 1,
							What = "Mask/Gradient",
							ZeroX = 0.587193,
							ZeroY = 0.300613,
						},
					},
					CorrectionReferenceX = 0.794277,
					CorrectionReferenceY = 0.655416,
					LocalBrightness = 0,
					LocalClarity = 0,
					LocalClarity2012 = 0,
					LocalContrast = 0,
					LocalContrast2012 = 0,
					LocalDefringe = 0,
					LocalExposure = 0,
					LocalExposure2012 = 0,
					LocalHighlights2012 = 0,
					LocalLuminanceNoise = 0,
					LocalMoire = 0,
					LocalSaturation = 0,
					LocalShadows2012 = 0,
					LocalSharpness = 0,
					LocalTemperature = 0,
					LocalTint = 0,
					LocalToningHue = 279,
					LocalToningSaturation = 0.43,
					What = "Correction",
				},
				{
					CorrectionActive = true,
					CorrectionAmount = 1,
					CorrectionID = "D101876B-C036-43CF-B966-F374373D6CA5",
					CorrectionMasks = {
						{
							FullX = 0.885684,
							FullY = -0.155781,
							MaskID = "E7D57D62-78FA-4DF0-9E9F-EA8FAF1FC305",
							MaskValue = 1,
							What = "Mask/Gradient",
							ZeroX = 0.817478,
							ZeroY = 0.342298,
						},
					},
					CorrectionReferenceX = 0.851581,
					CorrectionReferenceY = 0.0932585,
					LocalBrightness = 0,
					LocalClarity = 0,
					LocalClarity2012 = 0,
					LocalContrast = 0,
					LocalContrast2012 = 0,
					LocalDefringe = 0,
					LocalExposure = 0,
					LocalExposure2012 = 0,
					LocalHighlights2012 = 0,
					LocalLuminanceNoise = 0,
					LocalMoire = 0,
					LocalSaturation = 0,
					LocalShadows2012 = 0,
					LocalSharpness = 0,
					LocalTemperature = 0,
					LocalTint = 0,
					LocalToningHue = 33,
					LocalToningSaturation = 0.54,
					What = "Correction",
				},
				{
					CorrectionActive = true,
					CorrectionAmount = 1,
					CorrectionID = "0EE6C877-C846-44BD-9CCC-D210B4920BA7",
					CorrectionMasks = {
						{
							FullX = 0.000823,
							FullY = 1.03163,
							MaskID = "329A0BA3-EA76-4C01-BF31-2C0C7886F9E2",
							MaskValue = 1,
							What = "Mask/Gradient",
							ZeroX = 0.573801,
							ZeroY = 0.190738,
						},
					},
					CorrectionReferenceX = 0.287312,
					CorrectionReferenceY = 0.611184,
					LocalBrightness = 0,
					LocalClarity = 0,
					LocalClarity2012 = 0,
					LocalContrast = 0,
					LocalContrast2012 = 0,
					LocalDefringe = 0,
					LocalExposure = 0,
					LocalExposure2012 = 0,
					LocalHighlights2012 = 0,
					LocalLuminanceNoise = 0,
					LocalMoire = 0,
					LocalSaturation = 0,
					LocalShadows2012 = 0,
					LocalSharpness = 0,
					LocalTemperature = 0,
					LocalTint = 0,
					LocalToningHue = 41,
					LocalToningSaturation = 0.74,
					What = "Correction",
				},
				{
					CorrectionActive = true,
					CorrectionAmount = 1,
					CorrectionID = "36239FB7-5304-4245-B0F8-7E87A4D17780",
					CorrectionMasks = {
						{
							FullX = 0.661529,
							FullY = -0.097544,
							MaskID = "7A389F36-B0D1-4428-BE83-C4F412D7B7F7",
							MaskValue = 1,
							What = "Mask/Gradient",
							ZeroX = 0.598416,
							ZeroY = 0.235984,
						},
					},
					CorrectionReferenceX = 0.629973,
					CorrectionReferenceY = 0.06922,
					LocalBrightness = 0,
					LocalClarity = 0,
					LocalClarity2012 = 0,
					LocalContrast = 0,
					LocalContrast2012 = 0,
					LocalDefringe = 0,
					LocalExposure = 0,
					LocalExposure2012 = 0,
					LocalHighlights2012 = 0,
					LocalLuminanceNoise = 0,
					LocalMoire = 0,
					LocalSaturation = 0,
					LocalShadows2012 = 0,
					LocalSharpness = 0,
					LocalTemperature = 0,
					LocalTint = 0,
					LocalToningHue = 41,
					LocalToningSaturation = 0.74,
					What = "Correction",
				},
			},
			GrainAmount = 0,
			GrainFrequency = 50,
			GrainSize = 25,
			GreenHue = 0,
			GreenSaturation = 0,
			Highlights2012 = -25,
			HueAdjustmentAqua = 0,
			HueAdjustmentBlue = 0,
			HueAdjustmentGreen = 0,
			HueAdjustmentMagenta = 0,
			HueAdjustmentOrange = 0,
			HueAdjustmentPurple = 0,
			HueAdjustmentRed = 0,
			HueAdjustmentYellow = 0,
			IncrementalTemperature = 7,
			IncrementalTint = 5,
			LuminanceAdjustmentAqua = 0,
			LuminanceAdjustmentBlue = 0,
			LuminanceAdjustmentGreen = 0,
			LuminanceAdjustmentMagenta = 0,
			LuminanceAdjustmentOrange = 0,
			LuminanceAdjustmentPurple = 0,
			LuminanceAdjustmentRed = 0,
			LuminanceAdjustmentYellow = 0,
			LuminanceNoiseReductionContrast = 0,
			LuminanceNoiseReductionDetail = 50,
			LuminanceSmoothing = 0,
			ParametricDarks = 0,
			ParametricHighlightSplit = 75,
			ParametricHighlights = 0,
			ParametricLights = 0,
			ParametricMidtoneSplit = 50,
			ParametricShadowSplit = 25,
			ParametricShadows = 0,
			PostCropVignetteAmount = 0,
			PostCropVignetteFeather = 50,
			PostCropVignetteHighlightContrast = 0,
			PostCropVignetteMidpoint = 50,
			PostCropVignetteRoundness = 0,
			PostCropVignetteStyle = 1,
			ProcessVersion = "6.7",
			RedHue = 0,
			RedSaturation = 0,
			Saturation = -17,
			SaturationAdjustmentAqua = 0,
			SaturationAdjustmentBlue = 10,
			SaturationAdjustmentGreen = 0,
			SaturationAdjustmentMagenta = 0,
			SaturationAdjustmentOrange = 0,
			SaturationAdjustmentPurple = 0,
			SaturationAdjustmentRed = 10,
			SaturationAdjustmentYellow = 0,
			ShadowTint = 0,
			Shadows2012 = 17,
			SharpenDetail = 25,
			SharpenEdgeMasking = 0,
			SharpenRadius = 1,
			Sharpness = 0,
			SplitToningBalance = 0,
			SplitToningHighlightHue = 0,
			SplitToningHighlightSaturation = 0,
			SplitToningShadowHue = 0,
			SplitToningShadowSaturation = 0,
			ToneCurveName2012 = "Custom",
			ToneCurvePV2012 = {
				0,
				43,
				64,
				93,
				191,
				198,
				255,
				255,
			},
			ToneCurvePV2012Blue = {
				0,
				0,
				255,
				255,
			},
			ToneCurvePV2012Green = {
				0,
				0,
				255,
				255,
			},
			ToneCurvePV2012Red = {
				0,
				0,
				255,
				255,
			},
			Vibrance = -7,
			VignetteAmount = 0,
			VignetteMidpoint = 50,
			WhiteBalance = "Custom",
			Whites2012 = -7,
			orientation = "AB",
		},
		uuid = "96902476-3C7D-4BA0-8234-631B4DECF73B",
	},
	version = 0,
}
