CM 1000+ Lightroom Preset Pack 317985/Photographers Collection (333)/Lightroom Preset (203).lrtemplate
s = {
	id = "6DC34924-2136-4478-A9B7-E06DB55051F2",
	internalName = "rocksbw",
	title = "rocksbw",
	type = "Develop",
	value = {
		settings = {
			AutoLateralCA = 1,
			Blacks2012 = -42,
			BlueHue = -15,
			BlueSaturation = 0,
			CameraProfile = "Adobe Standard",
			ChromaticAberrationB = 0,
			ChromaticAberrationR = 0,
			Clarity2012 = 42,
			ColorNoiseReduction = 25,
			ColorNoiseReductionDetail = 50,
			ColorNoiseReductionSmoothness = 50,
			Contrast2012 = 37,
			ConvertToGrayscale = true,
			Defringe = 0,
			DefringeGreenAmount = 0,
			DefringeGreenHueHi = 60,
			DefringeGreenHueLo = 40,
			DefringePurpleAmount = 0,
			DefringePurpleHueHi = 70,
			DefringePurpleHueLo = 30,
			EnableCalibration = true,
			EnableCircularGradientBasedCorrections = true,
			EnableDetail = true,
			EnableEffects = true,
			EnableGradientBasedCorrections = true,
			EnableGrayscaleMix = true,
			EnableLensCorrections = true,
			EnableSplitToning = true,
			Exposure2012 = 2.08,
			GradientBasedCorrections = {
				{
					CorrectionActive = true,
					CorrectionAmount = 1,
					CorrectionID = "CD7FF3EC-EC7F-4549-8444-EBCEB50D508C",
					CorrectionMasks = {
						{
							FullX = 0.572447,
							FullY = 0.021352,
							MaskID = "211DF110-6DDE-4C44-8052-A87088A18E9A",
							MaskValue = 1,
							What = "Mask/Gradient",
							ZeroX = 0.562896,
							ZeroY = 0.82261,
						},
					},
					CorrectionReferenceX = 0.567672,
					CorrectionReferenceY = 0.421981,
					LocalBrightness = 0,
					LocalClarity = 0,
					LocalClarity2012 = 0.78261,
					LocalContrast = 0,
					LocalContrast2012 = 0,
					LocalDefringe = 0,
					LocalExposure = 0,
					LocalExposure2012 = -0.26075,
					LocalHighlights2012 = -0.93478,
					LocalLuminanceNoise = 0,
					LocalMoire = 0,
					LocalSaturation = 0,
					LocalShadows2012 = 0.71739,
					LocalSharpness = 0,
					LocalTemperature = 0,
					LocalTint = 0,
					LocalToningHue = 0,
					LocalToningSaturation = 0,
					What = "Correction",
				},
				{
					CorrectionActive = true,
					CorrectionAmount = 1,
					CorrectionID = "C958533F-50AC-44B3-8189-70F2BA461755",
					CorrectionMasks = {
						{
							FullX = 0.112397,
							FullY = 0.109835,
							MaskID = "1C6C1323-74C4-4D5C-A187-FD27E051A6CD",
							MaskValue = 1,
							What = "Mask/Gradient",
							ZeroX = 0.816097,
							ZeroY = 0.58575,
						},
					},
					CorrectionReferenceX = 0.464247,
					CorrectionReferenceY = 0.347793,
					LocalBrightness = 0,
					LocalClarity = 0,
					LocalClarity2012 = 0,
					LocalContrast = 0,
					LocalContrast2012 = 0,
					LocalDefringe = 0,
					LocalExposure = 0,
					LocalExposure2012 = -0.10875,
					LocalHighlights2012 = -0.93478,
					LocalLuminanceNoise = 0,
					LocalMoire = 0,
					LocalSaturation = 0,
					LocalShadows2012 = 0.71739,
					LocalSharpness = 0,
					LocalTemperature = 0,
					LocalTint = 0,
					LocalToningHue = 0,
					LocalToningSaturation = 0,
					What = "Correction",
				},
				{
					CorrectionActive = true,
					CorrectionAmount = 1,
					CorrectionID = "3E6BD492-A954-49E4-85D0-A1FE063E3660",
					CorrectionMasks = {
						{
							FullX = 0.949281,
							FullY = 0.183618,
							MaskID = "6EC85E02-FD8E-46EA-887B-32CD5A4DDADE",
							MaskValue = 1,
							What = "Mask/Gradient",
							ZeroX = 0.306709,
							ZeroY = 0.724787,
						},
					},
					CorrectionReferenceX = 0.627995,
					CorrectionReferenceY = 0.454202,
					LocalBrightness = 0,
					LocalClarity = 0,
					LocalClarity2012 = 0,
					LocalContrast = 0,
					LocalContrast2012 = 0,
					LocalDefringe = 0,
					LocalExposure = 0,
					LocalExposure2012 = -0.1305,
					LocalHighlights2012 = -0.93478,
					LocalLuminanceNoise = 0,
					LocalMoire = 0,
					LocalSaturation = 0,
					LocalShadows2012 = 0.71739,
					LocalSharpness = 0,
					LocalTemperature = 0,
					LocalTint = 0,
					LocalToningHue = 0,
					LocalToningSaturation = 0,
					What = "Correction",
				},
				{
					CorrectionActive = true,
					CorrectionAmount = 1,
					CorrectionID = "8C2F0431-3F41-4DA8-BB56-88506DF791AB",
					CorrectionMasks = {
						{
							FullX = 0.074274,
							FullY = 0.254111,
							MaskID = "4022A1D4-CCA4-47D7-8467-C0C129D1F1BE",
							MaskValue = 1,
							What = "Mask/Gradient",
							ZeroX = 0.93073,
							ZeroY = 0.76674,
						},
					},
					CorrectionReferenceX = 0.502502,
					CorrectionReferenceY = 0.510425,
					LocalBrightness = 0,
					LocalClarity = 0,
					LocalClarity2012 = 0,
					LocalContrast = 0,
					LocalContrast2012 = 0,
					LocalDefringe = 0,
					LocalExposure = 0,
					LocalExposure2012 = -0.26075,
					LocalHighlights2012 = -0.93478,
					LocalLuminanceNoise = 0,
					LocalMoire = 0,
					LocalSaturation = 0,
					LocalShadows2012 = 0.71739,
					LocalSharpness = 0,
					LocalTemperature = 0,
					LocalTint = 0,
					LocalToningHue = 0,
					LocalToningSaturation = 0,
					What = "Correction",
				},
				{
					CorrectionActive = true,
					CorrectionAmount = 1,
					CorrectionID = "EB00C884-6FA7-4F20-BF5C-E788D582008E",
					CorrectionMasks = {
						{
							FullX = 0.689824,
							FullY = 0.060081,
							MaskID = "32E1DA61-E0F4-47E6-8B6A-4FFF10B7E3B0",
							MaskValue = 1,
							What = "Mask/Gradient",
							ZeroX = 0.645743,
							ZeroY = 1.02893,
						},
					},
					CorrectionReferenceX = 0.667783,
					CorrectionReferenceY = 0.544504,
					LocalBrightness = 0,
					LocalClarity = 0,
					LocalClarity2012 = 0.67391,
					LocalContrast = 0,
					LocalContrast2012 = 0,
					LocalDefringe = 0,
					LocalExposure = 0,
					LocalExposure2012 = -0.19575,
					LocalHighlights2012 = -0.93478,
					LocalLuminanceNoise = 0,
					LocalMoire = 0,
					LocalSaturation = 0,
					LocalShadows2012 = 0.86957,
					LocalSharpness = 0,
					LocalTemperature = 0,
					LocalTint = 0,
					LocalToningHue = 0,
					LocalToningSaturation = 0,
					What = "Correction",
				},
			},
			GrainAmount = 0,
			GrainFrequency = 50,
			GrainSize = 25,
			GrayMixerAqua = -56,
			GrayMixerBlue = -37,
			GrayMixerGreen = -27,
			GrayMixerMagenta = 3,
			GrayMixerOrange = -21,
			GrayMixerPurple = 17,
			GrayMixerRed = -11,
			GrayMixerYellow = -24,
			GreenHue = 0,
			GreenSaturation = 0,
			Highlights2012 = -100,
			LensProfileChromaticAberrationScale = 100,
			LensProfileDigest = "1BA6E276254B7C689CE3A05468A02070",
			LensProfileDistortionScale = 100,
			LensProfileEnable = 1,
			LensProfileFilename = "Canon EOS 50D (Canon EF-S 18-55mm f3.5-5.6 IS STM) - RAW.lcp",
			LensProfileName = "Adobe (Canon EF-S 18-55mm f/3.5-5.6 IS STM)",
			LensProfileSetup = "Custom",
			LensProfileVignettingScale = 100,
			LuminanceNoiseReductionContrast = 0,
			LuminanceNoiseReductionDetail = 50,
			LuminanceSmoothing = 0,
			ParametricDarks = 0,
			ParametricHighlightSplit = 75,
			ParametricHighlights = 0,
			ParametricLights = 0,
			ParametricMidtoneSplit = 50,
			ParametricShadowSplit = 25,
			ParametricShadows = 0,
			PostCropVignetteAmount = 0,
			PostCropVignetteFeather = 50,
			PostCropVignetteHighlightContrast = 0,
			PostCropVignetteMidpoint = 50,
			PostCropVignetteRoundness = 0,
			PostCropVignetteStyle = 1,
			ProcessVersion = "6.7",
			RedHue = 12,
			RedSaturation = -10,
			ShadowTint = 0,
			Shadows2012 = 89,
			SharpenDetail = 25,
			SharpenEdgeMasking = 0,
			SharpenRadius = 1,
			Sharpness = 61,
			SplitToningBalance = 35,
			SplitToningHighlightHue = 222,
			SplitToningHighlightSaturation = 12,
			SplitToningShadowHue = 239,
			SplitToningShadowSaturation = 4,
			Temperature = 5034,
			Tint = 19,
			ToneCurveName2012 = "Custom",
			ToneCurvePV2012 = {
				0,
				39,
				60,
				60,
				192,
				192,
				255,
				223,
			},
			ToneCurvePV2012Blue = {
				0,
				0,
				255,
				255,
			},
			ToneCurvePV2012Green = {
				0,
				0,
				255,
				255,
			},
			ToneCurvePV2012Red = {
				0,
				0,
				255,
				255,
			},
			VignetteAmount = -35,
			VignetteMidpoint = 15,
			WhiteBalance = "Custom",
			Whites2012 = 15,
			orientation = "AB",
		},
		uuid = "DAFEB642-724C-4941-AF32-3EB8261FE7DB",
	},
	version = 0,
}
