CM 1000+ Lightroom Preset Pack 317985/Photographers Collection (333)/Lightroom Preset (251).lrtemplate
s = {
	id = "261DDFEA-8A7F-4FA1-BCD6-34B81904D116",
	internalName = "wedding 1",
	title = "wedding 1",
	type = "Develop",
	value = {
		settings = {
			AutoLateralCA = 1,
			Blacks2012 = 33,
			BlueHue = -26,
			BlueSaturation = -5,
			CameraProfile = "Adobe Standard",
			ChromaticAberrationB = 0,
			ChromaticAberrationR = 0,
			Clarity2012 = -5,
			ColorNoiseReduction = 25,
			ColorNoiseReductionDetail = 50,
			ColorNoiseReductionSmoothness = 50,
			Contrast2012 = 10,
			ConvertToGrayscale = false,
			Defringe = 2,
			DefringeGreenAmount = 3,
			DefringeGreenHueHi = 70,
			DefringeGreenHueLo = 40,
			DefringePurpleAmount = 3,
			DefringePurpleHueHi = 70,
			DefringePurpleHueLo = 30,
			EnableCalibration = true,
			EnableCircularGradientBasedCorrections = true,
			EnableColorAdjustments = true,
			EnableDetail = true,
			EnableEffects = true,
			EnableGradientBasedCorrections = true,
			EnableLensCorrections = true,
			EnableSplitToning = true,
			Exposure2012 = 1.07,
			GrainAmount = 0,
			GrainFrequency = 65,
			GrainSize = 20,
			GreenHue = 35,
			GreenSaturation = 5,
			Highlights2012 = -87,
			HueAdjustmentAqua = 75,
			HueAdjustmentBlue = -20,
			HueAdjustmentGreen = -54,
			HueAdjustmentMagenta = 73,
			HueAdjustmentOrange = 5,
			HueAdjustmentPurple = 20,
			HueAdjustmentRed = 9,
			HueAdjustmentYellow = -49,
			LensProfileEnable = 0,
			LensProfileSetup = "LensDefaults",
			LuminanceAdjustmentAqua = -37,
			LuminanceAdjustmentBlue = -35,
			LuminanceAdjustmentGreen = -28,
			LuminanceAdjustmentMagenta = -18,
			LuminanceAdjustmentOrange = 0,
			LuminanceAdjustmentPurple = -47,
			LuminanceAdjustmentRed = -14,
			LuminanceAdjustmentYellow = -24,
			LuminanceNoiseReductionContrast = 0,
			LuminanceNoiseReductionDetail = 50,
			LuminanceSmoothing = 0,
			ParametricDarks = 0,
			ParametricHighlightSplit = 75,
			ParametricHighlights = 0,
			ParametricLights = 0,
			ParametricMidtoneSplit = 48,
			ParametricShadowSplit = 20,
			ParametricShadows = 0,
			PostCropVignetteAmount = 0,
			PostCropVignetteFeather = 50,
			PostCropVignetteHighlightContrast = 0,
			PostCropVignetteMidpoint = 50,
			PostCropVignetteRoundness = 0,
			PostCropVignetteStyle = 1,
			ProcessVersion = "6.7",
			RedHue = 30,
			RedSaturation = 24,
			Saturation = 3,
			SaturationAdjustmentAqua = -49,
			SaturationAdjustmentBlue = -64,
			SaturationAdjustmentGreen = -35,
			SaturationAdjustmentMagenta = -45,
			SaturationAdjustmentOrange = -35,
			SaturationAdjustmentPurple = -45,
			SaturationAdjustmentRed = -31,
			SaturationAdjustmentYellow = -20,
			ShadowTint = -4,
			Shadows2012 = 89,
			SharpenDetail = 40,
			SharpenEdgeMasking = 30,
			SharpenRadius = 1.5,
			Sharpness = 60,
			SplitToningBalance = 0,
			SplitToningHighlightHue = 73,
			SplitToningHighlightSaturation = 4,
			SplitToningShadowHue = 16,
			SplitToningShadowSaturation = 4,
			Temperature = 4360,
			Tint = 4,
			ToneCurveName2012 = "Custom",
			ToneCurvePV2012 = {
				0,
				29,
				23,
				37,
				60,
				61,
				189,
				187,
				255,
				235,
			},
			ToneCurvePV2012Blue = {
				0,
				0,
				36,
				10,
				76,
				46,
				122,
				118,
				183,
				206,
				222,
				235,
				255,
				255,
			},
			ToneCurvePV2012Green = {
				0,
				0,
				36,
				11,
				74,
				46,
				126,
				122,
				181,
				200,
				219,
				230,
				255,
				255,
			},
			ToneCurvePV2012Red = {
				0,
				0,
				40,
				9,
				76,
				46,
				126,
				122,
				182,
				204,
				255,
				255,
			},
			Vibrance = 44,
			VignetteAmount = -82,
			VignetteMidpoint = 11,
			WhiteBalance = "Custom",
			Whites2012 = -20,
			orientation = "AB",
		},
		uuid = "B6468036-57B9-4781-8F9A-AFB5B3BC2269",
	},
	version = 0,
}
