CM 1000+ Lightroom Preset Pack 317985/Photographers Collection (333)/Lightroom Preset (63).lrtemplate
s = {
	id = "4A8F54E4-6DBF-4450-BF51-D931613760A7",
	internalName = "green",
	title = "green",
	type = "Develop",
	value = {
		settings = {
			AutoLateralCA = 1,
			Blacks2012 = -73,
			BlueHue = -18,
			BlueSaturation = 0,
			CameraProfile = "Adobe Standard",
			ChromaticAberrationB = 0,
			ChromaticAberrationR = 0,
			Clarity2012 = 6,
			ColorNoiseReduction = 25,
			ColorNoiseReductionDetail = 50,
			Contrast2012 = 28,
			ConvertToGrayscale = false,
			CropConstrainToWarp = 0,
			Defringe = 0,
			DefringeGreenAmount = 0,
			DefringeGreenHueHi = 60,
			DefringeGreenHueLo = 40,
			DefringePurpleAmount = 0,
			DefringePurpleHueHi = 70,
			DefringePurpleHueLo = 30,
			EnableCalibration = true,
			EnableCircularGradientBasedCorrections = true,
			EnableColorAdjustments = true,
			EnableDetail = true,
			EnableEffects = true,
			EnableGradientBasedCorrections = true,
			EnableLensCorrections = true,
			EnableSplitToning = true,
			Exposure2012 = 0.76,
			GradientBasedCorrections = {
				{
					CorrectionActive = true,
					CorrectionAmount = 1,
					CorrectionID = "931D94A7-137A-4BBA-90D4-7DA1B6625CEE",
					CorrectionMasks = {
						{
							FullX = 0.47418,
							FullY = 0.037225,
							MaskID = "679E7EAA-1A60-4B07-8AAA-996E10726DB2",
							MaskValue = 1,
							What = "Mask/Gradient",
							ZeroX = 0.516736,
							ZeroY = 0.909666,
						},
					},
					CorrectionReferenceX = 0.495458,
					CorrectionReferenceY = 0.473445,
					LocalBrightness = 0,
					LocalClarity = 0,
					LocalClarity2012 = 0.20567,
					LocalContrast = 0,
					LocalContrast2012 = 0,
					LocalDefringe = 0,
					LocalExposure = 0,
					LocalExposure2012 = -0.305,
					LocalHighlights2012 = -0.7305,
					LocalLuminanceNoise = 0,
					LocalMoire = 0,
					LocalSaturation = 0,
					LocalShadows2012 = 0.80142,
					LocalSharpness = 0,
					LocalTemperature = 0,
					LocalTint = 0,
					LocalToningHue = 0,
					LocalToningSaturation = 0,
					What = "Correction",
				},
			},
			GrainAmount = 0,
			GrainFrequency = 50,
			GrainSize = 25,
			GreenHue = 0,
			GreenSaturation = 0,
			Highlights2012 = -77,
			HueAdjustmentAqua = -12,
			HueAdjustmentBlue = -5,
			HueAdjustmentGreen = 0,
			HueAdjustmentMagenta = 0,
			HueAdjustmentOrange = -10,
			HueAdjustmentPurple = 0,
			HueAdjustmentRed = 0,
			HueAdjustmentYellow = 8,
			LensManualDistortionAmount = 0,
			LensProfileChromaticAberrationScale = 100,
			LensProfileDigest = "7B0BAB9F81F5D3619E136019545B6413",
			LensProfileDistortionScale = 100,
			LensProfileEnable = 1,
			LensProfileFilename = "Canon EOS 50D (Canon EF-S 18-55mm f3.5-5.6 IS) - RAW.lcp",
			LensProfileName = "Adobe (Canon EF-S 18-55mm f/3.5-5.6 IS)",
			LensProfileSetup = "Custom",
			LensProfileVignettingScale = 100,
			LuminanceAdjustmentAqua = -27,
			LuminanceAdjustmentBlue = -19,
			LuminanceAdjustmentGreen = -59,
			LuminanceAdjustmentMagenta = 0,
			LuminanceAdjustmentOrange = -38,
			LuminanceAdjustmentPurple = -5,
			LuminanceAdjustmentRed = -14,
			LuminanceAdjustmentYellow = -21,
			LuminanceNoiseReductionContrast = 0,
			LuminanceNoiseReductionDetail = 50,
			LuminanceSmoothing = 0,
			ParametricDarks = 0,
			ParametricHighlightSplit = 75,
			ParametricHighlights = 0,
			ParametricLights = 0,
			ParametricMidtoneSplit = 50,
			ParametricShadowSplit = 25,
			ParametricShadows = 0,
			PerspectiveAspect = 0,
			PerspectiveHorizontal = 0,
			PerspectiveRotate = 0,
			PerspectiveScale = 100,
			PerspectiveUpright = 0,
			PerspectiveVertical = 0,
			PostCropVignetteAmount = 0,
			PostCropVignetteFeather = 50,
			PostCropVignetteHighlightContrast = 0,
			PostCropVignetteMidpoint = 50,
			PostCropVignetteRoundness = 0,
			PostCropVignetteStyle = 1,
			ProcessVersion = "6.7",
			RedHue = 19,
			RedSaturation = -11,
			Saturation = 14,
			SaturationAdjustmentAqua = -20,
			SaturationAdjustmentBlue = -2,
			SaturationAdjustmentGreen = -8,
			SaturationAdjustmentMagenta = -35,
			SaturationAdjustmentOrange = 0,
			SaturationAdjustmentPurple = -50,
			SaturationAdjustmentRed = 0,
			SaturationAdjustmentYellow = 0,
			ShadowTint = 0,
			Shadows2012 = 88,
			SharpenDetail = 25,
			SharpenEdgeMasking = 0,
			SharpenRadius = 1,
			Sharpness = 64,
			SplitToningBalance = 0,
			SplitToningHighlightHue = 228,
			SplitToningHighlightSaturation = 22,
			SplitToningShadowHue = 41,
			SplitToningShadowSaturation = 1,
			ToneCurveName2012 = "Custom",
			ToneCurvePV2012 = {
				0,
				17,
				68,
				68,
				193,
				193,
				255,
				228,
			},
			ToneCurvePV2012Blue = {
				0,
				0,
				255,
				255,
			},
			ToneCurvePV2012Green = {
				0,
				0,
				255,
				255,
			},
			ToneCurvePV2012Red = {
				0,
				0,
				255,
				255,
			},
			Vibrance = 31,
			VignetteAmount = 0,
			VignetteMidpoint = 50,
			WhiteBalance = "As Shot",
			Whites2012 = 19,
			orientation = "AB",
		},
		uuid = "CFF14D07-8185-4123-9C55-5DB4E681965A",
	},
	version = 0,
}
