CM 1000+ Lightroom Preset Pack 317985/Photographers Collection (333)/Lightroom Preset (165).lrtemplate
s = {
	id = "B0BCD382-2F6D-4FCE-A7E1-E2FE0764953F",
	internalName = "Pencil Art - Color",
	title = "Pencil Art - Color",
	type = "Develop",
	value = {
		settings = {
			AutoLateralCA = 0,
			Blacks2012 = 100,
			ChromaticAberrationB = 0,
			ChromaticAberrationR = 0,
			Clarity2012 = 100,
			ColorNoiseReduction = 0,
			ColorNoiseReductionDetail = 50,
			ColorNoiseReductionSmoothness = 50,
			Contrast2012 = 100,
			CropConstrainToWarp = 0,
			Defringe = 0,
			DefringeGreenAmount = 0,
			DefringeGreenHueHi = 60,
			DefringeGreenHueLo = 40,
			DefringePurpleAmount = 0,
			DefringePurpleHueHi = 70,
			DefringePurpleHueLo = 30,
			EnableDetail = true,
			EnableEffects = true,
			EnableLensCorrections = true,
			EnableSplitToning = true,
			Exposure2012 = 1.07,
			GrainAmount = 0,
			GrainFrequency = 50,
			GrainSize = 25,
			Highlights2012 = -100,
			LensManualDistortionAmount = 0,
			LensProfileEnable = 0,
			LensProfileSetup = "LensDefaults",
			LuminanceNoiseReductionContrast = 0,
			LuminanceNoiseReductionDetail = 86,
			LuminanceSmoothing = 44,
			ParametricDarks = 0,
			ParametricHighlightSplit = 75,
			ParametricHighlights = 0,
			ParametricLights = 0,
			ParametricMidtoneSplit = 50,
			ParametricShadowSplit = 25,
			ParametricShadows = 0,
			PerspectiveAspect = 0,
			PerspectiveHorizontal = 0,
			PerspectiveRotate = 0,
			PerspectiveScale = 100,
			PerspectiveUpright = 0,
			PerspectiveVertical = 0,
			PostCropVignetteAmount = 0,
			PostCropVignetteFeather = 50,
			PostCropVignetteHighlightContrast = 0,
			PostCropVignetteMidpoint = 50,
			PostCropVignetteRoundness = 0,
			PostCropVignetteStyle = 1,
			ProcessVersion = "6.7",
			Shadows2012 = -64,
			SharpenDetail = 0,
			SharpenEdgeMasking = 69,
			SharpenRadius = 3,
			Sharpness = 150,
			SplitToningBalance = 0,
			SplitToningHighlightHue = 0,
			SplitToningHighlightSaturation = 0,
			SplitToningShadowHue = 0,
			SplitToningShadowSaturation = 0,
			ToneCurveName2012 = "Custom",
			ToneCurvePV2012 = {
				56,
				0,
				146,
				58,
				255,
				255,
			},
			ToneCurvePV2012Blue = {
				0,
				0,
				255,
				255,
			},
			ToneCurvePV2012Green = {
				0,
				0,
				255,
				255,
			},
			ToneCurvePV2012Red = {
				0,
				0,
				255,
				255,
			},
			VignetteAmount = 0,
			VignetteMidpoint = 50,
			Whites2012 = 100,
			orientation = "AB",
		},
		uuid = "B4560B72-2447-4732-89AF-724B9054B5AA",
	},
	version = 0,
}
