CM 1000+ Lightroom Preset Pack 317985/Photographers Collection (333)/Lightroom Preset (32).lrtemplate
s = {
	id = "40A5ADC4-E1CE-4971-95B6-DA742D7DE56A",
	internalName = "Color FX 12",
	title = "Color FX 12",
	type = "Develop",
	value = {
		settings = {
			AutoLateralCA = 0,
			Blacks2012 = -2,
			BlueHue = -12,
			BlueSaturation = 29,
			CameraProfile = "Embedded",
			ChromaticAberrationB = 0,
			ChromaticAberrationR = 0,
			Clarity2012 = 45,
			ColorNoiseReduction = 0,
			ColorNoiseReductionDetail = 50,
			ColorNoiseReductionSmoothness = 50,
			Contrast2012 = 19,
			ConvertToGrayscale = false,
			Defringe = 0,
			DefringeGreenAmount = 0,
			DefringeGreenHueHi = 60,
			DefringeGreenHueLo = 40,
			DefringePurpleAmount = 0,
			DefringePurpleHueHi = 70,
			DefringePurpleHueLo = 30,
			EnableCalibration = true,
			EnableColorAdjustments = true,
			EnableDetail = true,
			EnableEffects = true,
			EnableLensCorrections = true,
			EnableSplitToning = true,
			Exposure2012 = 0.12,
			GrainAmount = 0,
			GrainFrequency = 50,
			GrainSize = 25,
			GreenHue = 43,
			GreenSaturation = 57,
			Highlights2012 = 10,
			HueAdjustmentAqua = 0,
			HueAdjustmentBlue = 0,
			HueAdjustmentGreen = 0,
			HueAdjustmentMagenta = 0,
			HueAdjustmentOrange = 0,
			HueAdjustmentPurple = 0,
			HueAdjustmentRed = 0,
			HueAdjustmentYellow = 0,
			IncrementalTemperature = 12,
			IncrementalTint = 24,
			LuminanceAdjustmentAqua = 0,
			LuminanceAdjustmentBlue = 0,
			LuminanceAdjustmentGreen = 0,
			LuminanceAdjustmentMagenta = 0,
			LuminanceAdjustmentOrange = 7,
			LuminanceAdjustmentPurple = 0,
			LuminanceAdjustmentRed = 4,
			LuminanceAdjustmentYellow = 0,
			LuminanceNoiseReductionContrast = 0,
			LuminanceNoiseReductionDetail = 50,
			LuminanceSmoothing = 0,
			ParametricDarks = 11,
			ParametricHighlightSplit = 75,
			ParametricHighlights = 9,
			ParametricLights = -9,
			ParametricMidtoneSplit = 50,
			ParametricShadowSplit = 25,
			ParametricShadows = 1,
			PostCropVignetteAmount = 0,
			PostCropVignetteFeather = 50,
			PostCropVignetteHighlightContrast = 0,
			PostCropVignetteMidpoint = 50,
			PostCropVignetteRoundness = 0,
			PostCropVignetteStyle = 1,
			ProcessVersion = "6.7",
			RedHue = -26,
			RedSaturation = -45,
			Saturation = -31,
			SaturationAdjustmentAqua = 0,
			SaturationAdjustmentBlue = 0,
			SaturationAdjustmentGreen = 0,
			SaturationAdjustmentMagenta = 0,
			SaturationAdjustmentOrange = -49,
			SaturationAdjustmentPurple = 0,
			SaturationAdjustmentRed = 18,
			SaturationAdjustmentYellow = 0,
			ShadowTint = 0,
			Shadows2012 = 14,
			SharpenDetail = 25,
			SharpenEdgeMasking = 0,
			SharpenRadius = 1.5,
			Sharpness = 104,
			SplitToningBalance = 5,
			SplitToningHighlightHue = 120,
			SplitToningHighlightSaturation = 14,
			SplitToningShadowHue = 30,
			SplitToningShadowSaturation = 23,
			ToneCurveName2012 = "Linear",
			ToneCurvePV2012 = {
				0,
				0,
				255,
				255,
			},
			ToneCurvePV2012Blue = {
				0,
				0,
				255,
				255,
			},
			ToneCurvePV2012Green = {
				0,
				0,
				255,
				255,
			},
			ToneCurvePV2012Red = {
				0,
				0,
				255,
				255,
			},
			Vibrance = 31,
			VignetteAmount = 0,
			VignetteMidpoint = 50,
			WhiteBalance = "Custom",
			Whites2012 = 21,
		},
		uuid = "D60F04C9-CD34-497D-81AC-2CA6C951414A",
	},
	version = 0,
}
