CM 1000+ Lightroom Preset Pack 317985/Photographers Collection (333)/Lightroom Preset (64).lrtemplate
s = {
	id = "46E1E147-6FD8-4425-AE83-DEA3D556BE3F",
	internalName = "greensunset",
	title = "greensunset",
	type = "Develop",
	value = {
		settings = {
			AutoLateralCA = 1,
			Blacks2012 = -86,
			BlueHue = 0,
			BlueSaturation = 0,
			CameraProfile = "Adobe Standard",
			ChromaticAberrationB = 0,
			ChromaticAberrationR = 0,
			Clarity2012 = 5,
			ColorNoiseReduction = 25,
			ColorNoiseReductionDetail = 50,
			Contrast2012 = 17,
			ConvertToGrayscale = false,
			CropConstrainToWarp = 0,
			Defringe = 0,
			DefringeGreenAmount = 0,
			DefringeGreenHueHi = 60,
			DefringeGreenHueLo = 40,
			DefringePurpleAmount = 0,
			DefringePurpleHueHi = 70,
			DefringePurpleHueLo = 30,
			EnableCalibration = true,
			EnableCircularGradientBasedCorrections = true,
			EnableColorAdjustments = true,
			EnableDetail = true,
			EnableEffects = true,
			EnableGradientBasedCorrections = true,
			EnableLensCorrections = true,
			EnableSplitToning = true,
			Exposure2012 = 1.55,
			GradientBasedCorrections = {
				{
					CorrectionActive = true,
					CorrectionAmount = 1,
					CorrectionID = "CDAB7882-9A85-4917-ACBE-6851756FAF42",
					CorrectionMasks = {
						{
							FullX = 0.9689,
							FullY = 0.569892,
							MaskID = "0BC2E92D-9CBA-45C9-8A0A-C610F355C35C",
							MaskValue = 1,
							What = "Mask/Gradient",
							ZeroX = 0.111409,
							ZeroY = 0.556464,
						},
					},
					CorrectionReferenceX = 0.540154,
					CorrectionReferenceY = 0.563178,
					LocalBrightness = 0,
					LocalClarity = 0,
					LocalClarity2012 = 0,
					LocalContrast = 0,
					LocalContrast2012 = 0,
					LocalDefringe = 0,
					LocalExposure = 0,
					LocalExposure2012 = -0.47525,
					LocalHighlights2012 = -0.7305,
					LocalLuminanceNoise = 0,
					LocalMoire = 0,
					LocalSaturation = 0,
					LocalShadows2012 = 0.80142,
					LocalSharpness = 0,
					LocalTemperature = 0,
					LocalTint = 0,
					LocalToningHue = 0,
					LocalToningSaturation = 0,
					What = "Correction",
				},
			},
			GrainAmount = 0,
			GrainFrequency = 50,
			GrainSize = 25,
			GreenHue = 0,
			GreenSaturation = 0,
			Highlights2012 = -88,
			HueAdjustmentAqua = -5,
			HueAdjustmentBlue = -6,
			HueAdjustmentGreen = -20,
			HueAdjustmentMagenta = 0,
			HueAdjustmentOrange = -14,
			HueAdjustmentPurple = -35,
			HueAdjustmentRed = 0,
			HueAdjustmentYellow = -64,
			LensManualDistortionAmount = 0,
			LensProfileChromaticAberrationScale = 100,
			LensProfileDigest = "7B0BAB9F81F5D3619E136019545B6413",
			LensProfileDistortionScale = 100,
			LensProfileEnable = 1,
			LensProfileFilename = "Canon EOS 50D (Canon EF-S 18-55mm f3.5-5.6 IS) - RAW.lcp",
			LensProfileName = "Adobe (Canon EF-S 18-55mm f/3.5-5.6 IS)",
			LensProfileSetup = "Custom",
			LensProfileVignettingScale = 100,
			LuminanceAdjustmentAqua = -31,
			LuminanceAdjustmentBlue = -35,
			LuminanceAdjustmentGreen = -19,
			LuminanceAdjustmentMagenta = 0,
			LuminanceAdjustmentOrange = 0,
			LuminanceAdjustmentPurple = 0,
			LuminanceAdjustmentRed = -3,
			LuminanceAdjustmentYellow = -14,
			LuminanceNoiseReductionContrast = 0,
			LuminanceNoiseReductionDetail = 50,
			LuminanceSmoothing = 0,
			ParametricDarks = 0,
			ParametricHighlightSplit = 75,
			ParametricHighlights = 0,
			ParametricLights = 0,
			ParametricMidtoneSplit = 50,
			ParametricShadowSplit = 25,
			ParametricShadows = 0,
			PerspectiveAspect = 0,
			PerspectiveHorizontal = 0,
			PerspectiveRotate = 0,
			PerspectiveScale = 100,
			PerspectiveUpright = 0,
			PerspectiveVertical = 0,
			PostCropVignetteAmount = 0,
			PostCropVignetteFeather = 50,
			PostCropVignetteHighlightContrast = 0,
			PostCropVignetteMidpoint = 50,
			PostCropVignetteRoundness = 0,
			PostCropVignetteStyle = 1,
			ProcessVersion = "6.7",
			RedHue = 6,
			RedSaturation = -14,
			Saturation = 14,
			SaturationAdjustmentAqua = -57,
			SaturationAdjustmentBlue = -26,
			SaturationAdjustmentGreen = -24,
			SaturationAdjustmentMagenta = -63,
			SaturationAdjustmentOrange = 0,
			SaturationAdjustmentPurple = -63,
			SaturationAdjustmentRed = -21,
			SaturationAdjustmentYellow = -8,
			ShadowTint = 0,
			Shadows2012 = 83,
			SharpenDetail = 25,
			SharpenEdgeMasking = 0,
			SharpenRadius = 1,
			Sharpness = 66,
			SplitToningBalance = 0,
			SplitToningHighlightHue = 205,
			SplitToningHighlightSaturation = 8,
			SplitToningShadowHue = 28,
			SplitToningShadowSaturation = 12,
			ToneCurveName2012 = "Custom",
			ToneCurvePV2012 = {
				0,
				9,
				66,
				66,
				192,
				192,
				255,
				237,
			},
			ToneCurvePV2012Blue = {
				0,
				0,
				255,
				255,
			},
			ToneCurvePV2012Green = {
				0,
				0,
				255,
				255,
			},
			ToneCurvePV2012Red = {
				0,
				0,
				255,
				255,
			},
			Vibrance = 45,
			VignetteAmount = 0,
			VignetteMidpoint = 50,
			WhiteBalance = "As Shot",
			Whites2012 = -17,
			orientation = "DA",
		},
		uuid = "774C29BB-88F5-4701-B93B-19461409CDEC",
	},
	version = 0,
}
