CM 1000+ Lightroom Preset Pack 317985/Photographers Collection (333)/Lightroom Preset (312).lrtemplate
s = {
	id = "C0857C2B-35E9-4A35-A7D7-248276BA49D3",
	internalName = "summerclouds",
	title = "summerclouds",
	type = "Develop",
	value = {
		settings = {
			AutoLateralCA = 1,
			Blacks2012 = -47,
			BlueHue = -9,
			BlueSaturation = 0,
			CameraProfile = "Adobe Standard",
			ChromaticAberrationB = 0,
			ChromaticAberrationR = 0,
			Clarity2012 = 8,
			ColorNoiseReduction = 25,
			ColorNoiseReductionDetail = 50,
			Contrast2012 = 17,
			ConvertToGrayscale = false,
			CropConstrainToWarp = 0,
			Defringe = 0,
			DefringeGreenAmount = 0,
			DefringeGreenHueHi = 60,
			DefringeGreenHueLo = 40,
			DefringePurpleAmount = 0,
			DefringePurpleHueHi = 70,
			DefringePurpleHueLo = 30,
			EnableCalibration = true,
			EnableCircularGradientBasedCorrections = true,
			EnableColorAdjustments = true,
			EnableDetail = true,
			EnableEffects = true,
			EnableGradientBasedCorrections = true,
			EnableLensCorrections = true,
			EnableSplitToning = true,
			Exposure2012 = -0.4,
			GradientBasedCorrections = {
				{
					CorrectionActive = true,
					CorrectionAmount = 1,
					CorrectionID = "FF9E3664-D2DD-473B-B498-547A948FA098",
					CorrectionMasks = {
						{
							FullX = 0.093939,
							FullY = 0.9,
							MaskID = "292D45EF-D5F6-4F64-ADC1-588BAF9EF0B1",
							MaskValue = 1,
							What = "Mask/Gradient",
							ZeroX = 0.278788,
							ZeroY = 0.1,
						},
					},
					CorrectionReferenceX = 0.186363,
					CorrectionReferenceY = 0.5,
					LocalBrightness = 0,
					LocalClarity = 0,
					LocalClarity2012 = 0,
					LocalContrast = 0,
					LocalContrast2012 = 0,
					LocalDefringe = 0,
					LocalExposure = 0,
					LocalExposure2012 = -0.09225,
					LocalHighlights2012 = -0.7305,
					LocalLuminanceNoise = 0,
					LocalMoire = 0,
					LocalSaturation = 0,
					LocalShadows2012 = 0.80142,
					LocalSharpness = 0,
					LocalTemperature = 0.0922,
					LocalTint = -0.04965,
					LocalToningHue = 0,
					LocalToningSaturation = 0,
					What = "Correction",
				},
			},
			GrainAmount = 0,
			GrainFrequency = 50,
			GrainSize = 25,
			GreenHue = 0,
			GreenSaturation = -14,
			Highlights2012 = -80,
			HueAdjustmentAqua = -6,
			HueAdjustmentBlue = -1,
			HueAdjustmentGreen = 0,
			HueAdjustmentMagenta = 0,
			HueAdjustmentOrange = -12,
			HueAdjustmentPurple = 0,
			HueAdjustmentRed = 0,
			HueAdjustmentYellow = -38,
			LensManualDistortionAmount = 0,
			LensProfileChromaticAberrationScale = 100,
			LensProfileDigest = "7B0BAB9F81F5D3619E136019545B6413",
			LensProfileDistortionScale = 100,
			LensProfileEnable = 1,
			LensProfileFilename = "Canon EOS 50D (Canon EF-S 18-55mm f3.5-5.6 IS) - RAW.lcp",
			LensProfileName = "Adobe (Canon EF-S 18-55mm f/3.5-5.6 IS)",
			LensProfileSetup = "Custom",
			LensProfileVignettingScale = 100,
			LuminanceAdjustmentAqua = -26,
			LuminanceAdjustmentBlue = -21,
			LuminanceAdjustmentGreen = 9,
			LuminanceAdjustmentMagenta = 0,
			LuminanceAdjustmentOrange = 30,
			LuminanceAdjustmentPurple = 0,
			LuminanceAdjustmentRed = 0,
			LuminanceAdjustmentYellow = -24,
			LuminanceNoiseReductionContrast = 0,
			LuminanceNoiseReductionDetail = 50,
			LuminanceSmoothing = 0,
			ParametricDarks = 0,
			ParametricHighlightSplit = 75,
			ParametricHighlights = 0,
			ParametricLights = 0,
			ParametricMidtoneSplit = 50,
			ParametricShadowSplit = 25,
			ParametricShadows = 0,
			PerspectiveAspect = 0,
			PerspectiveHorizontal = 0,
			PerspectiveRotate = 0,
			PerspectiveScale = 100,
			PerspectiveUpright = 0,
			PerspectiveVertical = 0,
			PostCropVignetteAmount = 0,
			PostCropVignetteFeather = 50,
			PostCropVignetteHighlightContrast = 0,
			PostCropVignetteMidpoint = 50,
			PostCropVignetteRoundness = 0,
			PostCropVignetteStyle = 1,
			ProcessVersion = "6.7",
			RedHue = 12,
			RedSaturation = -15,
			Saturation = 25,
			SaturationAdjustmentAqua = -50,
			SaturationAdjustmentBlue = -16,
			SaturationAdjustmentGreen = -82,
			SaturationAdjustmentMagenta = -37,
			SaturationAdjustmentOrange = 0,
			SaturationAdjustmentPurple = -52,
			SaturationAdjustmentRed = 0,
			SaturationAdjustmentYellow = -16,
			ShadowTint = 0,
			Shadows2012 = 90,
			SharpenDetail = 25,
			SharpenEdgeMasking = 0,
			SharpenRadius = 1,
			Sharpness = 67,
			SplitToningBalance = 0,
			SplitToningHighlightHue = 231,
			SplitToningHighlightSaturation = 26,
			SplitToningShadowHue = 31,
			SplitToningShadowSaturation = 5,
			ToneCurveName2012 = "Custom",
			ToneCurvePV2012 = {
				0,
				12,
				62,
				62,
				195,
				195,
				255,
				240,
			},
			ToneCurvePV2012Blue = {
				0,
				0,
				255,
				255,
			},
			ToneCurvePV2012Green = {
				0,
				0,
				255,
				255,
			},
			ToneCurvePV2012Red = {
				0,
				0,
				255,
				255,
			},
			Vibrance = 40,
			VignetteAmount = -25,
			VignetteMidpoint = 18,
			WhiteBalance = "As Shot",
			Whites2012 = 0,
			orientation = "AB",
		},
		uuid = "126950C6-66A2-4C44-8242-F56A6BBCD72C",
	},
	version = 0,
}
