CM 1000+ Lightroom Preset Pack 317985/Photographers Collection (333)/Lightroom Preset (321).lrtemplate
s = {
	id = "77632372-6045-4161-9983-5290017590A9",
	internalName = "sunsetlightt",
	title = "sunsetlightt",
	type = "Develop",
	value = {
		settings = {
			AutoLateralCA = 0,
			Blacks2012 = -35,
			BlueHue = -1,
			BlueSaturation = 0,
			CameraProfile = "Adobe Standard",
			ChromaticAberrationB = 0,
			ChromaticAberrationR = 0,
			Clarity2012 = 26,
			ColorNoiseReduction = 25,
			ColorNoiseReductionDetail = 50,
			ColorNoiseReductionSmoothness = 50,
			Contrast2012 = 17,
			ConvertToGrayscale = false,
			Defringe = 0,
			DefringeGreenAmount = 0,
			DefringeGreenHueHi = 60,
			DefringeGreenHueLo = 40,
			DefringePurpleAmount = 0,
			DefringePurpleHueHi = 70,
			DefringePurpleHueLo = 30,
			EnableCalibration = true,
			EnableCircularGradientBasedCorrections = true,
			EnableColorAdjustments = true,
			EnableDetail = true,
			EnableEffects = true,
			EnableGradientBasedCorrections = true,
			EnableLensCorrections = true,
			EnableSplitToning = true,
			Exposure2012 = 0.51,
			GradientBasedCorrections = {
				{
					CorrectionActive = true,
					CorrectionAmount = 1,
					CorrectionID = "923192DD-EDD3-471D-B0D7-704715E531BA",
					CorrectionMasks = {
						{
							FullX = 0.69708,
							FullY = 0.034063,
							MaskID = "83F3C07E-8232-4E9C-A749-C18ACD7DA8DC",
							MaskValue = 1,
							What = "Mask/Gradient",
							ZeroX = 0.70438,
							ZeroY = 0.574209,
						},
					},
					CorrectionReferenceX = 0.70073,
					CorrectionReferenceY = 0.304136,
					LocalBrightness = 0,
					LocalClarity = 0,
					LocalClarity2012 = 0,
					LocalContrast = 0,
					LocalContrast2012 = 0,
					LocalDefringe = 0,
					LocalExposure = 0,
					LocalExposure2012 = -0.19575,
					LocalHighlights2012 = -0.80435,
					LocalLuminanceNoise = 0,
					LocalMoire = 0,
					LocalSaturation = 0,
					LocalShadows2012 = 0.71739,
					LocalSharpness = 0,
					LocalTemperature = 0.21739,
					LocalTint = 0,
					LocalToningHue = 0,
					LocalToningSaturation = 0,
					What = "Correction",
				},
			},
			GrainAmount = 0,
			GrainFrequency = 50,
			GrainSize = 25,
			GreenHue = 0,
			GreenSaturation = 0,
			Highlights2012 = -98,
			HueAdjustmentAqua = -3,
			HueAdjustmentBlue = -7,
			HueAdjustmentGreen = 0,
			HueAdjustmentMagenta = 45,
			HueAdjustmentOrange = 0,
			HueAdjustmentPurple = 12,
			HueAdjustmentRed = 0,
			HueAdjustmentYellow = -12,
			LensProfileEnable = 0,
			LensProfileSetup = "LensDefaults",
			LuminanceAdjustmentAqua = -20,
			LuminanceAdjustmentBlue = -9,
			LuminanceAdjustmentGreen = 83,
			LuminanceAdjustmentMagenta = -3,
			LuminanceAdjustmentOrange = 0,
			LuminanceAdjustmentPurple = -5,
			LuminanceAdjustmentRed = -5,
			LuminanceAdjustmentYellow = -3,
			LuminanceNoiseReductionContrast = 0,
			LuminanceNoiseReductionDetail = 50,
			LuminanceSmoothing = 0,
			ParametricDarks = 0,
			ParametricHighlightSplit = 75,
			ParametricHighlights = 0,
			ParametricLights = 0,
			ParametricMidtoneSplit = 50,
			ParametricShadowSplit = 25,
			ParametricShadows = 0,
			PostCropVignetteAmount = 0,
			PostCropVignetteFeather = 50,
			PostCropVignetteHighlightContrast = 0,
			PostCropVignetteMidpoint = 50,
			PostCropVignetteRoundness = 0,
			PostCropVignetteStyle = 1,
			ProcessVersion = "6.7",
			RedHue = 0,
			RedSaturation = 0,
			Saturation = 19,
			SaturationAdjustmentAqua = -37,
			SaturationAdjustmentBlue = -9,
			SaturationAdjustmentGreen = -5,
			SaturationAdjustmentMagenta = 5,
			SaturationAdjustmentOrange = -9,
			SaturationAdjustmentPurple = -1,
			SaturationAdjustmentRed = 3,
			SaturationAdjustmentYellow = 1,
			ShadowTint = 0,
			Shadows2012 = 100,
			SharpenDetail = 25,
			SharpenEdgeMasking = 0,
			SharpenRadius = 1,
			Sharpness = 62,
			SplitToningBalance = 0,
			SplitToningHighlightHue = 40,
			SplitToningHighlightSaturation = 29,
			SplitToningShadowHue = 44,
			SplitToningShadowSaturation = 38,
			Temperature = 4809,
			Tint = 8,
			ToneCurveName2012 = "Custom",
			ToneCurvePV2012 = {
				0,
				15,
				59,
				59,
				198,
				198,
				255,
				238,
			},
			ToneCurvePV2012Blue = {
				0,
				0,
				255,
				255,
			},
			ToneCurvePV2012Green = {
				0,
				0,
				255,
				255,
			},
			ToneCurvePV2012Red = {
				0,
				0,
				255,
				255,
			},
			Vibrance = 44,
			VignetteAmount = 0,
			VignetteMidpoint = 50,
			WhiteBalance = "Custom",
			Whites2012 = -30,
			orientation = "AB",
		},
		uuid = "4C8764D5-716D-4322-946D-F746808B1847",
	},
	version = 0,
}
