CM 1000+ Lightroom Preset Pack 317985/Photographers Collection (333)/Lightroom Preset (75).lrtemplate
s = {
	id = "0933F370-C8D5-445D-B724-A688159CA11E",
	internalName = "moonlight landscape",
	title = "moonlight landscape",
	type = "Develop",
	value = {
		settings = {
			AutoLateralCA = 1,
			Blacks2012 = -73,
			BlueHue = -11,
			BlueSaturation = 0,
			CameraProfile = "Adobe Standard",
			ChromaticAberrationB = 0,
			ChromaticAberrationR = 0,
			Clarity2012 = 4,
			ColorNoiseReduction = 25,
			ColorNoiseReductionDetail = 50,
			Contrast2012 = 14,
			ConvertToGrayscale = false,
			CropConstrainToWarp = 0,
			Defringe = 0,
			DefringeGreenAmount = 0,
			DefringeGreenHueHi = 60,
			DefringeGreenHueLo = 40,
			DefringePurpleAmount = 0,
			DefringePurpleHueHi = 70,
			DefringePurpleHueLo = 30,
			EnableCalibration = true,
			EnableCircularGradientBasedCorrections = true,
			EnableColorAdjustments = true,
			EnableDetail = true,
			EnableEffects = true,
			EnableGradientBasedCorrections = true,
			EnableLensCorrections = true,
			EnableSplitToning = true,
			Exposure2012 = 0.9,
			GradientBasedCorrections = {
				{
					CorrectionActive = true,
					CorrectionAmount = 1,
					CorrectionID = "A18A8E9F-FE0F-455D-8EF2-46C37E261CB6",
					CorrectionMasks = {
						{
							FullX = 0.47987,
							FullY = 0.144346,
							MaskID = "3122A343-2288-4093-BA04-B5A25DACE4CC",
							MaskValue = 1,
							What = "Mask/Gradient",
							ZeroX = 0.519613,
							ZeroY = 0.587434,
						},
					},
					CorrectionReferenceX = 0.499742,
					CorrectionReferenceY = 0.36589,
					LocalBrightness = 0,
					LocalClarity = 0,
					LocalClarity2012 = 0.33333,
					LocalContrast = 0,
					LocalContrast2012 = 0,
					LocalDefringe = 0,
					LocalExposure = 0,
					LocalExposure2012 = -0.305,
					LocalHighlights2012 = -0.47518,
					LocalLuminanceNoise = 0,
					LocalMoire = 0,
					LocalSaturation = 0,
					LocalShadows2012 = 0.55556,
					LocalSharpness = 0,
					LocalTemperature = 0,
					LocalTint = 0,
					LocalToningHue = 0,
					LocalToningSaturation = 0,
					What = "Correction",
				},
			},
			GrainAmount = 0,
			GrainFrequency = 50,
			GrainSize = 25,
			GreenHue = 0,
			GreenSaturation = 0,
			Highlights2012 = -78,
			HueAdjustmentAqua = -3,
			HueAdjustmentBlue = -3,
			HueAdjustmentGreen = -10,
			HueAdjustmentMagenta = 0,
			HueAdjustmentOrange = 0,
			HueAdjustmentPurple = 0,
			HueAdjustmentRed = 0,
			HueAdjustmentYellow = 0,
			LensManualDistortionAmount = 0,
			LensProfileChromaticAberrationScale = 100,
			LensProfileDigest = "7B0BAB9F81F5D3619E136019545B6413",
			LensProfileDistortionScale = 100,
			LensProfileEnable = 1,
			LensProfileFilename = "Canon EOS 50D (Canon EF-S 18-55mm f3.5-5.6 IS) - RAW.lcp",
			LensProfileName = "Adobe (Canon EF-S 18-55mm f/3.5-5.6 IS)",
			LensProfileSetup = "Custom",
			LensProfileVignettingScale = 100,
			LuminanceAdjustmentAqua = -23,
			LuminanceAdjustmentBlue = -20,
			LuminanceAdjustmentGreen = 13,
			LuminanceAdjustmentMagenta = 0,
			LuminanceAdjustmentOrange = 0,
			LuminanceAdjustmentPurple = 0,
			LuminanceAdjustmentRed = 0,
			LuminanceAdjustmentYellow = 9,
			LuminanceNoiseReductionContrast = 0,
			LuminanceNoiseReductionDetail = 50,
			LuminanceSmoothing = 0,
			ParametricDarks = 0,
			ParametricHighlightSplit = 75,
			ParametricHighlights = 0,
			ParametricLights = 0,
			ParametricMidtoneSplit = 50,
			ParametricShadowSplit = 25,
			ParametricShadows = 0,
			PerspectiveAspect = 0,
			PerspectiveHorizontal = 0,
			PerspectiveRotate = 0,
			PerspectiveScale = 100,
			PerspectiveUpright = 0,
			PerspectiveVertical = 0,
			PostCropVignetteAmount = 0,
			PostCropVignetteFeather = 50,
			PostCropVignetteHighlightContrast = 0,
			PostCropVignetteMidpoint = 50,
			PostCropVignetteRoundness = 0,
			PostCropVignetteStyle = 1,
			ProcessVersion = "6.7",
			RedHue = 6,
			RedSaturation = -8,
			Saturation = 8,
			SaturationAdjustmentAqua = -19,
			SaturationAdjustmentBlue = -39,
			SaturationAdjustmentGreen = 21,
			SaturationAdjustmentMagenta = -49,
			SaturationAdjustmentOrange = 0,
			SaturationAdjustmentPurple = -43,
			SaturationAdjustmentRed = 0,
			SaturationAdjustmentYellow = 0,
			ShadowTint = 0,
			Shadows2012 = 61,
			SharpenDetail = 25,
			SharpenEdgeMasking = 0,
			SharpenRadius = 1,
			Sharpness = 55,
			SplitToningBalance = 0,
			SplitToningHighlightHue = 207,
			SplitToningHighlightSaturation = 5,
			SplitToningShadowHue = 47,
			SplitToningShadowSaturation = 20,
			Temperature = 7899,
			Tint = -4,
			ToneCurveName2012 = "Custom",
			ToneCurvePV2012 = {
				0,
				10,
				63,
				63,
				193,
				193,
				255,
				242,
			},
			ToneCurvePV2012Blue = {
				0,
				0,
				255,
				255,
			},
			ToneCurvePV2012Green = {
				0,
				0,
				255,
				255,
			},
			ToneCurvePV2012Red = {
				0,
				0,
				255,
				255,
			},
			Vibrance = 35,
			VignetteAmount = -11,
			VignetteMidpoint = 27,
			WhiteBalance = "Custom",
			Whites2012 = 0,
			orientation = "AB",
		},
		uuid = "5911070A-3BE2-4AD4-A54F-C138995CBC63",
	},
	version = 0,
}
