CM 1000+ Lightroom Preset Pack 317985/Photographers Collection (333)/Lightroom Preset (314).lrtemplate
s = {
	id = "7682FA65-EF42-4B64-B3BE-19D7108BA258",
	internalName = "summerday",
	title = "summerday",
	type = "Develop",
	value = {
		settings = {
			AutoLateralCA = 1,
			Blacks2012 = -73,
			BlueHue = -15,
			BlueSaturation = 0,
			CameraProfile = "Adobe Standard",
			ChromaticAberrationB = 0,
			ChromaticAberrationR = 0,
			Clarity2012 = 12,
			ColorNoiseReduction = 25,
			ColorNoiseReductionDetail = 50,
			ColorNoiseReductionSmoothness = 50,
			Contrast2012 = 24,
			ConvertToGrayscale = false,
			Defringe = 0,
			DefringeGreenAmount = 0,
			DefringeGreenHueHi = 60,
			DefringeGreenHueLo = 40,
			DefringePurpleAmount = 0,
			DefringePurpleHueHi = 70,
			DefringePurpleHueLo = 30,
			EnableCalibration = true,
			EnableCircularGradientBasedCorrections = true,
			EnableColorAdjustments = true,
			EnableDetail = true,
			EnableEffects = true,
			EnableGradientBasedCorrections = true,
			EnableLensCorrections = true,
			EnableSplitToning = true,
			Exposure2012 = 1.63,
			GradientBasedCorrections = {
				{
					CorrectionActive = true,
					CorrectionAmount = 1,
					CorrectionID = "CD7FF3EC-EC7F-4549-8444-EBCEB50D508C",
					CorrectionMasks = {
						{
							FullX = 0.572447,
							FullY = 0.021352,
							MaskID = "211DF110-6DDE-4C44-8052-A87088A18E9A",
							MaskValue = 1,
							What = "Mask/Gradient",
							ZeroX = 0.562896,
							ZeroY = 0.82261,
						},
					},
					CorrectionReferenceX = 0.567672,
					CorrectionReferenceY = 0.421981,
					LocalBrightness = 0,
					LocalClarity = 0,
					LocalClarity2012 = 0.78261,
					LocalContrast = 0,
					LocalContrast2012 = 0,
					LocalDefringe = 0,
					LocalExposure = 0,
					LocalExposure2012 = -0.26075,
					LocalHighlights2012 = -0.93478,
					LocalLuminanceNoise = 0,
					LocalMoire = 0,
					LocalSaturation = 0,
					LocalShadows2012 = 0.71739,
					LocalSharpness = 0,
					LocalTemperature = 0,
					LocalTint = 0,
					LocalToningHue = 0,
					LocalToningSaturation = 0,
					What = "Correction",
				},
				{
					CorrectionActive = true,
					CorrectionAmount = 1,
					CorrectionID = "C958533F-50AC-44B3-8189-70F2BA461755",
					CorrectionMasks = {
						{
							FullX = 0.112397,
							FullY = 0.109835,
							MaskID = "1C6C1323-74C4-4D5C-A187-FD27E051A6CD",
							MaskValue = 1,
							What = "Mask/Gradient",
							ZeroX = 0.816097,
							ZeroY = 0.58575,
						},
					},
					CorrectionReferenceX = 0.464247,
					CorrectionReferenceY = 0.347793,
					LocalBrightness = 0,
					LocalClarity = 0,
					LocalClarity2012 = 0,
					LocalContrast = 0,
					LocalContrast2012 = 0,
					LocalDefringe = 0,
					LocalExposure = 0,
					LocalExposure2012 = -0.10875,
					LocalHighlights2012 = -0.93478,
					LocalLuminanceNoise = 0,
					LocalMoire = 0,
					LocalSaturation = 0,
					LocalShadows2012 = 0.71739,
					LocalSharpness = 0,
					LocalTemperature = 0,
					LocalTint = 0,
					LocalToningHue = 0,
					LocalToningSaturation = 0,
					What = "Correction",
				},
				{
					CorrectionActive = true,
					CorrectionAmount = 1,
					CorrectionID = "3E6BD492-A954-49E4-85D0-A1FE063E3660",
					CorrectionMasks = {
						{
							FullX = 0.949281,
							FullY = 0.183618,
							MaskID = "6EC85E02-FD8E-46EA-887B-32CD5A4DDADE",
							MaskValue = 1,
							What = "Mask/Gradient",
							ZeroX = 0.306709,
							ZeroY = 0.724787,
						},
					},
					CorrectionReferenceX = 0.627995,
					CorrectionReferenceY = 0.454202,
					LocalBrightness = 0,
					LocalClarity = 0,
					LocalClarity2012 = 0,
					LocalContrast = 0,
					LocalContrast2012 = 0,
					LocalDefringe = 0,
					LocalExposure = 0,
					LocalExposure2012 = -0.1305,
					LocalHighlights2012 = -0.93478,
					LocalLuminanceNoise = 0,
					LocalMoire = 0,
					LocalSaturation = 0,
					LocalShadows2012 = 0.71739,
					LocalSharpness = 0,
					LocalTemperature = 0,
					LocalTint = 0,
					LocalToningHue = 0,
					LocalToningSaturation = 0,
					What = "Correction",
				},
			},
			GrainAmount = 0,
			GrainFrequency = 50,
			GrainSize = 25,
			GreenHue = 0,
			GreenSaturation = 0,
			Highlights2012 = -100,
			HueAdjustmentAqua = -20,
			HueAdjustmentBlue = -12,
			HueAdjustmentGreen = 85,
			HueAdjustmentMagenta = 0,
			HueAdjustmentOrange = 0,
			HueAdjustmentPurple = 0,
			HueAdjustmentRed = -1,
			HueAdjustmentYellow = -45,
			LensProfileChromaticAberrationScale = 100,
			LensProfileDigest = "1BA6E276254B7C689CE3A05468A02070",
			LensProfileDistortionScale = 100,
			LensProfileEnable = 1,
			LensProfileFilename = "Canon EOS 50D (Canon EF-S 18-55mm f3.5-5.6 IS STM) - RAW.lcp",
			LensProfileName = "Adobe (Canon EF-S 18-55mm f/3.5-5.6 IS STM)",
			LensProfileSetup = "Custom",
			LensProfileVignettingScale = 100,
			LuminanceAdjustmentAqua = -58,
			LuminanceAdjustmentBlue = -43,
			LuminanceAdjustmentGreen = 12,
			LuminanceAdjustmentMagenta = 3,
			LuminanceAdjustmentOrange = -14,
			LuminanceAdjustmentPurple = -5,
			LuminanceAdjustmentRed = 0,
			LuminanceAdjustmentYellow = -22,
			LuminanceNoiseReductionContrast = 0,
			LuminanceNoiseReductionDetail = 50,
			LuminanceSmoothing = 0,
			ParametricDarks = 0,
			ParametricHighlightSplit = 75,
			ParametricHighlights = 0,
			ParametricLights = 0,
			ParametricMidtoneSplit = 50,
			ParametricShadowSplit = 25,
			ParametricShadows = 0,
			PostCropVignetteAmount = 0,
			PostCropVignetteFeather = 50,
			PostCropVignetteHighlightContrast = 0,
			PostCropVignetteMidpoint = 50,
			PostCropVignetteRoundness = 0,
			PostCropVignetteStyle = 1,
			ProcessVersion = "6.7",
			RedHue = 12,
			RedSaturation = -10,
			Saturation = 26,
			SaturationAdjustmentAqua = -54,
			SaturationAdjustmentBlue = -9,
			SaturationAdjustmentGreen = -39,
			SaturationAdjustmentMagenta = -56,
			SaturationAdjustmentOrange = -24,
			SaturationAdjustmentPurple = -79,
			SaturationAdjustmentRed = 0,
			SaturationAdjustmentYellow = -24,
			ShadowTint = 0,
			Shadows2012 = 10,
			SharpenDetail = 25,
			SharpenEdgeMasking = 0,
			SharpenRadius = 1,
			Sharpness = 61,
			SplitToningBalance = 35,
			SplitToningHighlightHue = 222,
			SplitToningHighlightSaturation = 16,
			SplitToningShadowHue = 28,
			SplitToningShadowSaturation = 17,
			Temperature = 4584,
			Tint = 9,
			ToneCurveName2012 = "Custom",
			ToneCurvePV2012 = {
				0,
				13,
				60,
				60,
				192,
				192,
				255,
				242,
			},
			ToneCurvePV2012Blue = {
				0,
				0,
				255,
				255,
			},
			ToneCurvePV2012Green = {
				0,
				0,
				255,
				255,
			},
			ToneCurvePV2012Red = {
				0,
				0,
				255,
				255,
			},
			Vibrance = 42,
			VignetteAmount = -21,
			VignetteMidpoint = 15,
			WhiteBalance = "Custom",
			Whites2012 = 28,
			orientation = "AB",
		},
		uuid = "ED121A66-7BC6-4F6B-A0CD-65FCF7A9E87B",
	},
	version = 0,
}
