CM 1000+ Lightroom Preset Pack 317985/Photographers Collection (333)/Lightroom Preset (198).lrtemplate
s = {
	id = "7863420A-5842-47F8-9DB8-976F8CFBABD1",
	internalName = "Quick Effect - Sunny",
	title = "Quick Effect - Sunny",
	type = "Develop",
	value = {
		settings = {
			Blacks2012 = 100,
			Clarity2012 = 100,
			Contrast2012 = 19,
			ConvertToGrayscale = false,
			EnableColorAdjustments = true,
			EnableDetail = true,
			Exposure2012 = 0,
			Highlights2012 = -52,
			HueAdjustmentAqua = 0,
			HueAdjustmentBlue = 0,
			HueAdjustmentGreen = 0,
			HueAdjustmentMagenta = 0,
			HueAdjustmentOrange = 0,
			HueAdjustmentPurple = 0,
			HueAdjustmentRed = 0,
			HueAdjustmentYellow = 0,
			LuminanceAdjustmentAqua = 0,
			LuminanceAdjustmentBlue = 0,
			LuminanceAdjustmentGreen = 0,
			LuminanceAdjustmentMagenta = 0,
			LuminanceAdjustmentOrange = 0,
			LuminanceAdjustmentPurple = 0,
			LuminanceAdjustmentRed = 0,
			LuminanceAdjustmentYellow = 0,
			ParametricDarks = 0,
			ParametricHighlightSplit = 75,
			ParametricHighlights = 0,
			ParametricLights = 0,
			ParametricMidtoneSplit = 50,
			ParametricShadowSplit = 25,
			ParametricShadows = 0,
			ProcessVersion = "6.7",
			Saturation = 0,
			SaturationAdjustmentAqua = 0,
			SaturationAdjustmentBlue = 0,
			SaturationAdjustmentGreen = 0,
			SaturationAdjustmentMagenta = 0,
			SaturationAdjustmentOrange = 0,
			SaturationAdjustmentPurple = 0,
			SaturationAdjustmentRed = 0,
			SaturationAdjustmentYellow = 0,
			Shadows2012 = 83,
			SharpenDetail = 25,
			SharpenEdgeMasking = 0,
			SharpenRadius = 1,
			Sharpness = 29,
			ToneCurveName2012 = "Custom",
			ToneCurvePV2012 = {
				32,
				0,
				108,
				117,
				251,
				241,
				255,
				244,
			},
			ToneCurvePV2012Blue = {
				16,
				0,
				255,
				255,
			},
			ToneCurvePV2012Green = {
				0,
				0,
				255,
				255,
			},
			ToneCurvePV2012Red = {
				0,
				0,
				15,
				16,
				255,
				255,
			},
			Vibrance = -12,
			Whites2012 = -2,
		},
		uuid = "7ECCF256-4169-4E6E-B5E3-B963DBE3F348",
	},
	version = 0,
}
