CM 1000+ Lightroom Preset Pack 317985/Photographers Collection (333)/Lightroom Preset (301).lrtemplate
s = {
	id = "BCE35345-4E46-4B82-BEFC-87AD795601A1",
	internalName = "silence",
	title = "silence",
	type = "Develop",
	value = {
		settings = {
			AutoLateralCA = 1,
			Blacks2012 = -78,
			BlueHue = -12,
			BlueSaturation = 0,
			CameraProfile = "Adobe Standard",
			ChromaticAberrationB = 0,
			ChromaticAberrationR = 0,
			Clarity2012 = 5,
			ColorNoiseReduction = 25,
			ColorNoiseReductionDetail = 50,
			Contrast2012 = 37,
			ConvertToGrayscale = false,
			CropConstrainToWarp = 0,
			Defringe = 0,
			DefringeGreenAmount = 0,
			DefringeGreenHueHi = 60,
			DefringeGreenHueLo = 40,
			DefringePurpleAmount = 0,
			DefringePurpleHueHi = 70,
			DefringePurpleHueLo = 30,
			EnableCalibration = true,
			EnableCircularGradientBasedCorrections = true,
			EnableColorAdjustments = true,
			EnableDetail = true,
			EnableEffects = true,
			EnableGradientBasedCorrections = true,
			EnableLensCorrections = true,
			EnableSplitToning = true,
			Exposure2012 = 0.76,
			GradientBasedCorrections = {
				{
					CorrectionActive = true,
					CorrectionAmount = 1,
					CorrectionID = "B57508D4-7DBB-49DE-ADC4-BC3A99B98D94",
					CorrectionMasks = {
						{
							FullX = 0.968101,
							FullY = 0.540551,
							MaskID = "DCD369F8-6BA8-47F3-A365-6AD0BF5ABB7E",
							MaskValue = 1,
							What = "Mask/Gradient",
							ZeroX = 0.34657,
							ZeroY = 0.576619,
						},
					},
					CorrectionReferenceX = 0.657335,
					CorrectionReferenceY = 0.558585,
					LocalBrightness = 0,
					LocalClarity = 0,
					LocalClarity2012 = 0,
					LocalContrast = 0,
					LocalContrast2012 = 0,
					LocalDefringe = 0,
					LocalExposure = 0,
					LocalExposure2012 = -0.5035,
					LocalHighlights2012 = -0.7305,
					LocalLuminanceNoise = 0,
					LocalMoire = 0,
					LocalSaturation = 0,
					LocalShadows2012 = 0.80142,
					LocalSharpness = 0,
					LocalTemperature = 0,
					LocalTint = 0,
					LocalToningHue = 0,
					LocalToningSaturation = 0,
					What = "Correction",
				},
			},
			GrainAmount = 0,
			GrainFrequency = 50,
			GrainSize = 25,
			GreenHue = 0,
			GreenSaturation = 0,
			Highlights2012 = -76,
			HueAdjustmentAqua = 0,
			HueAdjustmentBlue = 0,
			HueAdjustmentGreen = 0,
			HueAdjustmentMagenta = 0,
			HueAdjustmentOrange = 0,
			HueAdjustmentPurple = 0,
			HueAdjustmentRed = 0,
			HueAdjustmentYellow = 0,
			LensManualDistortionAmount = 0,
			LensProfileChromaticAberrationScale = 100,
			LensProfileDigest = "7B0BAB9F81F5D3619E136019545B6413",
			LensProfileDistortionScale = 100,
			LensProfileEnable = 1,
			LensProfileFilename = "Canon EOS 50D (Canon EF-S 18-55mm f3.5-5.6 IS) - RAW.lcp",
			LensProfileName = "Adobe (Canon EF-S 18-55mm f/3.5-5.6 IS)",
			LensProfileSetup = "Custom",
			LensProfileVignettingScale = 100,
			LuminanceAdjustmentAqua = -24,
			LuminanceAdjustmentBlue = -24,
			LuminanceAdjustmentGreen = 0,
			LuminanceAdjustmentMagenta = 0,
			LuminanceAdjustmentOrange = -14,
			LuminanceAdjustmentPurple = 0,
			LuminanceAdjustmentRed = 0,
			LuminanceAdjustmentYellow = -13,
			LuminanceNoiseReductionContrast = 0,
			LuminanceNoiseReductionDetail = 50,
			LuminanceSmoothing = 0,
			ParametricDarks = 0,
			ParametricHighlightSplit = 75,
			ParametricHighlights = 0,
			ParametricLights = 0,
			ParametricMidtoneSplit = 50,
			ParametricShadowSplit = 25,
			ParametricShadows = 0,
			PerspectiveAspect = 0,
			PerspectiveHorizontal = 0,
			PerspectiveRotate = 0,
			PerspectiveScale = 100,
			PerspectiveUpright = 0,
			PerspectiveVertical = 0,
			PostCropVignetteAmount = 0,
			PostCropVignetteFeather = 50,
			PostCropVignetteHighlightContrast = 0,
			PostCropVignetteMidpoint = 50,
			PostCropVignetteRoundness = 0,
			PostCropVignetteStyle = 1,
			ProcessVersion = "6.7",
			RedHue = 5,
			RedSaturation = 0,
			Saturation = 2,
			SaturationAdjustmentAqua = -46,
			SaturationAdjustmentBlue = -21,
			SaturationAdjustmentGreen = -68,
			SaturationAdjustmentMagenta = 0,
			SaturationAdjustmentOrange = 0,
			SaturationAdjustmentPurple = 0,
			SaturationAdjustmentRed = 0,
			SaturationAdjustmentYellow = 0,
			ShadowTint = 0,
			Shadows2012 = 90,
			SharpenDetail = 25,
			SharpenEdgeMasking = 0,
			SharpenRadius = 1,
			Sharpness = 65,
			SplitToningBalance = 0,
			SplitToningHighlightHue = 215,
			SplitToningHighlightSaturation = 11,
			SplitToningShadowHue = 39,
			SplitToningShadowSaturation = 18,
			Temperature = 5669,
			Tint = -5,
			ToneCurveName2012 = "Custom",
			ToneCurvePV2012 = {
				0,
				11,
				70,
				70,
				189,
				189,
				255,
				243,
			},
			ToneCurvePV2012Blue = {
				0,
				0,
				255,
				255,
			},
			ToneCurvePV2012Green = {
				0,
				0,
				255,
				255,
			},
			ToneCurvePV2012Red = {
				0,
				0,
				255,
				255,
			},
			Vibrance = 8,
			VignetteAmount = -11,
			VignetteMidpoint = 16,
			WhiteBalance = "Custom",
			Whites2012 = 11,
			orientation = "DA",
		},
		uuid = "1B2747E0-81B0-4007-B7D9-1D604AFC898B",
	},
	version = 0,
}
