CM 1000+ Lightroom Preset Pack 317985/Photographers Collection (333)/Lightroom Preset (60).lrtemplate
s = {
	id = "47B1DDE7-EE47-4CBD-842A-661770BCF262",
	internalName = "field",
	title = "field",
	type = "Develop",
	value = {
		settings = {
			AutoLateralCA = 1,
			Blacks2012 = -57,
			BlueHue = -14,
			BlueSaturation = 0,
			CameraProfile = "Adobe Standard",
			ChromaticAberrationB = 0,
			ChromaticAberrationR = 0,
			Clarity2012 = 20,
			ColorNoiseReduction = 25,
			ColorNoiseReductionDetail = 50,
			Contrast2012 = 22,
			ConvertToGrayscale = false,
			CropConstrainToWarp = 0,
			Defringe = 0,
			DefringeGreenAmount = 0,
			DefringeGreenHueHi = 60,
			DefringeGreenHueLo = 40,
			DefringePurpleAmount = 0,
			DefringePurpleHueHi = 70,
			DefringePurpleHueLo = 30,
			EnableCalibration = true,
			EnableCircularGradientBasedCorrections = true,
			EnableColorAdjustments = true,
			EnableDetail = true,
			EnableEffects = true,
			EnableGradientBasedCorrections = true,
			EnableLensCorrections = true,
			EnableSplitToning = true,
			Exposure2012 = 0.32,
			GradientBasedCorrections = {
				{
					CorrectionActive = true,
					CorrectionAmount = 1,
					CorrectionID = "CC6300E6-D90C-49DD-B17F-B66A74C71CD2",
					CorrectionMasks = {
						{
							FullX = 0.953696,
							FullY = 0.475449,
							MaskID = "A9558FC0-AFD8-49A6-8CB2-013C09E54249",
							MaskValue = 1,
							What = "Mask/Gradient",
							ZeroX = 0.025386,
							ZeroY = 0.475449,
						},
					},
					CorrectionReferenceX = 0.489541,
					CorrectionReferenceY = 0.475449,
					LocalBrightness = 0.08134,
					LocalClarity = 0,
					LocalClarity2012 = 0,
					LocalContrast = 0,
					LocalContrast2012 = 0,
					LocalDefringe = 0,
					LocalExposure = 0,
					LocalExposure2012 = -0.20575,
					LocalHighlights2012 = -0.71631,
					LocalLuminanceNoise = 0,
					LocalMoire = 0,
					LocalSaturation = 0,
					LocalShadows2012 = 0.33333,
					LocalSharpness = 0,
					LocalTemperature = 0,
					LocalTint = 0,
					LocalToningHue = 240,
					LocalToningSaturation = 0,
					What = "Correction",
				},
			},
			GrainAmount = 0,
			GrainFrequency = 50,
			GrainSize = 25,
			GreenHue = 0,
			GreenSaturation = 0,
			Highlights2012 = -84,
			HueAdjustmentAqua = 0,
			HueAdjustmentBlue = 0,
			HueAdjustmentGreen = 1,
			HueAdjustmentMagenta = 0,
			HueAdjustmentOrange = 0,
			HueAdjustmentPurple = 0,
			HueAdjustmentRed = 0,
			HueAdjustmentYellow = 0,
			LensManualDistortionAmount = 0,
			LensProfileEnable = 1,
			LensProfileSetup = "LensDefaults",
			LuminanceAdjustmentAqua = -28,
			LuminanceAdjustmentBlue = -45,
			LuminanceAdjustmentGreen = -9,
			LuminanceAdjustmentMagenta = -24,
			LuminanceAdjustmentOrange = -1,
			LuminanceAdjustmentPurple = 5,
			LuminanceAdjustmentRed = 0,
			LuminanceAdjustmentYellow = 14,
			LuminanceNoiseReductionContrast = 0,
			LuminanceNoiseReductionDetail = 50,
			LuminanceSmoothing = 0,
			ParametricDarks = 0,
			ParametricHighlightSplit = 75,
			ParametricHighlights = 0,
			ParametricLights = 0,
			ParametricMidtoneSplit = 50,
			ParametricShadowSplit = 25,
			ParametricShadows = 0,
			PerspectiveAspect = 0,
			PerspectiveHorizontal = 0,
			PerspectiveRotate = 0,
			PerspectiveScale = 100,
			PerspectiveUpright = 0,
			PerspectiveVertical = 0,
			PostCropVignetteAmount = 0,
			PostCropVignetteFeather = 50,
			PostCropVignetteHighlightContrast = 0,
			PostCropVignetteMidpoint = 50,
			PostCropVignetteRoundness = 0,
			PostCropVignetteStyle = 1,
			ProcessVersion = "6.7",
			RedHue = 6,
			RedSaturation = -6,
			Saturation = 15,
			SaturationAdjustmentAqua = -34,
			SaturationAdjustmentBlue = -12,
			SaturationAdjustmentGreen = -3,
			SaturationAdjustmentMagenta = 30,
			SaturationAdjustmentOrange = 8,
			SaturationAdjustmentPurple = 39,
			SaturationAdjustmentRed = 0,
			SaturationAdjustmentYellow = 35,
			ShadowTint = 0,
			Shadows2012 = 45,
			SharpenDetail = 36,
			SharpenEdgeMasking = 0,
			SharpenRadius = 0.8,
			Sharpness = 53,
			SplitToningBalance = 0,
			SplitToningHighlightHue = 220,
			SplitToningHighlightSaturation = 11,
			SplitToningShadowHue = 21,
			SplitToningShadowSaturation = 4,
			ToneCurveName2012 = "Custom",
			ToneCurvePV2012 = {
				0,
				15,
				63,
				63,
				190,
				190,
				255,
				236,
			},
			ToneCurvePV2012Blue = {
				0,
				0,
				255,
				255,
			},
			ToneCurvePV2012Green = {
				0,
				0,
				255,
				255,
			},
			ToneCurvePV2012Red = {
				0,
				0,
				255,
				255,
			},
			Vibrance = 34,
			VignetteAmount = -5,
			VignetteMidpoint = 21,
			WhiteBalance = "As Shot",
			Whites2012 = 14,
			orientation = "DA",
		},
		uuid = "33CB7B51-8D2F-4016-8ACA-D5E5868EDB3A",
	},
	version = 0,
}
