CM 1000+ Lightroom Preset Pack 317985/Photographers Collection (333)/Lightroom Preset (17).lrtemplate
s = {
	id = "7827C1A3-616B-4475-9363-94A79A00FFB5",
	internalName = "clearblue",
	title = "clearblue",
	type = "Develop",
	value = {
		settings = {
			AutoLateralCA = 1,
			Blacks2012 = -86,
			BlueHue = 0,
			BlueSaturation = 0,
			CameraProfile = "Adobe Standard",
			ChromaticAberrationB = 0,
			ChromaticAberrationR = 0,
			Clarity2012 = 5,
			ColorNoiseReduction = 25,
			ColorNoiseReductionDetail = 50,
			Contrast2012 = 17,
			ConvertToGrayscale = false,
			CropConstrainToWarp = 0,
			Defringe = 0,
			DefringeGreenAmount = 0,
			DefringeGreenHueHi = 60,
			DefringeGreenHueLo = 40,
			DefringePurpleAmount = 0,
			DefringePurpleHueHi = 70,
			DefringePurpleHueLo = 30,
			EnableCalibration = true,
			EnableCircularGradientBasedCorrections = true,
			EnableColorAdjustments = true,
			EnableDetail = true,
			EnableEffects = true,
			EnableGradientBasedCorrections = true,
			EnableLensCorrections = true,
			EnableSplitToning = true,
			Exposure2012 = 1.04,
			GradientBasedCorrections = {
				{
					CorrectionActive = true,
					CorrectionAmount = 1,
					CorrectionID = "CDAB7882-9A85-4917-ACBE-6851756FAF42",
					CorrectionMasks = {
						{
							FullX = 0.58535,
							FullY = 0.03162,
							MaskID = "0BC2E92D-9CBA-45C9-8A0A-C610F355C35C",
							MaskValue = 1,
							What = "Mask/Gradient",
							ZeroX = 0.541006,
							ZeroY = 0.888071,
						},
					},
					CorrectionReferenceX = 0.563178,
					CorrectionReferenceY = 0.459846,
					LocalBrightness = 0,
					LocalClarity = 0,
					LocalClarity2012 = 0,
					LocalContrast = 0,
					LocalContrast2012 = 0,
					LocalDefringe = 0,
					LocalExposure = 0,
					LocalExposure2012 = -0.39,
					LocalHighlights2012 = -0.94326,
					LocalLuminanceNoise = 0,
					LocalMoire = 0,
					LocalSaturation = 0,
					LocalShadows2012 = 0.95745,
					LocalSharpness = 0,
					LocalTemperature = 0,
					LocalTint = 0,
					LocalToningHue = 0,
					LocalToningSaturation = 0,
					What = "Correction",
				},
			},
			GrainAmount = 0,
			GrainFrequency = 50,
			GrainSize = 25,
			GreenHue = 0,
			GreenSaturation = 0,
			Highlights2012 = -87,
			HueAdjustmentAqua = -5,
			HueAdjustmentBlue = -6,
			HueAdjustmentGreen = -41,
			HueAdjustmentMagenta = 0,
			HueAdjustmentOrange = -32,
			HueAdjustmentPurple = -53,
			HueAdjustmentRed = 0,
			HueAdjustmentYellow = -56,
			LensManualDistortionAmount = 0,
			LensProfileChromaticAberrationScale = 100,
			LensProfileDigest = "7B0BAB9F81F5D3619E136019545B6413",
			LensProfileDistortionScale = 100,
			LensProfileEnable = 1,
			LensProfileFilename = "Canon EOS 50D (Canon EF-S 18-55mm f3.5-5.6 IS) - RAW.lcp",
			LensProfileName = "Adobe (Canon EF-S 18-55mm f/3.5-5.6 IS)",
			LensProfileSetup = "Custom",
			LensProfileVignettingScale = 100,
			LuminanceAdjustmentAqua = -67,
			LuminanceAdjustmentBlue = -52,
			LuminanceAdjustmentGreen = -19,
			LuminanceAdjustmentMagenta = -32,
			LuminanceAdjustmentOrange = 17,
			LuminanceAdjustmentPurple = -31,
			LuminanceAdjustmentRed = 52,
			LuminanceAdjustmentYellow = -8,
			LuminanceNoiseReductionContrast = 0,
			LuminanceNoiseReductionDetail = 50,
			LuminanceSmoothing = 0,
			ParametricDarks = 0,
			ParametricHighlightSplit = 75,
			ParametricHighlights = 0,
			ParametricLights = 0,
			ParametricMidtoneSplit = 50,
			ParametricShadowSplit = 25,
			ParametricShadows = 0,
			PerspectiveAspect = 0,
			PerspectiveHorizontal = 0,
			PerspectiveRotate = 0,
			PerspectiveScale = 100,
			PerspectiveUpright = 0,
			PerspectiveVertical = 0,
			PostCropVignetteAmount = 0,
			PostCropVignetteFeather = 50,
			PostCropVignetteHighlightContrast = 0,
			PostCropVignetteMidpoint = 50,
			PostCropVignetteRoundness = 0,
			PostCropVignetteStyle = 1,
			ProcessVersion = "6.7",
			RedHue = 6,
			RedSaturation = -14,
			Saturation = 14,
			SaturationAdjustmentAqua = -57,
			SaturationAdjustmentBlue = -54,
			SaturationAdjustmentGreen = -24,
			SaturationAdjustmentMagenta = -63,
			SaturationAdjustmentOrange = 24,
			SaturationAdjustmentPurple = -63,
			SaturationAdjustmentRed = -21,
			SaturationAdjustmentYellow = 56,
			ShadowTint = 0,
			Shadows2012 = 83,
			SharpenDetail = 25,
			SharpenEdgeMasking = 0,
			SharpenRadius = 1,
			Sharpness = 66,
			SplitToningBalance = 0,
			SplitToningHighlightHue = 205,
			SplitToningHighlightSaturation = 15,
			SplitToningShadowHue = 36,
			SplitToningShadowSaturation = 17,
			ToneCurveName2012 = "Custom",
			ToneCurvePV2012 = {
				0,
				21,
				66,
				66,
				192,
				192,
				255,
				237,
			},
			ToneCurvePV2012Blue = {
				0,
				0,
				255,
				255,
			},
			ToneCurvePV2012Green = {
				0,
				0,
				255,
				255,
			},
			ToneCurvePV2012Red = {
				0,
				0,
				255,
				255,
			},
			Vibrance = 45,
			VignetteAmount = 0,
			VignetteMidpoint = 50,
			WhiteBalance = "As Shot",
			Whites2012 = -17,
			orientation = "AB",
		},
		uuid = "26D14A56-788A-44A3-984F-125785EC74B6",
	},
	version = 0,
}
