Complete Preset Bundle for Lightroom/Complete Preset Bundle for Lightroom/Complete Preset Bundle by Gabha/B&W Marble White (High Key).lrtemplate
s = {
	id = "3ECE5B7A-3268-40D1-9E5C-8C52BAFBDFED",
	internalName = "B&W Marble White (High Key)",
	title = "B&W Marble White (High Key)",
	type = "Develop",
	value = {
		settings = {
			Blacks2012 = -15,
			BlueHue = 0,
			BlueSaturation = 0,
			CameraProfile = "Camera Portrait",
			Clarity2012 = 100,
			Contrast2012 = -100,
			ConvertToGrayscale = true,
			EnableCalibration = true,
			EnableGrayscaleMix = true,
			Exposure2012 = 1,
			GrayMixerAqua = -17,
			GrayMixerBlue = 13,
			GrayMixerGreen = -28,
			GrayMixerMagenta = 4,
			GrayMixerOrange = -20,
			GrayMixerPurple = 18,
			GrayMixerRed = -11,
			GrayMixerYellow = -24,
			GreenHue = 0,
			GreenSaturation = 0,
			Highlights2012 = 100,
			ParametricDarks = 0,
			ParametricHighlightSplit = 75,
			ParametricHighlights = 0,
			ParametricLights = 0,
			ParametricMidtoneSplit = 50,
			ParametricShadowSplit = 25,
			ParametricShadows = 0,
			ProcessVersion = "6.7",
			RedHue = 0,
			RedSaturation = 0,
			ShadowTint = 0,
			Shadows2012 = 100,
			ToneCurveName2012 = "Custom",
			ToneCurvePV2012 = {
				0,
				0,
				55,
				27,
				80,
				56,
				255,
				255,
			},
			ToneCurvePV2012Blue = {
				0,
				0,
				255,
				255,
			},
			ToneCurvePV2012Green = {
				0,
				0,
				255,
				255,
			},
			ToneCurvePV2012Red = {
				0,
				0,
				255,
				255,
			},
			Whites2012 = 59,
		},
		uuid = "24F59AF3-115F-4CA1-8CCE-E58A260428F4",
	},
	version = 0,
}
