Complete Preset Bundle for Lightroom/Complete Preset Bundle for Lightroom/Complete Preset Bundle by Gabha/B&W Alcatraz.lrtemplate
s = {
	id = "07E768C5-E57E-4B7E-BF78-D69E32EC4A52",
	internalName = "B&W Alcatraz",
	title = "B&W Alcatraz",
	type = "Develop",
	value = {
		settings = {
			BlueHue = 0,
			BlueSaturation = 0,
			CameraProfile = "Adobe Standard",
			Clarity2012 = 72,
			ConvertToGrayscale = true,
			EnableCalibration = true,
			EnableEffects = true,
			EnableGrayscaleMix = true,
			EnableSplitToning = true,
			GrainAmount = 30,
			GrainFrequency = 50,
			GrainSize = 35,
			GrayMixerAqua = -19,
			GrayMixerBlue = 8,
			GrayMixerGreen = -26,
			GrayMixerMagenta = 4,
			GrayMixerOrange = -17,
			GrayMixerPurple = 14,
			GrayMixerRed = -8,
			GrayMixerYellow = -21,
			GreenHue = 0,
			GreenSaturation = 0,
			ParametricDarks = 0,
			ParametricHighlightSplit = 75,
			ParametricHighlights = 0,
			ParametricLights = 0,
			ParametricMidtoneSplit = 50,
			ParametricShadowSplit = 25,
			ParametricShadows = 0,
			PostCropVignetteAmount = -26,
			PostCropVignetteFeather = 63,
			PostCropVignetteHighlightContrast = 0,
			PostCropVignetteMidpoint = 66,
			PostCropVignetteRoundness = 35,
			PostCropVignetteStyle = 1,
			ProcessVersion = "6.7",
			RedHue = 0,
			RedSaturation = 0,
			ShadowTint = 0,
			SplitToningBalance = 0,
			SplitToningHighlightHue = 53,
			SplitToningHighlightSaturation = 89,
			SplitToningShadowHue = 48,
			SplitToningShadowSaturation = 28,
			ToneCurveName2012 = "Custom",
			ToneCurvePV2012 = {
				0,
				0,
				132,
				114,
				255,
				255,
			},
			ToneCurvePV2012Blue = {
				0,
				0,
				255,
				255,
			},
			ToneCurvePV2012Green = {
				0,
				0,
				255,
				255,
			},
			ToneCurvePV2012Red = {
				0,
				0,
				255,
				255,
			},
		},
		uuid = "6CAFD1CC-16C3-4804-99AD-F5FB7A8BAED4",
	},
	version = 0,
}
