Complete Preset Bundle for Lightroom/Complete Preset Bundle for Lightroom/Complete Preset Bundle by Gabha/Groova-licious (Strong).lrtemplate
s = {
	id = "8485E69E-71A5-40AA-8DF0-E7B5D0F8EC6B",
	internalName = "Groova-licious (Strong)",
	title = "Groova-licious (Strong)",
	type = "Develop",
	value = {
		settings = {
			EnableEffects = true,
			EnableSplitToning = true,
			ParametricDarks = 0,
			ParametricHighlightSplit = 75,
			ParametricHighlights = 0,
			ParametricLights = 0,
			ParametricMidtoneSplit = 50,
			ParametricShadowSplit = 25,
			ParametricShadows = 0,
			PostCropVignetteAmount = -22,
			PostCropVignetteFeather = 50,
			PostCropVignetteHighlightContrast = 0,
			PostCropVignetteMidpoint = 50,
			PostCropVignetteRoundness = 0,
			PostCropVignetteStyle = 1,
			ProcessVersion = "6.7",
			SplitToningBalance = 0,
			SplitToningHighlightHue = 115,
			SplitToningHighlightSaturation = 47,
			SplitToningShadowHue = 299,
			SplitToningShadowSaturation = 59,
			ToneCurveName2012 = "Medium Contrast",
			ToneCurvePV2012 = {
				0,
				0,
				32,
				22,
				64,
				56,
				128,
				128,
				192,
				196,
				255,
				255,
			},
			ToneCurvePV2012Blue = {
				0,
				0,
				255,
				255,
			},
			ToneCurvePV2012Green = {
				0,
				0,
				255,
				255,
			},
			ToneCurvePV2012Red = {
				0,
				0,
				255,
				255,
			},
		},
		uuid = "579CA239-4342-4B9A-A0B7-EAA00044A295",
	},
	version = 0,
}
