Kansas Pitts - The Ultimate Collection for PSE + Lightroom Presets/The Ultimate Collection for PSE + Lightroom Users/LRPresetsV5+/The Lush Collection (LR)/Mono Matte Film.lrtemplate
s = {
	id = "48A21F3E-EE0B-4FD2-92CC-8579E9739A52",
	internalName = "Mono Matte Film",
	title = "Mono Matte Film",
	type = "Develop",
	value = {
		settings = {
			Blacks2012 = -18,
			BlueHue = 0,
			BlueSaturation = 0,
			CameraProfile = "Adobe Standard",
			Clarity2012 = 9,
			ColorNoiseReduction = 25,
			ColorNoiseReductionDetail = 50,
			ColorNoiseReductionSmoothness = 50,
			Contrast2012 = 28,
			ConvertToGrayscale = true,
			EnableCalibration = true,
			EnableDetail = true,
			EnableEffects = true,
			EnableGradientBasedCorrections = true,
			EnableGrayscaleMix = true,
			EnableSplitToning = true,
			Exposure2012 = 0.1,
			GrainAmount = 21,
			GrainFrequency = 50,
			GrainSize = 25,
			GrayMixerAqua = -20,
			GrayMixerBlue = 3,
			GrayMixerGreen = -22,
			GrayMixerMagenta = 5,
			GrayMixerOrange = -11,
			GrayMixerPurple = 11,
			GrayMixerRed = -3,
			GrayMixerYellow = -14,
			GreenHue = 0,
			GreenSaturation = 0,
			Highlights2012 = -42,
			LuminanceNoiseReductionContrast = 0,
			LuminanceNoiseReductionDetail = 50,
			LuminanceSmoothing = 25,
			ParametricDarks = 0,
			ParametricHighlightSplit = 75,
			ParametricHighlights = 0,
			ParametricLights = 0,
			ParametricMidtoneSplit = 50,
			ParametricShadowSplit = 25,
			ParametricShadows = 0,
			PostCropVignetteAmount = 0,
			PostCropVignetteFeather = 50,
			PostCropVignetteHighlightContrast = 0,
			PostCropVignetteMidpoint = 50,
			PostCropVignetteRoundness = 0,
			PostCropVignetteStyle = 1,
			ProcessVersion = "6.7",
			RedHue = 0,
			RedSaturation = 0,
			ShadowTint = 0,
			Shadows2012 = 65,
			SharpenDetail = 25,
			SharpenEdgeMasking = 0,
			SharpenRadius = 1,
			Sharpness = 25,
			SplitToningBalance = 0,
			SplitToningHighlightHue = 0,
			SplitToningHighlightSaturation = 0,
			SplitToningShadowHue = 0,
			SplitToningShadowSaturation = 0,
			Temperature = 11044,
			Tint = 16,
			ToneCurveName2012 = "Custom",
			ToneCurvePV2012 = {
				0,
				47,
				85,
				86,
				255,
				255,
			},
			ToneCurvePV2012Blue = {
				0,
				0,
				255,
				255,
			},
			ToneCurvePV2012Green = {
				0,
				0,
				255,
				255,
			},
			ToneCurvePV2012Red = {
				0,
				0,
				255,
				255,
			},
			WhiteBalance = "Custom",
			Whites2012 = 2,
			orientation = "AB",
		},
		uuid = "C549CC4C-F9AF-40D2-BE7C-DF147BD49AF3",
	},
	version = 0,
}
