CM - Wedding Lightroom Presets Bundle HQ 323529/Presets Bundle/Wedding Lightroom Presets by BeArt/beart-Wedding Diaphanous.lrtemplate
s = {
	id = "192951C4-E1B9-4A45-B94A-798A3782D7FB",
	internalName = "beart-Wedding Diaphanous",
	title = "beart-Wedding Diaphanous",
	type = "Develop",
	value = {
		settings = {
			Blacks2012 = -5,
			BlueHue = 0,
			BlueSaturation = 0,
			CameraProfile = "Adobe Standard",
			Clarity2012 = 2,
			ColorNoiseReduction = 26,
			ColorNoiseReductionDetail = 50,
			ColorNoiseReductionSmoothness = 50,
			Contrast2012 = 0,
			ConvertToGrayscale = false,
			EnableCalibration = true,
			EnableColorAdjustments = true,
			EnableDetail = true,
			EnableEffects = true,
			EnableSplitToning = true,
			Exposure2012 = 0.24,
			GrainAmount = 0,
			GrainFrequency = 50,
			GrainSize = 25,
			GreenHue = 0,
			GreenSaturation = 0,
			Highlights2012 = 2,
			HueAdjustmentAqua = 2,
			HueAdjustmentBlue = 0,
			HueAdjustmentGreen = -7,
			HueAdjustmentMagenta = 0,
			HueAdjustmentOrange = -4,
			HueAdjustmentPurple = 0,
			HueAdjustmentRed = 0,
			HueAdjustmentYellow = -13,
			IncrementalTemperature = -10,
			IncrementalTint = 0,
			LuminanceAdjustmentAqua = 0,
			LuminanceAdjustmentBlue = -10,
			LuminanceAdjustmentGreen = -15,
			LuminanceAdjustmentMagenta = -10,
			LuminanceAdjustmentOrange = -10,
			LuminanceAdjustmentPurple = 0,
			LuminanceAdjustmentRed = 10,
			LuminanceAdjustmentYellow = -5,
			LuminanceNoiseReductionContrast = 0,
			LuminanceNoiseReductionDetail = 13,
			LuminanceSmoothing = 23,
			ParametricDarks = -40,
			ParametricHighlightSplit = 75,
			ParametricHighlights = -20,
			ParametricLights = 40,
			ParametricMidtoneSplit = 50,
			ParametricShadowSplit = 25,
			ParametricShadows = 20,
			PostCropVignetteAmount = -20,
			PostCropVignetteFeather = 60,
			PostCropVignetteHighlightContrast = 0,
			PostCropVignetteMidpoint = 10,
			PostCropVignetteRoundness = 0,
			PostCropVignetteStyle = 1,
			ProcessVersion = "6.7",
			RedHue = 0,
			RedSaturation = 0,
			Saturation = -10,
			SaturationAdjustmentAqua = 0,
			SaturationAdjustmentBlue = 0,
			SaturationAdjustmentGreen = 0,
			SaturationAdjustmentMagenta = -10,
			SaturationAdjustmentOrange = 15,
			SaturationAdjustmentPurple = 0,
			SaturationAdjustmentRed = 5,
			SaturationAdjustmentYellow = 50,
			ShadowTint = 0,
			Shadows2012 = 48,
			SharpenDetail = 31,
			SharpenEdgeMasking = 17,
			SharpenRadius = 1.7,
			Sharpness = 89,
			SplitToningBalance = 0,
			SplitToningHighlightHue = 81,
			SplitToningHighlightSaturation = 12,
			SplitToningShadowHue = 225,
			SplitToningShadowSaturation = 29,
			ToneCurveName2012 = "Custom",
			ToneCurvePV2012 = {
				0,
				27,
				61,
				70,
				123,
				140,
				210,
				208,
				255,
				255,
			},
			ToneCurvePV2012Blue = {
				2,
				0,
				255,
				255,
			},
			ToneCurvePV2012Green = {
				0,
				0,
				255,
				255,
			},
			ToneCurvePV2012Red = {
				0,
				0,
				255,
				255,
			},
			Vibrance = 0,
			WhiteBalance = "Custom",
			Whites2012 = 19,
		},
		uuid = "0BCD8497-99A1-4BAB-AE10-F1DC107683AE",
	},
	version = 0,
}
