Winter Wonderland Lightroom Presets/Winter Wonderland Lightroom Presets/Winter Wonderland Vol. 01/Winter Wonderland #01.lrtemplate
s = {
	id = "F85A71AE-510A-4E2C-BAB9-E49CD90F51AD",
	internalName = "Winter Wonderland #01",
	title = "Winter Wonderland #01",
	type = "Develop",
	value = {
		settings = {
			Blacks2012 = 35,
			BlueHue = 5,
			BlueSaturation = 15,
			CameraProfile = "Adobe Standard",
			Clarity2012 = 5,
			Contrast2012 = -45,
			ConvertToGrayscale = false,
			EnableCalibration = true,
			EnableColorAdjustments = true,
			EnableSplitToning = true,
			Exposure2012 = 0.4,
			GreenHue = 0,
			GreenSaturation = 0,
			Highlights2012 = -80,
			HueAdjustmentAqua = 0,
			HueAdjustmentBlue = 5,
			HueAdjustmentGreen = 5,
			HueAdjustmentMagenta = 0,
			HueAdjustmentOrange = 5,
			HueAdjustmentPurple = 0,
			HueAdjustmentRed = 0,
			HueAdjustmentYellow = -5,
			LuminanceAdjustmentAqua = 0,
			LuminanceAdjustmentBlue = -10,
			LuminanceAdjustmentGreen = -5,
			LuminanceAdjustmentMagenta = 0,
			LuminanceAdjustmentOrange = -5,
			LuminanceAdjustmentPurple = 0,
			LuminanceAdjustmentRed = 10,
			LuminanceAdjustmentYellow = -10,
			ParametricDarks = 20,
			ParametricHighlightSplit = 75,
			ParametricHighlights = -5,
			ParametricLights = 10,
			ParametricMidtoneSplit = 60,
			ParametricShadowSplit = 14,
			ParametricShadows = 5,
			ProcessVersion = "6.7",
			RedHue = 0,
			RedSaturation = 0,
			Saturation = 5,
			SaturationAdjustmentAqua = -20,
			SaturationAdjustmentBlue = 10,
			SaturationAdjustmentGreen = -19,
			SaturationAdjustmentMagenta = 0,
			SaturationAdjustmentOrange = 5,
			SaturationAdjustmentPurple = 0,
			SaturationAdjustmentRed = -10,
			SaturationAdjustmentYellow = 0,
			ShadowTint = 0,
			Shadows2012 = 40,
			SplitToningBalance = 0,
			SplitToningHighlightHue = 0,
			SplitToningHighlightSaturation = 0,
			SplitToningShadowHue = 0,
			SplitToningShadowSaturation = 0,
			ToneCurveName2012 = "Strong Contrast",
			ToneCurvePV2012 = {
				0,
				0,
				32,
				16,
				64,
				50,
				128,
				128,
				192,
				202,
				255,
				255,
			},
			ToneCurvePV2012Blue = {
				0,
				0,
				255,
				255,
			},
			ToneCurvePV2012Green = {
				0,
				0,
				255,
				255,
			},
			ToneCurvePV2012Red = {
				0,
				0,
				255,
				255,
			},
			Vibrance = 0,
			Whites2012 = 30,
		},
		uuid = "D2B80D87-17FA-418F-8237-DCD81963DD2E",
	},
	version = 0,
}
