455-LR-Presets-PS-Action-Mega-Bundle/Mega Pack/Lightroom Presets/20 Pastel LR Presets/Pastel LR Process 08.lrtemplate
s = {
	id = "8F0ABD5A-4515-4B5F-A9FC-2E30544FB9D2",
	internalName = "Pastel LR Process 08",
	title = "Pastel LR Process 08",
	type = "Develop",
	value = {
		settings = {
			AutoLateralCA = 0,
			Blacks2012 = -20,
			BlueHue = 0,
			BlueSaturation = 100,
			CameraProfile = "Embedded",
			ChromaticAberrationB = 0,
			ChromaticAberrationR = 0,
			Clarity2012 = 0,
			ColorNoiseReduction = 0,
			ColorNoiseReductionDetail = 50,
			Contrast2012 = 0,
			ConvertToGrayscale = false,
			CropConstrainToWarp = 0,
			Defringe = 0,
			DefringeGreenAmount = 0,
			DefringeGreenHueHi = 60,
			DefringeGreenHueLo = 40,
			DefringePurpleAmount = 0,
			DefringePurpleHueHi = 70,
			DefringePurpleHueLo = 30,
			EnableCalibration = true,
			EnableColorAdjustments = true,
			EnableDetail = true,
			EnableEffects = true,
			EnableGradientBasedCorrections = true,
			EnableLensCorrections = true,
			EnableSplitToning = true,
			Exposure2012 = 0.24,
			GrainAmount = 0,
			GrainFrequency = 50,
			GrainSize = 25,
			GreenHue = 0,
			GreenSaturation = 0,
			Highlights2012 = -26,
			HueAdjustmentAqua = 0,
			HueAdjustmentBlue = -13,
			HueAdjustmentGreen = 9,
			HueAdjustmentMagenta = 0,
			HueAdjustmentOrange = -1,
			HueAdjustmentPurple = 0,
			HueAdjustmentRed = -7,
			HueAdjustmentYellow = 0,
			IncrementalTemperature = -2,
			IncrementalTint = 12,
			LensManualDistortionAmount = 0,
			LensProfileEnable = 0,
			LensProfileSetup = "LensDefaults",
			LuminanceAdjustmentAqua = 20,
			LuminanceAdjustmentBlue = 53,
			LuminanceAdjustmentGreen = 33,
			LuminanceAdjustmentMagenta = 24,
			LuminanceAdjustmentOrange = 60,
			LuminanceAdjustmentPurple = 42,
			LuminanceAdjustmentRed = 16,
			LuminanceAdjustmentYellow = 38,
			LuminanceNoiseReductionContrast = 0,
			LuminanceNoiseReductionDetail = 0,
			LuminanceSmoothing = 13,
			ParametricDarks = 0,
			ParametricHighlightSplit = 75,
			ParametricHighlights = 0,
			ParametricLights = 0,
			ParametricMidtoneSplit = 50,
			ParametricShadowSplit = 25,
			ParametricShadows = 0,
			PerspectiveHorizontal = 0,
			PerspectiveRotate = 0,
			PerspectiveScale = 100,
			PerspectiveVertical = 0,
			PostCropVignetteAmount = -1,
			PostCropVignetteFeather = 50,
			PostCropVignetteHighlightContrast = 0,
			PostCropVignetteMidpoint = 50,
			PostCropVignetteRoundness = 0,
			PostCropVignetteStyle = 1,
			ProcessVersion = "6.7",
			RedHue = 0,
			RedSaturation = -34,
			Saturation = -52,
			SaturationAdjustmentAqua = 0,
			SaturationAdjustmentBlue = 2,
			SaturationAdjustmentGreen = 18,
			SaturationAdjustmentMagenta = 0,
			SaturationAdjustmentOrange = -9,
			SaturationAdjustmentPurple = 0,
			SaturationAdjustmentRed = 2,
			SaturationAdjustmentYellow = 18,
			ShadowTint = 0,
			Shadows2012 = 28,
			SharpenDetail = 18,
			SharpenEdgeMasking = 0,
			SharpenRadius = 0.7,
			Sharpness = 20,
			SplitToningBalance = 44,
			SplitToningHighlightHue = 26,
			SplitToningHighlightSaturation = 24,
			SplitToningShadowHue = 4,
			SplitToningShadowSaturation = 2,
			ToneCurveName2012 = "Custom",
			ToneCurvePV2012 = {
				10,
				0,
				45,
				30,
				78,
				67,
				255,
				255,
			},
			ToneCurvePV2012Blue = {
				0,
				23,
				135,
				131,
				255,
				255,
			},
			ToneCurvePV2012Green = {
				0,
				0,
				255,
				255,
			},
			ToneCurvePV2012Red = {
				0,
				0,
				110,
				115,
				255,
				255,
			},
			Vibrance = 10,
			VignetteAmount = -9,
			VignetteMidpoint = 0,
			WhiteBalance = "Custom",
			Whites2012 = 0,
			orientation = "AB",
		},
		uuid = "FC016632-0D12-4F79-A16C-392667C291A8",
	},
	version = 0,
}
