455-LR-Presets-PS-Action-Mega-Bundle/Mega Pack/Lightroom Presets/20 Pastel LR Presets/Pastel LR Process 07.lrtemplate
s = {
	id = "347576B8-59FC-43E7-97DF-6CB70FE388AE",
	internalName = "Pastel LR Process 07",
	title = "Pastel LR Process 07",
	type = "Develop",
	value = {
		settings = {
			AutoLateralCA = 0,
			Blacks2012 = 0,
			BlueHue = 0,
			BlueSaturation = 0,
			CameraProfile = "Embedded",
			ChromaticAberrationB = 0,
			ChromaticAberrationR = 0,
			Clarity2012 = 14,
			ColorNoiseReduction = 0,
			ColorNoiseReductionDetail = 50,
			Contrast2012 = 0,
			ConvertToGrayscale = false,
			CropConstrainToWarp = 0,
			Defringe = 0,
			DefringeGreenAmount = 0,
			DefringeGreenHueHi = 60,
			DefringeGreenHueLo = 40,
			DefringePurpleAmount = 0,
			DefringePurpleHueHi = 70,
			DefringePurpleHueLo = 30,
			EnableCalibration = true,
			EnableColorAdjustments = true,
			EnableDetail = true,
			EnableEffects = true,
			EnableGradientBasedCorrections = true,
			EnableLensCorrections = true,
			EnableSplitToning = true,
			Exposure2012 = 0,
			GrainAmount = 0,
			GrainFrequency = 50,
			GrainSize = 25,
			GreenHue = 0,
			GreenSaturation = 0,
			Highlights2012 = 0,
			HueAdjustmentAqua = 0,
			HueAdjustmentBlue = 0,
			HueAdjustmentGreen = 0,
			HueAdjustmentMagenta = 0,
			HueAdjustmentOrange = 0,
			HueAdjustmentPurple = 0,
			HueAdjustmentRed = 0,
			HueAdjustmentYellow = 0,
			IncrementalTemperature = 12,
			IncrementalTint = 2,
			LensManualDistortionAmount = 0,
			LensProfileEnable = 0,
			LensProfileSetup = "LensDefaults",
			LuminanceAdjustmentAqua = -3,
			LuminanceAdjustmentBlue = 0,
			LuminanceAdjustmentGreen = 0,
			LuminanceAdjustmentMagenta = 0,
			LuminanceAdjustmentOrange = 0,
			LuminanceAdjustmentPurple = 0,
			LuminanceAdjustmentRed = 0,
			LuminanceAdjustmentYellow = 0,
			LuminanceNoiseReductionContrast = 0,
			LuminanceNoiseReductionDetail = 50,
			LuminanceSmoothing = 30,
			ParametricDarks = 0,
			ParametricHighlightSplit = 75,
			ParametricHighlights = 19,
			ParametricLights = -2,
			ParametricMidtoneSplit = 50,
			ParametricShadowSplit = 25,
			ParametricShadows = 0,
			PerspectiveHorizontal = 0,
			PerspectiveRotate = 0,
			PerspectiveScale = 100,
			PerspectiveVertical = 0,
			PostCropVignetteAmount = 0,
			PostCropVignetteFeather = 50,
			PostCropVignetteHighlightContrast = 0,
			PostCropVignetteMidpoint = 50,
			PostCropVignetteRoundness = 0,
			PostCropVignetteStyle = 1,
			ProcessVersion = "6.7",
			RedHue = 0,
			RedSaturation = 0,
			Saturation = -10,
			SaturationAdjustmentAqua = -20,
			SaturationAdjustmentBlue = -33,
			SaturationAdjustmentGreen = -27,
			SaturationAdjustmentMagenta = 16,
			SaturationAdjustmentOrange = -13,
			SaturationAdjustmentPurple = -13,
			SaturationAdjustmentRed = -4,
			SaturationAdjustmentYellow = -7,
			ShadowTint = 0,
			Shadows2012 = 0,
			SharpenDetail = 0,
			SharpenEdgeMasking = 0,
			SharpenRadius = 0.7,
			Sharpness = 27,
			SplitToningBalance = -31,
			SplitToningHighlightHue = 90,
			SplitToningHighlightSaturation = 0,
			SplitToningShadowHue = 231,
			SplitToningShadowSaturation = 57,
			ToneCurveName2012 = "Custom",
			ToneCurvePV2012 = {
				0,
				10,
				138,
				153,
				255,
				255,
			},
			ToneCurvePV2012Blue = {
				0,
				52,
				101,
				89,
				255,
				255,
			},
			ToneCurvePV2012Green = {
				0,
				0,
				255,
				255,
			},
			ToneCurvePV2012Red = {
				0,
				0,
				120,
				122,
				255,
				255,
			},
			Vibrance = 60,
			VignetteAmount = 3,
			VignetteMidpoint = 55,
			WhiteBalance = "Custom",
			Whites2012 = 0,
			orientation = "AB",
		},
		uuid = "141DFF43-22F7-40D8-8FF3-ADF1DAAF6D51",
	},
	version = 0,
}
