Film Wedding Lightroom Presets/Lightroom Presets - Film Lightroom Presets by BeArt/beart - Film Modern Times.lrtemplate
s = {
	id = "9E94D13D-1F8F-4FE1-810A-75867DB3DA76",
	internalName = "beart - Film Modern Times",
	title = "beart - Film Modern Times",
	type = "Develop",
	value = {
		settings = {
			AutoLateralCA = 0,
			Blacks2012 = 2,
			BlueHue = 0,
			BlueSaturation = 0,
			CameraProfile = "Adobe Standard",
			ChromaticAberrationB = 0,
			ChromaticAberrationR = 0,
			Clarity2012 = 2,
			ColorNoiseReduction = 17,
			ColorNoiseReductionDetail = 50,
			ColorNoiseReductionSmoothness = 50,
			Contrast2012 = 10,
			ConvertToGrayscale = false,
			CropConstrainToWarp = 0,
			Defringe = 0,
			DefringeGreenAmount = 0,
			DefringeGreenHueHi = 60,
			DefringeGreenHueLo = 40,
			DefringePurpleAmount = 0,
			DefringePurpleHueHi = 70,
			DefringePurpleHueLo = 30,
			Dehaze = 0,
			EnableCalibration = true,
			EnableCircularGradientBasedCorrections = true,
			EnableColorAdjustments = true,
			EnableDetail = true,
			EnableEffects = true,
			EnableGradientBasedCorrections = true,
			EnableLensCorrections = true,
			EnableSplitToning = true,
			Exposure2012 = 0,
			GrainAmount = 14,
			GrainFrequency = 45,
			GrainSize = 25,
			GreenHue = 40,
			GreenSaturation = -20,
			Highlights2012 = -19,
			HueAdjustmentAqua = 0,
			HueAdjustmentBlue = 5,
			HueAdjustmentGreen = 5,
			HueAdjustmentMagenta = 0,
			HueAdjustmentOrange = 5,
			HueAdjustmentPurple = 0,
			HueAdjustmentRed = 12,
			HueAdjustmentYellow = -5,
			LensManualDistortionAmount = 0,
			LensProfileEnable = 0,
			LensProfileSetup = "LensDefaults",
			LuminanceAdjustmentAqua = 0,
			LuminanceAdjustmentBlue = -25,
			LuminanceAdjustmentGreen = -10,
			LuminanceAdjustmentMagenta = -15,
			LuminanceAdjustmentOrange = -10,
			LuminanceAdjustmentPurple = 0,
			LuminanceAdjustmentRed = -30,
			LuminanceAdjustmentYellow = -15,
			LuminanceNoiseReductionContrast = 0,
			LuminanceNoiseReductionDetail = 50,
			LuminanceSmoothing = 11,
			ParametricDarks = 0,
			ParametricHighlightSplit = 75,
			ParametricHighlights = 0,
			ParametricLights = 10,
			ParametricMidtoneSplit = 45,
			ParametricShadowSplit = 18,
			ParametricShadows = -20,
			PerspectiveAspect = 0,
			PerspectiveHorizontal = 0,
			PerspectiveRotate = 0,
			PerspectiveScale = 100,
			PerspectiveUpright = 0,
			PerspectiveVertical = 0,
			PostCropVignetteAmount = 0,
			PostCropVignetteFeather = 50,
			PostCropVignetteHighlightContrast = 0,
			PostCropVignetteMidpoint = 50,
			PostCropVignetteRoundness = 0,
			PostCropVignetteStyle = 1,
			ProcessVersion = "6.7",
			RedHue = 10,
			RedSaturation = 5,
			Saturation = -26,
			SaturationAdjustmentAqua = -25,
			SaturationAdjustmentBlue = 10,
			SaturationAdjustmentGreen = -50,
			SaturationAdjustmentMagenta = -30,
			SaturationAdjustmentOrange = 5,
			SaturationAdjustmentPurple = -30,
			SaturationAdjustmentRed = -15,
			SaturationAdjustmentYellow = 0,
			ShadowTint = 0,
			Shadows2012 = 20,
			SharpenDetail = 5,
			SharpenEdgeMasking = 0,
			SharpenRadius = 0.9,
			Sharpness = 40,
			SplitToningBalance = 0,
			SplitToningHighlightHue = 141,
			SplitToningHighlightSaturation = 8,
			SplitToningShadowHue = 0,
			SplitToningShadowSaturation = 0,
			ToneCurveName2012 = "Custom",
			ToneCurvePV2012 = {
				0,
				45,
				52,
				66,
				119,
				119,
				255,
				255,
			},
			ToneCurvePV2012Blue = {
				0,
				0,
				25,
				5,
				49,
				23,
				117,
				120,
				190,
				206,
				255,
				255,
			},
			ToneCurvePV2012Green = {
				0,
				0,
				25,
				5,
				49,
				23,
				114,
				121,
				186,
				211,
				255,
				255,
			},
			ToneCurvePV2012Red = {
				0,
				0,
				25,
				5,
				52,
				23,
				113,
				121,
				183,
				209,
				255,
				255,
			},
			Vibrance = 33,
			VignetteAmount = 0,
			VignetteMidpoint = 50,
			WhiteBalance = "As Shot",
			Whites2012 = -10,
			orientation = "AB",
		},
		uuid = "49F97EF0-D337-4768-AE8D-E110FA9A75AB",
	},
	version = 0,
}
