Film Wedding Lightroom Presets/Lightroom Presets - Film Lightroom Presets by BeArt/beart - Film Rebecca.lrtemplate
s = {
	id = "9F7BCB45-0E33-426D-B2B6-9DB0438F1A7C",
	internalName = "beart - Film Rebecca",
	title = "beart - Film Rebecca",
	type = "Develop",
	value = {
		settings = {
			AutoLateralCA = 0,
			Blacks2012 = 7,
			BlueHue = 0,
			BlueSaturation = 0,
			CameraProfile = "Adobe Standard",
			ChromaticAberrationB = 0,
			ChromaticAberrationR = 0,
			Clarity2012 = 0,
			ColorNoiseReduction = 25,
			ColorNoiseReductionDetail = 50,
			ColorNoiseReductionSmoothness = 50,
			Contrast2012 = 7,
			ConvertToGrayscale = false,
			CropConstrainToWarp = 0,
			Defringe = 0,
			DefringeGreenAmount = 0,
			DefringeGreenHueHi = 60,
			DefringeGreenHueLo = 40,
			DefringePurpleAmount = 0,
			DefringePurpleHueHi = 70,
			DefringePurpleHueLo = 30,
			Dehaze = 0,
			EnableCalibration = true,
			EnableCircularGradientBasedCorrections = true,
			EnableColorAdjustments = true,
			EnableDetail = true,
			EnableEffects = true,
			EnableGradientBasedCorrections = true,
			EnableLensCorrections = true,
			EnableSplitToning = true,
			Exposure2012 = 0,
			GrainAmount = 18,
			GrainFrequency = 1,
			GrainSize = 8,
			GreenHue = 12,
			GreenSaturation = 0,
			Highlights2012 = -5,
			HueAdjustmentAqua = -10,
			HueAdjustmentBlue = -5,
			HueAdjustmentGreen = 15,
			HueAdjustmentMagenta = 15,
			HueAdjustmentOrange = 25,
			HueAdjustmentPurple = 10,
			HueAdjustmentRed = 15,
			HueAdjustmentYellow = 0,
			LensManualDistortionAmount = 0,
			LensProfileEnable = 0,
			LensProfileSetup = "LensDefaults",
			LuminanceAdjustmentAqua = 0,
			LuminanceAdjustmentBlue = -5,
			LuminanceAdjustmentGreen = -20,
			LuminanceAdjustmentMagenta = 0,
			LuminanceAdjustmentOrange = 10,
			LuminanceAdjustmentPurple = 0,
			LuminanceAdjustmentRed = -20,
			LuminanceAdjustmentYellow = 5,
			LuminanceNoiseReductionContrast = 0,
			LuminanceNoiseReductionDetail = 50,
			LuminanceSmoothing = 0,
			ParametricDarks = 20,
			ParametricHighlightSplit = 85,
			ParametricHighlights = -15,
			ParametricLights = 10,
			ParametricMidtoneSplit = 42,
			ParametricShadowSplit = 14,
			ParametricShadows = -20,
			PerspectiveAspect = 0,
			PerspectiveHorizontal = 0,
			PerspectiveRotate = 0,
			PerspectiveScale = 100,
			PerspectiveUpright = 0,
			PerspectiveVertical = 0,
			PostCropVignetteAmount = 0,
			PostCropVignetteFeather = 50,
			PostCropVignetteHighlightContrast = 0,
			PostCropVignetteMidpoint = 50,
			PostCropVignetteRoundness = 0,
			PostCropVignetteStyle = 1,
			ProcessVersion = "6.7",
			RedHue = 0,
			RedSaturation = 10,
			Saturation = -17,
			SaturationAdjustmentAqua = -29,
			SaturationAdjustmentBlue = -18,
			SaturationAdjustmentGreen = -50,
			SaturationAdjustmentMagenta = -47,
			SaturationAdjustmentOrange = -13,
			SaturationAdjustmentPurple = -44,
			SaturationAdjustmentRed = -20,
			SaturationAdjustmentYellow = -24,
			ShadowTint = 0,
			Shadows2012 = 35,
			SharpenDetail = 11,
			SharpenEdgeMasking = 0,
			SharpenRadius = 0.9,
			Sharpness = 20,
			SplitToningBalance = 0,
			SplitToningHighlightHue = 64,
			SplitToningHighlightSaturation = 15,
			SplitToningShadowHue = 257,
			SplitToningShadowSaturation = 6,
			ToneCurveName2012 = "Custom",
			ToneCurvePV2012 = {
				0,
				59,
				68,
				81,
				136,
				147,
				191,
				189,
				255,
				232,
			},
			ToneCurvePV2012Blue = {
				0,
				0,
				37,
				16,
				72,
				48,
				131,
				126,
				179,
				179,
				255,
				250,
			},
			ToneCurvePV2012Green = {
				0,
				0,
				36,
				23,
				74,
				58,
				131,
				126,
				179,
				182,
				255,
				255,
			},
			ToneCurvePV2012Red = {
				0,
				0,
				37,
				17,
				70,
				47,
				131,
				126,
				187,
				191,
				255,
				255,
			},
			Vibrance = 14,
			VignetteAmount = 0,
			VignetteMidpoint = 50,
			WhiteBalance = "As Shot",
			Whites2012 = -20,
			orientation = "AB",
		},
		uuid = "22F373DB-9B41-41CD-9B42-6E2EE46814E5",
	},
	version = 0,
}
