CM 1000+ Lightroom Preset Pack 317985/Fashion - Model Collection (131)/portrait (74).lrtemplate
s = {
	id = "96362EB2-6668-474C-AED1-58D931EB9D6B",
	internalName = "34_Fashion Lightroom Presets Vol. 2",
	title = "34_Fashion Lightroom Presets Vol. 2",
	type = "Develop",
	value = {
		settings = {
			AutoLateralCA = 1,
			Blacks2012 = 43,
			BlueHue = 8,
			BlueSaturation = -99,
			CameraProfile = "Adobe Standard",
			ChromaticAberrationB = 0,
			ChromaticAberrationR = 0,
			Clarity2012 = 16,
			ColorNoiseReduction = 7,
			ColorNoiseReductionDetail = 50,
			ColorNoiseReductionSmoothness = 50,
			Contrast2012 = 21,
			ConvertToGrayscale = false,
			Defringe = 0,
			DefringeGreenAmount = 0,
			DefringeGreenHueHi = 60,
			DefringeGreenHueLo = 40,
			DefringePurpleAmount = 0,
			DefringePurpleHueHi = 70,
			DefringePurpleHueLo = 30,
			EnableCalibration = true,
			EnableColorAdjustments = true,
			EnableDetail = true,
			EnableEffects = true,
			EnableLensCorrections = true,
			EnableSplitToning = true,
			GrainAmount = 0,
			GrainFrequency = 50,
			GrainSize = 25,
			GreenHue = 38,
			GreenSaturation = 61,
			Highlights2012 = -64,
			HueAdjustmentAqua = 0,
			HueAdjustmentBlue = 3,
			HueAdjustmentGreen = -42,
			HueAdjustmentMagenta = 0,
			HueAdjustmentOrange = -3,
			HueAdjustmentPurple = -31,
			HueAdjustmentRed = 6,
			HueAdjustmentYellow = -27,
			IncrementalTemperature = -3,
			IncrementalTint = 1,
			LuminanceAdjustmentAqua = 0,
			LuminanceAdjustmentBlue = 0,
			LuminanceAdjustmentGreen = 18,
			LuminanceAdjustmentMagenta = 0,
			LuminanceAdjustmentOrange = 7,
			LuminanceAdjustmentPurple = 0,
			LuminanceAdjustmentRed = 6,
			LuminanceAdjustmentYellow = 8,
			LuminanceNoiseReductionContrast = 0,
			LuminanceNoiseReductionDetail = 50,
			LuminanceSmoothing = 22,
			ParametricDarks = 3,
			ParametricHighlightSplit = 75,
			ParametricHighlights = -2,
			ParametricLights = 11,
			ParametricMidtoneSplit = 50,
			ParametricShadowSplit = 23,
			ParametricShadows = -3,
			PostCropVignetteAmount = 0,
			PostCropVignetteFeather = 97,
			PostCropVignetteHighlightContrast = 0,
			PostCropVignetteMidpoint = 46,
			PostCropVignetteRoundness = 30,
			PostCropVignetteStyle = 1,
			ProcessVersion = "6.7",
			RedHue = -1,
			RedSaturation = 12,
			Saturation = -2,
			SaturationAdjustmentAqua = 0,
			SaturationAdjustmentBlue = 8,
			SaturationAdjustmentGreen = -39,
			SaturationAdjustmentMagenta = 0,
			SaturationAdjustmentOrange = -3,
			SaturationAdjustmentPurple = 0,
			SaturationAdjustmentRed = 3,
			SaturationAdjustmentYellow = 47,
			ShadowTint = 1,
			Shadows2012 = 54,
			SharpenDetail = 25,
			SharpenEdgeMasking = 44,
			SharpenRadius = 1,
			Sharpness = 53,
			SplitToningBalance = 71,
			SplitToningHighlightHue = 172,
			SplitToningHighlightSaturation = 5,
			SplitToningShadowHue = 15,
			SplitToningShadowSaturation = 5,
			ToneCurveName2012 = "Custom",
			ToneCurvePV2012 = {
				0,
				27,
				37,
				44,
				90,
				96,
				136,
				146,
				251,
				237,
			},
			ToneCurvePV2012Blue = {
				0,
				23,
				59,
				56,
				104,
				97,
				127,
				120,
				187,
				181,
				226,
				216,
				244,
				255,
			},
			ToneCurvePV2012Green = {
				0,
				16,
				47,
				43,
				107,
				103,
				173,
				173,
				210,
				207,
				255,
				236,
			},
			ToneCurvePV2012Red = {
				0,
				14,
				29,
				31,
				83,
				89,
				95,
				102,
				150,
				155,
				214,
				216,
				255,
				245,
			},
			Vibrance = 29,
			VignetteAmount = 0,
			VignetteMidpoint = 50,
			WhiteBalance = "Custom",
			Whites2012 = 20,
		},
		uuid = "53EDBEBB-3A21-467E-80F6-7A3476D94005",
	},
	version = 0,
}
