CM 1000+ Lightroom Preset Pack 317985/Fashion - Model Collection (131)/portrait (123).lrtemplate
s = {
	id = "BBC089F6-7314-4FC9-88A8-0D8FF848B9E0",
	internalName = "beart-Vintage Soft Touch",
	title = "beart-Wedding Snowy Day",
	type = "Develop",
	value = {
		settings = {
			AutoLateralCA = 0,
			Blacks2012 = 33,
			BlueHue = -6,
			BlueSaturation = -10,
			CameraProfile = "Fuji 400H F",
			ChromaticAberrationB = 0,
			ChromaticAberrationR = 0,
			Clarity2012 = 17,
			ColorNoiseReduction = 11,
			ColorNoiseReductionDetail = 50,
			ColorNoiseReductionSmoothness = 50,
			Contrast2012 = 10,
			ConvertToGrayscale = false,
			CropConstrainToWarp = 0,
			Defringe = 0,
			DefringeGreenAmount = 0,
			DefringeGreenHueHi = 60,
			DefringeGreenHueLo = 40,
			DefringePurpleAmount = 0,
			DefringePurpleHueHi = 70,
			DefringePurpleHueLo = 30,
			EnableCalibration = true,
			EnableCircularGradientBasedCorrections = true,
			EnableColorAdjustments = true,
			EnableDetail = true,
			EnableEffects = true,
			EnableGradientBasedCorrections = true,
			EnableLensCorrections = true,
			EnableSplitToning = true,
			Exposure2012 = 0,
			GrainAmount = 0,
			GrainFrequency = 35,
			GrainSize = 30,
			GreenHue = 10,
			GreenSaturation = 0,
			Highlights2012 = 17,
			HueAdjustmentAqua = -12,
			HueAdjustmentBlue = -10,
			HueAdjustmentGreen = 20,
			HueAdjustmentMagenta = 20,
			HueAdjustmentOrange = 3,
			HueAdjustmentPurple = 15,
			HueAdjustmentRed = 6,
			HueAdjustmentYellow = 5,
			IncrementalTemperature = -5,
			IncrementalTint = -3,
			LensManualDistortionAmount = 0,
			LensProfileEnable = 0,
			LensProfileSetup = "LensDefaults",
			LuminanceAdjustmentAqua = 10,
			LuminanceAdjustmentBlue = -10,
			LuminanceAdjustmentGreen = -10,
			LuminanceAdjustmentMagenta = 0,
			LuminanceAdjustmentOrange = 4,
			LuminanceAdjustmentPurple = 5,
			LuminanceAdjustmentRed = 10,
			LuminanceAdjustmentYellow = -10,
			LuminanceNoiseReductionContrast = 0,
			LuminanceNoiseReductionDetail = 50,
			LuminanceSmoothing = 10,
			ParametricDarks = 0,
			ParametricHighlightSplit = 87,
			ParametricHighlights = 0,
			ParametricLights = 0,
			ParametricMidtoneSplit = 40,
			ParametricShadowSplit = 20,
			ParametricShadows = 0,
			PerspectiveAspect = 0,
			PerspectiveHorizontal = 0,
			PerspectiveRotate = 0,
			PerspectiveScale = 100,
			PerspectiveVertical = 0,
			PostCropVignetteAmount = -2,
			PostCropVignetteFeather = 50,
			PostCropVignetteHighlightContrast = 0,
			PostCropVignetteMidpoint = 50,
			PostCropVignetteRoundness = 0,
			PostCropVignetteStyle = 1,
			ProcessVersion = "6.7",
			RedHue = 0,
			RedSaturation = 10,
			Saturation = 2,
			SaturationAdjustmentAqua = -10,
			SaturationAdjustmentBlue = -9,
			SaturationAdjustmentGreen = -7,
			SaturationAdjustmentMagenta = 0,
			SaturationAdjustmentOrange = -2,
			SaturationAdjustmentPurple = -7,
			SaturationAdjustmentRed = -20,
			SaturationAdjustmentYellow = -10,
			ShadowTint = 0,
			Shadows2012 = 33,
			SharpenDetail = 0,
			SharpenEdgeMasking = 0,
			SharpenRadius = 0.8,
			Sharpness = 25,
			SplitToningBalance = 90,
			SplitToningHighlightHue = 211,
			SplitToningHighlightSaturation = 17,
			SplitToningShadowHue = 239,
			SplitToningShadowSaturation = 32,
			ToneCurveName2012 = "Custom",
			ToneCurvePV2012 = {
				0,
				22,
				119,
				133,
				188,
				190,
				255,
				232,
			},
			ToneCurvePV2012Blue = {
				0,
				0,
				49,
				38,
				118,
				129,
				190,
				198,
				255,
				250,
			},
			ToneCurvePV2012Green = {
				0,
				0,
				46,
				37,
				116,
				129,
				144,
				158,
				188,
				196,
				255,
				252,
			},
			ToneCurvePV2012Red = {
				0,
				0,
				50,
				39,
				116,
				127,
				188,
				199,
				255,
				255,
			},
			Vibrance = 14,
			VignetteAmount = 0,
			VignetteMidpoint = 50,
			WhiteBalance = "Custom",
			Whites2012 = -19,
			orientation = "AB",
		},
		uuid = "175DADCA-6C67-4F65-B58B-472191DBFBF7",
	},
	version = 0,
}
