CM 1000+ Lightroom Preset Pack 317985/Fashion - Model Collection (131)/portrait (4).lrtemplate
s = {
	id = "4F5997E2-FA3E-419B-BBC9-3E7B1590346D",
	internalName = "04 Pro. Portrait [H2O]",
	title = "04 Pro. Portrait [H2O]",
	type = "Develop",
	value = {
		settings = {
			Blacks2012 = -13,
			BlueHue = -32,
			BlueSaturation = -10,
			CameraProfile = "Camera Neutral",
			Clarity2012 = 0,
			ColorNoiseReduction = 25,
			ColorNoiseReductionDetail = 50,
			ColorNoiseReductionSmoothness = 50,
			Contrast2012 = 43,
			ConvertToGrayscale = false,
			EnableCalibration = true,
			EnableColorAdjustments = true,
			EnableDetail = true,
			EnableEffects = true,
			EnableSplitToning = true,
			Exposure2012 = 0.63,
			GrainAmount = 0,
			GrainFrequency = 50,
			GrainSize = 25,
			GreenHue = -100,
			GreenSaturation = 0,
			Highlights2012 = -49,
			HueAdjustmentAqua = -100,
			HueAdjustmentBlue = -22,
			HueAdjustmentGreen = -100,
			HueAdjustmentMagenta = 0,
			HueAdjustmentOrange = 0,
			HueAdjustmentPurple = 0,
			HueAdjustmentRed = 0,
			HueAdjustmentYellow = 0,
			IncrementalTemperature = -11,
			IncrementalTint = 3,
			LuminanceAdjustmentAqua = 100,
			LuminanceAdjustmentBlue = -11,
			LuminanceAdjustmentGreen = 34,
			LuminanceAdjustmentMagenta = -2,
			LuminanceAdjustmentOrange = 0,
			LuminanceAdjustmentPurple = 0,
			LuminanceAdjustmentRed = 0,
			LuminanceAdjustmentYellow = 0,
			LuminanceNoiseReductionContrast = 0,
			LuminanceNoiseReductionDetail = 50,
			LuminanceSmoothing = 0,
			ParametricDarks = 0,
			ParametricHighlightSplit = 75,
			ParametricHighlights = 0,
			ParametricLights = 0,
			ParametricMidtoneSplit = 50,
			ParametricShadowSplit = 25,
			ParametricShadows = 0,
			PostCropVignetteAmount = -45,
			PostCropVignetteFeather = 100,
			PostCropVignetteHighlightContrast = 0,
			PostCropVignetteMidpoint = 0,
			PostCropVignetteRoundness = 77,
			PostCropVignetteStyle = 1,
			ProcessVersion = "6.7",
			RedHue = 66,
			RedSaturation = -27,
			Saturation = -45,
			SaturationAdjustmentAqua = -25,
			SaturationAdjustmentBlue = 23,
			SaturationAdjustmentGreen = 50,
			SaturationAdjustmentMagenta = 0,
			SaturationAdjustmentOrange = 0,
			SaturationAdjustmentPurple = 0,
			SaturationAdjustmentRed = 0,
			SaturationAdjustmentYellow = 0,
			ShadowTint = 17,
			Shadows2012 = 54,
			SharpenDetail = 25,
			SharpenEdgeMasking = 0,
			SharpenRadius = 1,
			Sharpness = 25,
			SplitToningBalance = 61,
			SplitToningHighlightHue = 48,
			SplitToningHighlightSaturation = 36,
			SplitToningShadowHue = 0,
			SplitToningShadowSaturation = 47,
			ToneCurveName2012 = "Linear",
			ToneCurvePV2012 = {
				0,
				0,
				255,
				255,
			},
			ToneCurvePV2012Blue = {
				0,
				0,
				255,
				255,
			},
			ToneCurvePV2012Green = {
				0,
				0,
				255,
				255,
			},
			ToneCurvePV2012Red = {
				0,
				0,
				255,
				255,
			},
			Vibrance = 10,
			WhiteBalance = "Custom",
			Whites2012 = 0,
		},
		uuid = "A9B15276-B43D-4A4C-9008-BC0BA9142963",
	},
	version = 0,
}
