CM 1000+ Lightroom Preset Pack 317985/Fashion - Model Collection (131)/portrait (78).lrtemplate
s = {
	id = "625F9799-B9E9-43E1-8F0F-E6CAB47F2EF3",
	internalName = "beart-Vintage Sarme",
	title = "beart-Wedding Aster",
	type = "Develop",
	value = {
		settings = {
			Blacks2012 = -24,
			BlueHue = -43,
			BlueSaturation = 24,
			CameraProfile = "Camera Standard",
			Clarity2012 = 9,
			ColorNoiseReduction = 30,
			ColorNoiseReductionDetail = 50,
			ColorNoiseReductionSmoothness = 50,
			Contrast2012 = 12,
			ConvertToGrayscale = false,
			EnableCalibration = true,
			EnableCircularGradientBasedCorrections = true,
			EnableColorAdjustments = true,
			EnableDetail = true,
			EnableEffects = true,
			EnableGradientBasedCorrections = true,
			EnableLensCorrections = true,
			EnableSplitToning = true,
			Exposure2012 = 0,
			GrainAmount = 0,
			GrainFrequency = 50,
			GrainSize = 25,
			GreenHue = 24,
			GreenSaturation = 30,
			Highlights2012 = -24,
			HueAdjustmentAqua = 16,
			HueAdjustmentBlue = 0,
			HueAdjustmentGreen = 35,
			HueAdjustmentMagenta = 0,
			HueAdjustmentOrange = 0,
			HueAdjustmentPurple = 0,
			HueAdjustmentRed = 18,
			HueAdjustmentYellow = 13,
			LuminanceAdjustmentAqua = 40,
			LuminanceAdjustmentBlue = 40,
			LuminanceAdjustmentGreen = 38,
			LuminanceAdjustmentMagenta = 33,
			LuminanceAdjustmentOrange = 33,
			LuminanceAdjustmentPurple = 43,
			LuminanceAdjustmentRed = 38,
			LuminanceAdjustmentYellow = 44,
			LuminanceNoiseReductionContrast = 0,
			LuminanceNoiseReductionDetail = 6,
			LuminanceSmoothing = 12,
			ParametricDarks = -12,
			ParametricHighlightSplit = 87,
			ParametricHighlights = 7,
			ParametricLights = 7,
			ParametricMidtoneSplit = 50,
			ParametricShadowSplit = 10,
			ParametricShadows = -6,
			PostCropVignetteAmount = 0,
			PostCropVignetteFeather = 67,
			PostCropVignetteHighlightContrast = 0,
			PostCropVignetteMidpoint = 40,
			PostCropVignetteRoundness = 25,
			PostCropVignetteStyle = 1,
			ProcessVersion = "6.7",
			RedHue = 3,
			RedSaturation = 0,
			Saturation = -31,
			SaturationAdjustmentAqua = -2,
			SaturationAdjustmentBlue = -2,
			SaturationAdjustmentGreen = -1,
			SaturationAdjustmentMagenta = 0,
			SaturationAdjustmentOrange = -12,
			SaturationAdjustmentPurple = 0,
			SaturationAdjustmentRed = -13,
			SaturationAdjustmentYellow = -2,
			ShadowTint = 0,
			Shadows2012 = 7,
			SharpenDetail = 6,
			SharpenEdgeMasking = 0,
			SharpenRadius = 0.8,
			Sharpness = 27,
			SplitToningBalance = 0,
			SplitToningHighlightHue = 22,
			SplitToningHighlightSaturation = 0,
			SplitToningShadowHue = 202,
			SplitToningShadowSaturation = 8,
			ToneCurveName2012 = "Custom",
			ToneCurvePV2012 = {
				0,
				37,
				63,
				83,
				173,
				174,
				255,
				252,
			},
			ToneCurvePV2012Blue = {
				2,
				44,
				52,
				72,
				106,
				113,
				206,
				195,
				255,
				238,
			},
			ToneCurvePV2012Green = {
				0,
				0,
				255,
				255,
			},
			ToneCurvePV2012Red = {
				0,
				0,
				105,
				105,
				186,
				182,
				255,
				255,
			},
			Vibrance = 24,
			VignetteAmount = 0,
			VignetteMidpoint = 50,
			WhiteBalance = "As Shot",
			Whites2012 = -7,
			orientation = "AB",
		},
		uuid = "69361BC0-F483-47C9-8FB6-12B840E61299",
	},
	version = 0,
}
