CM 1000+ Lightroom Preset Pack 317985/Fashion - Model Collection (131)/portrait (97).lrtemplate
s = {
	id = "A6FDFA8F-53B8-4DF2-8D43-EAB25D058184",
	internalName = "beArt-Wedding Sun Day",
	title = "beArt-Wedding Golden Carnation",
	type = "Develop",
	value = {
		settings = {
			AutoLateralCA = 0,
			Blacks2012 = 12,
			BlueHue = -28,
			BlueSaturation = 5,
			CameraProfile = "Kodak Portra 400 UC C",
			ChromaticAberrationB = 0,
			ChromaticAberrationR = 0,
			Clarity2012 = 5,
			ColorNoiseReduction = 13,
			ColorNoiseReductionDetail = 50,
			ColorNoiseReductionSmoothness = 50,
			Contrast2012 = 0,
			ConvertToGrayscale = false,
			Defringe = 0,
			DefringeGreenAmount = 0,
			DefringeGreenHueHi = 60,
			DefringeGreenHueLo = 40,
			DefringePurpleAmount = 0,
			DefringePurpleHueHi = 70,
			DefringePurpleHueLo = 30,
			EnableCalibration = true,
			EnableColorAdjustments = true,
			EnableDetail = true,
			EnableEffects = true,
			EnableLensCorrections = true,
			EnableSplitToning = true,
			Exposure2012 = 0,
			GrainAmount = 0,
			GrainFrequency = 50,
			GrainSize = 30,
			GreenHue = 49,
			GreenSaturation = 0,
			Highlights2012 = -2,
			HueAdjustmentAqua = 76,
			HueAdjustmentBlue = 24,
			HueAdjustmentGreen = 44,
			HueAdjustmentMagenta = 11,
			HueAdjustmentOrange = 24,
			HueAdjustmentPurple = 15,
			HueAdjustmentRed = 22,
			HueAdjustmentYellow = 15,
			IncrementalTemperature = -5,
			IncrementalTint = -19,
			LuminanceAdjustmentAqua = -10,
			LuminanceAdjustmentBlue = -30,
			LuminanceAdjustmentGreen = -40,
			LuminanceAdjustmentMagenta = -44,
			LuminanceAdjustmentOrange = -20,
			LuminanceAdjustmentPurple = -29,
			LuminanceAdjustmentRed = -29,
			LuminanceAdjustmentYellow = 0,
			LuminanceNoiseReductionContrast = 0,
			LuminanceNoiseReductionDetail = 50,
			LuminanceSmoothing = 5,
			ParametricDarks = 0,
			ParametricHighlightSplit = 75,
			ParametricHighlights = 0,
			ParametricLights = 0,
			ParametricMidtoneSplit = 50,
			ParametricShadowSplit = 25,
			ParametricShadows = 0,
			PostCropVignetteAmount = 0,
			PostCropVignetteFeather = 50,
			PostCropVignetteHighlightContrast = 0,
			PostCropVignetteMidpoint = 50,
			PostCropVignetteRoundness = 0,
			PostCropVignetteStyle = 1,
			ProcessVersion = "6.7",
			RedHue = 28,
			RedSaturation = 0,
			Saturation = -12,
			SaturationAdjustmentAqua = 2,
			SaturationAdjustmentBlue = -11,
			SaturationAdjustmentGreen = -18,
			SaturationAdjustmentMagenta = -18,
			SaturationAdjustmentOrange = 0,
			SaturationAdjustmentPurple = -11,
			SaturationAdjustmentRed = -10,
			SaturationAdjustmentYellow = -5,
			ShadowTint = 0,
			Shadows2012 = 62,
			SharpenDetail = 4,
			SharpenEdgeMasking = 0,
			SharpenRadius = 0.7,
			Sharpness = 17,
			SplitToningBalance = 69,
			SplitToningHighlightHue = 57,
			SplitToningHighlightSaturation = 9,
			SplitToningShadowHue = 334,
			SplitToningShadowSaturation = 24,
			ToneCurveName2012 = "Custom",
			ToneCurvePV2012 = {
				0,
				31,
				45,
				64,
				125,
				129,
				198,
				194,
				255,
				249,
			},
			ToneCurvePV2012Blue = {
				0,
				18,
				46,
				31,
				130,
				130,
				183,
				190,
				255,
				251,
			},
			ToneCurvePV2012Green = {
				0,
				11,
				44,
				30,
				127,
				129,
				177,
				185,
				255,
				255,
			},
			ToneCurvePV2012Red = {
				0,
				0,
				45,
				32,
				87,
				76,
				127,
				129,
				178,
				189,
				255,
				255,
			},
			Vibrance = 0,
			VignetteAmount = 0,
			VignetteMidpoint = 50,
			WhiteBalance = "Custom",
			Whites2012 = -2,
		},
		uuid = "3C404AAB-81BF-4924-ADFA-29A6C4A7C860",
	},
	version = 0,
}
