CM 1000+ Lightroom Preset Pack 317985/Fashion - Model Collection (131)/portrait (125).lrtemplate
s = {
	id = "FB23147C-8CCE-429E-B5BE-614A53F7DC4A",
	internalName = "beArt-Wedding Antique",
	title = "beArt-Wedding Zinnia Antique",
	type = "Develop",
	value = {
		settings = {
			AutoLateralCA = 1,
			Blacks2012 = 76,
			BlueHue = -85,
			BlueSaturation = -62,
			CameraProfile = "Adobe Standard",
			ChromaticAberrationB = 0,
			ChromaticAberrationR = 0,
			Clarity2012 = -5,
			ColorNoiseReduction = 12,
			ColorNoiseReductionDetail = 50,
			ColorNoiseReductionSmoothness = 50,
			Contrast2012 = -9,
			ConvertToGrayscale = false,
			Defringe = 0,
			DefringeGreenAmount = 0,
			DefringeGreenHueHi = 60,
			DefringeGreenHueLo = 40,
			DefringePurpleAmount = 0,
			DefringePurpleHueHi = 70,
			DefringePurpleHueLo = 30,
			EnableCalibration = true,
			EnableColorAdjustments = true,
			EnableDetail = true,
			EnableEffects = true,
			EnableLensCorrections = true,
			EnableSplitToning = true,
			Exposure2012 = 0.9,
			GrainAmount = 0,
			GrainFrequency = 50,
			GrainSize = 25,
			GreenHue = -83,
			GreenSaturation = 0,
			Highlights2012 = -81,
			HueAdjustmentAqua = 47,
			HueAdjustmentBlue = 5,
			HueAdjustmentGreen = -100,
			HueAdjustmentMagenta = 29,
			HueAdjustmentOrange = -45,
			HueAdjustmentPurple = 0,
			HueAdjustmentRed = -62,
			HueAdjustmentYellow = -18,
			IncrementalTemperature = 2,
			IncrementalTint = 0,
			LuminanceAdjustmentAqua = -5,
			LuminanceAdjustmentBlue = -7,
			LuminanceAdjustmentGreen = -5,
			LuminanceAdjustmentMagenta = 28,
			LuminanceAdjustmentOrange = -42,
			LuminanceAdjustmentPurple = 0,
			LuminanceAdjustmentRed = -34,
			LuminanceAdjustmentYellow = 18,
			LuminanceNoiseReductionContrast = 0,
			LuminanceNoiseReductionDetail = 50,
			LuminanceSmoothing = 6,
			ParametricDarks = 0,
			ParametricHighlightSplit = 75,
			ParametricHighlights = 0,
			ParametricLights = 0,
			ParametricMidtoneSplit = 50,
			ParametricShadowSplit = 25,
			ParametricShadows = 0,
			PostCropVignetteAmount = -5,
			PostCropVignetteFeather = 50,
			PostCropVignetteHighlightContrast = 0,
			PostCropVignetteMidpoint = 30,
			PostCropVignetteRoundness = 100,
			PostCropVignetteStyle = 1,
			ProcessVersion = "6.7",
			RedHue = 85,
			RedSaturation = -75,
			Saturation = -29,
			SaturationAdjustmentAqua = 31,
			SaturationAdjustmentBlue = 18,
			SaturationAdjustmentGreen = 1,
			SaturationAdjustmentMagenta = 0,
			SaturationAdjustmentOrange = 55,
			SaturationAdjustmentPurple = -51,
			SaturationAdjustmentRed = 9,
			SaturationAdjustmentYellow = -7,
			ShadowTint = 31,
			Shadows2012 = 76,
			SharpenDetail = 5,
			SharpenEdgeMasking = 0,
			SharpenRadius = 0.8,
			Sharpness = 32,
			SplitToningBalance = -20,
			SplitToningHighlightHue = 57,
			SplitToningHighlightSaturation = 0,
			SplitToningShadowHue = 192,
			SplitToningShadowSaturation = 18,
			ToneCurveName2012 = "Custom",
			ToneCurvePV2012 = {
				0,
				30,
				101,
				76,
				191,
				171,
				251,
				249,
			},
			ToneCurvePV2012Blue = {
				0,
				0,
				77,
				59,
				203,
				200,
				255,
				255,
			},
			ToneCurvePV2012Green = {
				0,
				0,
				63,
				52,
				200,
				201,
				255,
				255,
			},
			ToneCurvePV2012Red = {
				0,
				0,
				63,
				56,
				213,
				210,
				231,
				228,
				255,
				255,
			},
			Vibrance = 50,
			VignetteAmount = 0,
			VignetteMidpoint = 50,
			WhiteBalance = "Custom",
			Whites2012 = 40,
		},
		uuid = "F4373EFE-464F-4F0F-8258-EB33A94107AE",
	},
	version = 0,
}
