dfe/ngôphàm -màu phim _.lrtemplate
s = {
	id = "6AB20DFE-E20A-496A-8851-E7C5626DD962",
	internalName = "ngôphàm -màu phim  ",
	title = "ngôphàm -màu phim  ",
	type = "Develop",
	value = {
		settings = {
			AutoLateralCA = 0,
			Blacks2012 = 15,
			BlueHue = -5,
			BlueSaturation = 25,
			CameraProfile = "Kodak Gold 100 - C",
			ChromaticAberrationB = 0,
			ChromaticAberrationR = 0,
			CircularGradientBasedCorrections = {
				{
					CorrectionActive = true,
					CorrectionAmount = 1,
					CorrectionID = "876391A9-EBEC-4CF8-8939-C89C98622E3C",
					CorrectionMasks = {
						{
							Angle = 0,
							Bottom = 1.10145,
							Feather = 50,
							Flipped = true,
							Left = 0.171586,
							MaskID = "1D35C55C-5CB8-4B30-915D-0416D420FFB3",
							MaskValue = 1,
							Midpoint = 50,
							Right = 0.998765,
							Roundness = 0,
							Top = 0.274283,
							Version = 2,
							What = "Mask/CircularGradient",
						},
					},
					CorrectionReferenceX = 0.585175,
					CorrectionReferenceY = 0.687867,
					LocalBlacks2012 = 0,
					LocalBrightness = 0,
					LocalClarity = 0,
					LocalClarity2012 = -0.04995,
					LocalContrast = 0,
					LocalContrast2012 = 0.01149,
					LocalDefringe = 0,
					LocalExposure = 0,
					LocalExposure2012 = 0.052,
					LocalHighlights2012 = 0,
					LocalLuminanceNoise = 0,
					LocalMoire = 0,
					LocalSaturation = 0,
					LocalShadows2012 = 0,
					LocalSharpness = 0.2,
					LocalTemperature = 0.19759,
					LocalTint = 0,
					LocalToningHue = 236,
					LocalToningSaturation = 0.1,
					LocalWhites2012 = 0,
					What = "Correction",
				},
			},
			Clarity2012 = -5,
			ColorNoiseReduction = 0,
			ColorNoiseReductionDetail = 50,
			ColorNoiseReductionSmoothness = 50,
			Contrast2012 = 0,
			ConvertToGrayscale = false,
			CropConstrainToWarp = 0,
			Defringe = 0,
			DefringeGreenAmount = 0,
			DefringeGreenHueHi = 60,
			DefringeGreenHueLo = 40,
			DefringePurpleAmount = 0,
			DefringePurpleHueHi = 70,
			DefringePurpleHueLo = 30,
			Dehaze = 0,
			EnableCalibration = true,
			EnableCircularGradientBasedCorrections = true,
			EnableColorAdjustments = true,
			EnableDetail = true,
			EnableEffects = true,
			EnableGradientBasedCorrections = true,
			EnableLensCorrections = true,
			EnableSplitToning = true,
			Exposure2012 = -0.13,
			GradientBasedCorrections = {
				{
					CorrectionActive = true,
					CorrectionAmount = 1,
					CorrectionID = "69F7DD3C-AD42-474C-9527-E11704AC9788",
					CorrectionMasks = {
						{
							FullX = 0.331675,
							FullY = 0.495025,
							MaskID = "8EC13752-21EA-4A9B-B46C-87CE13A51712",
							MaskValue = 1,
							What = "Mask/Gradient",
							ZeroX = 1.77197,
							ZeroY = 1.40796,
						},
					},
					CorrectionReferenceX = 1.05182,
					CorrectionReferenceY = 0.951493,
					LocalBrightness = 0,
					LocalClarity = 0,
					LocalClarity2012 = 0.01149,
					LocalContrast = 0,
					LocalContrast2012 = 0,
					LocalDefringe = 0,
					LocalExposure = 0,
					LocalExposure2012 = 0.14275,
					LocalHighlights2012 = 0,
					LocalLuminanceNoise = 0,
					LocalMoire = 0,
					LocalSaturation = 0,
					LocalShadows2012 = 0,
					LocalSharpness = 0,
					LocalTemperature = 0,
					LocalTint = 0,
					LocalToningHue = 0,
					LocalToningSaturation = 0,
					What = "Correction",
				},
				{
					CorrectionActive = true,
					CorrectionAmount = 1,
					CorrectionID = "1A606E6C-B9B4-42ED-85B4-3143690AB060",
					CorrectionMasks = {
						{
							FullX = 1.47264,
							FullY = -0.37811,
							MaskID = "6269356B-F191-4ADC-A269-011DF97C8417",
							MaskValue = 1,
							What = "Mask/Gradient",
							ZeroX = 0.779436,
							ZeroY = 0.442786,
						},
					},
					CorrectionReferenceX = 1.12604,
					CorrectionReferenceY = 0.032338,
					LocalBrightness = 0,
					LocalClarity = 0,
					LocalClarity2012 = -1,
					LocalContrast = 0,
					LocalContrast2012 = 0,
					LocalDefringe = 0,
					LocalExposure = 0,
					LocalExposure2012 = 0.36275,
					LocalHighlights2012 = 0,
					LocalLuminanceNoise = 0,
					LocalMoire = 0,
					LocalSaturation = 0,
					LocalShadows2012 = 0,
					LocalSharpness = 0.25,
					LocalTemperature = 0,
					LocalTint = 0,
					LocalToningHue = 240,
					LocalToningSaturation = 0,
					What = "Correction",
				},
				{
					CorrectionActive = true,
					CorrectionAmount = 1,
					CorrectionID = "4C44921D-E95A-4ED9-A3BC-9F6257405624",
					CorrectionMasks = {
						{
							FullX = -0.487562,
							FullY = 0.629353,
							MaskID = "A802DD23-FFAD-4DDB-B7B4-B83B8507CCB2",
							MaskValue = 1,
							What = "Mask/Gradient",
							ZeroX = 0.157546,
							ZeroY = 0.552239,
						},
					},
					CorrectionReferenceX = -0.165008,
					CorrectionReferenceY = 0.590796,
					LocalBrightness = 0,
					LocalClarity = 0,
					LocalClarity2012 = -1,
					LocalContrast = 0,
					LocalContrast2012 = 0,
					LocalDefringe = 0,
					LocalExposure = 0,
					LocalExposure2012 = 0.36275,
					LocalHighlights2012 = 0,
					LocalLuminanceNoise = 0,
					LocalMoire = 0,
					LocalSaturation = 0,
					LocalShadows2012 = 0,
					LocalSharpness = 0.25,
					LocalTemperature = 0,
					LocalTint = 0,
					LocalToningHue = 240,
					LocalToningSaturation = 0,
					What = "Correction",
				},
				{
					CorrectionActive = true,
					CorrectionAmount = 1,
					CorrectionID = "CF865189-3D06-4F0E-9D39-2D4580B0C5C8",
					CorrectionMasks = {
						{
							FullX = 1.05473,
							FullY = 1.01244,
							MaskID = "1FD6AD26-870D-4798-A3CD-B8400FE23D32",
							MaskValue = 1,
							What = "Mask/Gradient",
							ZeroX = 0.490879,
							ZeroY = 0.567164,
						},
					},
					CorrectionReferenceX = 0.772805,
					CorrectionReferenceY = 0.789802,
					LocalBrightness = 0,
					LocalClarity = 0,
					LocalClarity2012 = -1,
					LocalContrast = 0,
					LocalContrast2012 = 0,
					LocalDefringe = 0,
					LocalExposure = 0,
					LocalExposure2012 = 0.25275,
					LocalHighlights2012 = 0,
					LocalLuminanceNoise = 0,
					LocalMoire = 0,
					LocalSaturation = 0,
					LocalShadows2012 = 0,
					LocalSharpness = 0.25,
					LocalTemperature = 0,
					LocalTint = 0,
					LocalToningHue = 240,
					LocalToningSaturation = 0,
					What = "Correction",
				},
				{
					CorrectionActive = true,
					CorrectionAmount = 1,
					CorrectionID = "E9BC9A4D-FC66-45C2-BB49-7B464C0FA5F5",
					CorrectionMasks = {
						{
							FullX = -0.05141,
							FullY = 0.415423,
							MaskID = "5BAC5DF5-5D67-450E-AF30-4D798368B590",
							MaskValue = 1,
							What = "Mask/Gradient",
							ZeroX = 0.381426,
							ZeroY = 0.69403,
						},
					},
					CorrectionReferenceX = 0.165008,
					CorrectionReferenceY = 0.554727,
					LocalBrightness = 0,
					LocalClarity = 0,
					LocalClarity2012 = -1,
					LocalContrast = 0,
					LocalContrast2012 = 0,
					LocalDefringe = 0,
					LocalExposure = 0,
					LocalExposure2012 = 0.25275,
					LocalHighlights2012 = 0,
					LocalLuminanceNoise = 0,
					LocalMoire = 0,
					LocalSaturation = 0,
					LocalShadows2012 = 0,
					LocalSharpness = 0.25,
					LocalTemperature = 0,
					LocalTint = 0,
					LocalToningHue = 240,
					LocalToningSaturation = 0,
					What = "Correction",
				},
				{
					CorrectionActive = true,
					CorrectionAmount = 1,
					CorrectionID = "5BCCF93E-7D2A-49A5-9CCA-856848743400",
					CorrectionMasks = {
						{
							FullX = 0.265722,
							FullY = 0.046246,
							MaskID = "AA32967B-C60A-4928-9261-B92191F5C4C4",
							MaskValue = 1,
							What = "Mask/Gradient",
							ZeroX = 0.450775,
							ZeroY = 1.69006,
						},
					},
					CorrectionReferenceX = 0.358248,
					CorrectionReferenceY = 0.868153,
					LocalBlacks2012 = 0,
					LocalBrightness = 0,
					LocalClarity = 0,
					LocalClarity2012 = 0,
					LocalContrast = 0,
					LocalContrast2012 = 0,
					LocalDefringe = 0,
					LocalDehaze = 0,
					LocalExposure = 0,
					LocalExposure2012 = 0,
					LocalHighlights2012 = 0,
					LocalLuminanceNoise = 0,
					LocalMoire = 0,
					LocalSaturation = 0,
					LocalShadows2012 = 0,
					LocalSharpness = 0,
					LocalTemperature = 0,
					LocalTint = 0,
					LocalToningHue = 0,
					LocalToningSaturation = 0,
					LocalWhites2012 = 0,
					What = "Correction",
				},
				{
					CorrectionActive = true,
					CorrectionAmount = 1,
					CorrectionID = "85214AE5-0269-4395-9CD2-9EC3A01541A2",
					CorrectionMasks = {
						{
							FullX = 0.44652,
							FullY = 0.916123,
							MaskID = "5E56E952-2355-4603-8FBF-D100B94D6DF1",
							MaskValue = 1,
							What = "Mask/Gradient",
							ZeroX = 0.544915,
							ZeroY = 1.22978,
						},
					},
					CorrectionReferenceX = 0.495718,
					CorrectionReferenceY = 1.07295,
					LocalBlacks2012 = 0,
					LocalBrightness = 0,
					LocalClarity = 0,
					LocalClarity2012 = 0,
					LocalContrast = 0,
					LocalContrast2012 = 0,
					LocalDefringe = 0,
					LocalDehaze = 0,
					LocalExposure = 0,
					LocalExposure2012 = 0,
					LocalHighlights2012 = 0,
					LocalLuminanceNoise = 0,
					LocalMoire = 0,
					LocalSaturation = 0,
					LocalShadows2012 = 0,
					LocalSharpness = 0,
					LocalTemperature = 0.03,
					LocalTint = 0,
					LocalToningHue = 20,
					LocalToningSaturation = 0.05,
					LocalWhites2012 = 0,
					What = "Correction",
				},
			},
			GrainAmount = 10,
			GrainFrequency = 45,
			GrainSize = 40,
			GreenHue = 85,
			GreenSaturation = 0,
			Highlights2012 = -74,
			HueAdjustmentAqua = 10,
			HueAdjustmentBlue = 0,
			HueAdjustmentGreen = 15,
			HueAdjustmentMagenta = 20,
			HueAdjustmentOrange = 0,
			HueAdjustmentPurple = 20,
			HueAdjustmentRed = 5,
			HueAdjustmentYellow = 0,
			LensManualDistortionAmount = 0,
			LensProfileEnable = 1,
			LensProfileSetup = "LensDefaults",
			LuminanceAdjustmentAqua = 10,
			LuminanceAdjustmentBlue = -15,
			LuminanceAdjustmentGreen = -5,
			LuminanceAdjustmentMagenta = 20,
			LuminanceAdjustmentOrange = -4,
			LuminanceAdjustmentPurple = 20,
			LuminanceAdjustmentRed = 5,
			LuminanceAdjustmentYellow = 10,
			LuminanceNoiseReductionContrast = 0,
			LuminanceNoiseReductionDetail = 50,
			LuminanceSmoothing = 25,
			ParametricDarks = 0,
			ParametricHighlightSplit = 75,
			ParametricHighlights = 0,
			ParametricLights = 0,
			ParametricMidtoneSplit = 60,
			ParametricShadowSplit = 14,
			ParametricShadows = 0,
			PerspectiveAspect = -5,
			PerspectiveHorizontal = 0,
			PerspectiveRotate = 0,
			PerspectiveScale = 92,
			PerspectiveUpright = 0,
			PerspectiveVertical = 0,
			PostCropVignetteAmount = 0,
			PostCropVignetteFeather = 50,
			PostCropVignetteHighlightContrast = 0,
			PostCropVignetteMidpoint = 50,
			PostCropVignetteRoundness = 0,
			PostCropVignetteStyle = 1,
			ProcessVersion = "6.7",
			RedHue = 35,
			RedSaturation = 20,
			Saturation = -5,
			SaturationAdjustmentAqua = -50,
			SaturationAdjustmentBlue = -40,
			SaturationAdjustmentGreen = -50,
			SaturationAdjustmentMagenta = -40,
			SaturationAdjustmentOrange = -8,
			SaturationAdjustmentPurple = -50,
			SaturationAdjustmentRed = -30,
			SaturationAdjustmentYellow = -15,
			ShadowTint = -2,
			Shadows2012 = 12,
			SharpenDetail = 25,
			SharpenEdgeMasking = 46,
			SharpenRadius = 1,
			Sharpness = 59,
			SplitToningBalance = 90,
			SplitToningHighlightHue = 63,
			SplitToningHighlightSaturation = 4,
			SplitToningShadowHue = 215,
			SplitToningShadowSaturation = 15,
			Temperature = 5315,
			Tint = 8,
			ToneCurveName2012 = "Custom",
			ToneCurvePV2012 = {
				0,
				13,
				32,
				31,
				77,
				74,
				186,
				187,
				255,
				250,
			},
			ToneCurvePV2012Blue = {
				0,
				0,
				23,
				17,
				116,
				127,
				182,
				202,
				255,
				255,
			},
			ToneCurvePV2012Green = {
				0,
				0,
				28,
				9,
				120,
				124,
				181,
				198,
				255,
				255,
			},
			ToneCurvePV2012Red = {
				0,
				0,
				32,
				6,
				75,
				47,
				125,
				120,
				188,
				197,
				255,
				255,
			},
			Vibrance = 0,
			VignetteAmount = -50,
			VignetteMidpoint = 50,
			WhiteBalance = "Custom",
			Whites2012 = 7,
			orientation = "AB",
		},
		uuid = "9BF5B047-F0C6-4531-ABA4-AB7E15CE4CFA",
	},
	version = 0,
}
