Film-Atmosphere-Lightroom-Presets/Film presets by Sleeklens.com/Film-FadedthruPeephole.lrtemplate
s = {
	id = "8A8A931A-18C5-485B-911A-00F712AF33D0",
	internalName = "Film-FadedthruPeephole",
	title = "Film-FadedthruPeephole",
	type = "Develop",
	value = {
		settings = {
			AutoLateralCA = 0,
			Blacks2012 = 10,
			BlueHue = 0,
			BlueSaturation = 0,
			CameraProfile = "Adobe Standard",
			ChromaticAberrationB = 0,
			ChromaticAberrationR = 0,
			Clarity2012 = 18,
			ColorNoiseReduction = 11,
			ColorNoiseReductionDetail = 50,
			ColorNoiseReductionSmoothness = 50,
			Contrast2012 = -50,
			ConvertToGrayscale = false,
			Defringe = 0,
			DefringeGreenAmount = 0,
			DefringeGreenHueHi = 60,
			DefringeGreenHueLo = 40,
			DefringePurpleAmount = 0,
			DefringePurpleHueHi = 70,
			DefringePurpleHueLo = 30,
			EnableCalibration = true,
			EnableColorAdjustments = true,
			EnableDetail = true,
			EnableEffects = true,
			EnableLensCorrections = true,
			EnableSplitToning = true,
			Exposure2012 = 0.51,
			GreenHue = 0,
			GreenSaturation = 0,
			Highlights2012 = -25,
			HueAdjustmentAqua = 0,
			HueAdjustmentBlue = 0,
			HueAdjustmentGreen = 0,
			HueAdjustmentMagenta = 0,
			HueAdjustmentOrange = 0,
			HueAdjustmentPurple = 0,
			HueAdjustmentRed = 0,
			HueAdjustmentYellow = 0,
			LensProfileEnable = 0,
			LensProfileSetup = "LensDefaults",
			LuminanceAdjustmentAqua = 0,
			LuminanceAdjustmentBlue = 0,
			LuminanceAdjustmentGreen = 0,
			LuminanceAdjustmentMagenta = 0,
			LuminanceAdjustmentOrange = 0,
			LuminanceAdjustmentPurple = 0,
			LuminanceAdjustmentRed = 0,
			LuminanceAdjustmentYellow = 0,
			LuminanceNoiseReductionContrast = 0,
			LuminanceNoiseReductionDetail = 50,
			LuminanceSmoothing = 20,
			ParametricDarks = -11,
			ParametricHighlightSplit = 75,
			ParametricHighlights = -34,
			ParametricLights = -23,
			ParametricMidtoneSplit = 50,
			ParametricShadowSplit = 25,
			ParametricShadows = -9,
			PerspectiveUpright = 0,
			PostCropVignetteAmount = -100,
			PostCropVignetteFeather = 8,
			PostCropVignetteHighlightContrast = 0,
			PostCropVignetteMidpoint = 82,
			PostCropVignetteRoundness = 100,
			PostCropVignetteStyle = 1,
			ProcessVersion = "6.7",
			RedHue = 0,
			RedSaturation = 0,
			Saturation = -64,
			SaturationAdjustmentAqua = 0,
			SaturationAdjustmentBlue = 0,
			SaturationAdjustmentGreen = 0,
			SaturationAdjustmentMagenta = 0,
			SaturationAdjustmentOrange = 0,
			SaturationAdjustmentPurple = 0,
			SaturationAdjustmentRed = 0,
			SaturationAdjustmentYellow = 0,
			ShadowTint = 0,
			Shadows2012 = 5,
			SharpenDetail = 35,
			SharpenEdgeMasking = 0,
			SharpenRadius = 0.9,
			Sharpness = 43,
			SplitToningBalance = 81,
			SplitToningHighlightHue = 0,
			SplitToningHighlightSaturation = 0,
			SplitToningShadowHue = 51,
			SplitToningShadowSaturation = 67,
			ToneCurveName2012 = "Custom",
			ToneCurvePV2012 = {
				0,
				55,
				43,
				66,
				71,
				83,
				92,
				98,
				132,
				145,
				169,
				183,
				204,
				211,
				229,
				223,
				255,
				232,
			},
			ToneCurvePV2012Blue = {
				0,
				0,
				113,
				111,
				255,
				255,
			},
			ToneCurvePV2012Green = {
				0,
				0,
				255,
				255,
			},
			ToneCurvePV2012Red = {
				8,
				0,
				116,
				122,
				255,
				255,
			},
			Vibrance = 29,
			Whites2012 = -55,
		},
		uuid = "F50F35EC-8014-4A94-B29F-0BE37D90BA5A",
	},
	version = 0,
}
