Film-Atmosphere-Lightroom-Presets/Film presets by Sleeklens.com/Film-ColorWashed.lrtemplate
s = {
	id = "DB73F6FE-4A0D-4794-8FDA-E6648DF9AFFA",
	internalName = "Film-ColorWashed",
	title = "Film-ColorWashed",
	type = "Develop",
	value = {
		settings = {
			AutoLateralCA = 0,
			Blacks2012 = 19,
			BlueHue = 0,
			BlueSaturation = 0,
			CameraProfile = "Adobe Standard",
			ChromaticAberrationB = 0,
			ChromaticAberrationR = 0,
			Clarity2012 = 0,
			ColorNoiseReduction = 25,
			ColorNoiseReductionDetail = 50,
			ColorNoiseReductionSmoothness = 50,
			Contrast2012 = 0,
			ConvertToGrayscale = false,
			Defringe = 0,
			DefringeGreenAmount = 0,
			DefringeGreenHueHi = 60,
			DefringeGreenHueLo = 40,
			DefringePurpleAmount = 0,
			DefringePurpleHueHi = 70,
			DefringePurpleHueLo = 30,
			EnableCalibration = true,
			EnableColorAdjustments = true,
			EnableDetail = true,
			EnableEffects = true,
			EnableGradientBasedCorrections = true,
			EnableLensCorrections = true,
			EnableSplitToning = true,
			Exposure2012 = 0,
			GradientBasedCorrections = {
				{
					CorrectionActive = true,
					CorrectionAmount = 1,
					CorrectionID = "E2BFFD6B-6660-4A8D-BCB7-5661958570EF",
					CorrectionMasks = {
						{
							FullX = 0.955936,
							FullY = 0.049724,
							MaskID = "A642B225-C1EE-4BFE-84BF-1E3EC6DE675A",
							MaskValue = 1,
							What = "Mask/Gradient",
							ZeroX = 0.339045,
							ZeroY = 0.488029,
						},
					},
					CorrectionReferenceX = 0.64749,
					CorrectionReferenceY = 0.268877,
					LocalBrightness = 0,
					LocalClarity = 0,
					LocalClarity2012 = 0,
					LocalContrast = 0.45,
					LocalContrast2012 = 0.45,
					LocalExposure = -0.075,
					LocalExposure2012 = -0.075,
					LocalHighlights2012 = 0,
					LocalLuminanceNoise = 0,
					LocalMoire = 0,
					LocalSaturation = 0,
					LocalShadows2012 = -0.158158,
					LocalSharpness = 0,
					LocalTemperature = 0,
					LocalTint = 0,
					LocalToningHue = 46,
					LocalToningSaturation = 0.02,
					What = "Correction",
				},
				{
					CorrectionActive = true,
					CorrectionAmount = 1,
					CorrectionID = "DCF87C46-FD3C-4330-AD14-F578384C85EE",
					CorrectionMasks = {
						{
							FullX = 0,
							FullY = 0.062615,
							MaskID = "E2F29703-2D2F-40CC-B41A-82C5C9DA7F56",
							MaskValue = 1,
							What = "Mask/Gradient",
							ZeroX = 0.542228,
							ZeroY = 0.375691,
						},
					},
					CorrectionReferenceX = 0.271114,
					CorrectionReferenceY = 0.219153,
					LocalBrightness = 0,
					LocalClarity = 0,
					LocalClarity2012 = 0,
					LocalContrast = 0.65,
					LocalContrast2012 = 0.65,
					LocalExposure = -0.2,
					LocalExposure2012 = -0.2,
					LocalHighlights2012 = 0,
					LocalLuminanceNoise = 0,
					LocalMoire = 0,
					LocalSaturation = 0,
					LocalShadows2012 = -0.173419,
					LocalSharpness = 0,
					LocalTemperature = 0,
					LocalTint = 0,
					LocalToningHue = 55,
					LocalToningSaturation = 0.01,
					What = "Correction",
				},
				{
					CorrectionActive = true,
					CorrectionAmount = 1,
					CorrectionID = "56110285-FC4C-4654-97FC-419DF2B27504",
					CorrectionMasks = {
						{
							FullX = 0.585043,
							FullY = -0.365843,
							MaskID = "93ACF599-587F-4A2B-B3B0-BB11B372C41F",
							MaskValue = 1,
							What = "Mask/Gradient",
							ZeroX = -0.157203,
							ZeroY = 1.07671,
						},
					},
					CorrectionReferenceX = 0.21392,
					CorrectionReferenceY = 0.355433,
					LocalBrightness = 0,
					LocalClarity = 0,
					LocalClarity2012 = 0,
					LocalContrast = 0,
					LocalContrast2012 = 0,
					LocalExposure = 0,
					LocalExposure2012 = 0,
					LocalHighlights2012 = 0,
					LocalLuminanceNoise = 0,
					LocalMoire = 0,
					LocalSaturation = 0,
					LocalShadows2012 = 0.218114,
					LocalSharpness = 0,
					LocalTemperature = 0,
					LocalTint = 0,
					LocalToningHue = 192.797,
					LocalToningSaturation = 0.03168,
					What = "Correction",
				},
			},
			GreenHue = 0,
			GreenSaturation = 0,
			Highlights2012 = 19,
			HueAdjustmentAqua = 0,
			HueAdjustmentBlue = 0,
			HueAdjustmentGreen = 0,
			HueAdjustmentMagenta = 0,
			HueAdjustmentOrange = 0,
			HueAdjustmentPurple = 0,
			HueAdjustmentRed = 0,
			HueAdjustmentYellow = 0,
			LensProfileEnable = 0,
			LensProfileSetup = "LensDefaults",
			LuminanceAdjustmentAqua = 0,
			LuminanceAdjustmentBlue = 0,
			LuminanceAdjustmentGreen = 0,
			LuminanceAdjustmentMagenta = 0,
			LuminanceAdjustmentOrange = 0,
			LuminanceAdjustmentPurple = 0,
			LuminanceAdjustmentRed = 0,
			LuminanceAdjustmentYellow = 0,
			LuminanceNoiseReductionContrast = 0,
			LuminanceNoiseReductionDetail = 50,
			LuminanceSmoothing = 0,
			ParametricDarks = 0,
			ParametricHighlightSplit = 75,
			ParametricHighlights = 0,
			ParametricLights = 0,
			ParametricMidtoneSplit = 50,
			ParametricShadowSplit = 25,
			ParametricShadows = 0,
			PerspectiveUpright = 0,
			PostCropVignetteAmount = 0,
			PostCropVignetteFeather = 50,
			PostCropVignetteHighlightContrast = 0,
			PostCropVignetteMidpoint = 50,
			PostCropVignetteRoundness = 0,
			PostCropVignetteStyle = 1,
			ProcessVersion = "6.7",
			RedHue = 0,
			RedSaturation = 0,
			Saturation = 0,
			SaturationAdjustmentAqua = 0,
			SaturationAdjustmentBlue = 0,
			SaturationAdjustmentGreen = 0,
			SaturationAdjustmentMagenta = 0,
			SaturationAdjustmentOrange = 0,
			SaturationAdjustmentPurple = 0,
			SaturationAdjustmentRed = 0,
			SaturationAdjustmentYellow = 0,
			ShadowTint = 0,
			Shadows2012 = 44,
			SharpenDetail = 25,
			SharpenEdgeMasking = 0,
			SharpenRadius = 1,
			Sharpness = 41,
			SplitToningBalance = 0,
			SplitToningHighlightHue = 0,
			SplitToningHighlightSaturation = 0,
			SplitToningShadowHue = 0,
			SplitToningShadowSaturation = 0,
			ToneCurveName2012 = "Custom",
			ToneCurvePV2012 = {
				0,
				53,
				52,
				61,
				96,
				93,
				130,
				131,
				181,
				186,
				212,
				214,
				255,
				236,
			},
			ToneCurvePV2012Blue = {
				0,
				9,
				255,
				226,
			},
			ToneCurvePV2012Green = {
				0,
				0,
				255,
				247,
			},
			ToneCurvePV2012Red = {
				0,
				0,
				255,
				255,
			},
			Vibrance = 0,
			Whites2012 = 28,
			orientation = "AB",
		},
		uuid = "408725F7-D802-4310-9044-C0B8380C45E2",
	},
	version = 0,
}
