CM 600 Lightroom Presets Bundle Vol  2 52062/50 Retro Lightroom Presets/Retro Effect 16.lrtemplate
s = {
	id = "9487AC3F-6448-4DEE-AE4D-A4E9376ADDDA",
	internalName = "Retro Effect 16",
	title = "Retro Effect 16",
	type = "Develop",
	value = {
		settings = {
			AutoLateralCA = 0,
			Blacks2012 = 0,
			BlueHue = 0,
			BlueSaturation = 0,
			CameraProfile = "Embedded",
			ChromaticAberrationB = 0,
			ChromaticAberrationR = 0,
			Clarity2012 = 0,
			ColorNoiseReduction = 0,
			ColorNoiseReductionDetail = 50,
			ColorNoiseReductionSmoothness = 50,
			Contrast2012 = 0,
			ConvertToGrayscale = true,
			Defringe = 0,
			DefringeGreenAmount = 0,
			DefringeGreenHueHi = 60,
			DefringeGreenHueLo = 40,
			DefringePurpleAmount = 0,
			DefringePurpleHueHi = 70,
			DefringePurpleHueLo = 30,
			EnableCalibration = true,
			EnableDetail = true,
			EnableEffects = true,
			EnableGrayscaleMix = true,
			EnableLensCorrections = true,
			EnableSplitToning = true,
			Exposure2012 = 0,
			GrainAmount = 0,
			GrainFrequency = 50,
			GrainSize = 25,
			GrayMixerAqua = -19,
			GrayMixerBlue = 2,
			GrayMixerGreen = -19,
			GrayMixerMagenta = 5,
			GrayMixerOrange = -8,
			GrayMixerPurple = 9,
			GrayMixerRed = -2,
			GrayMixerYellow = -11,
			GreenHue = 0,
			GreenSaturation = 0,
			Highlights2012 = 0,
			IncrementalTemperature = 24,
			IncrementalTint = 0,
			LuminanceNoiseReductionContrast = 0,
			LuminanceNoiseReductionDetail = 50,
			LuminanceSmoothing = 0,
			ParametricDarks = 0,
			ParametricHighlightSplit = 75,
			ParametricHighlights = 0,
			ParametricLights = 0,
			ParametricMidtoneSplit = 50,
			ParametricShadowSplit = 25,
			ParametricShadows = 0,
			PostCropVignetteAmount = 0,
			PostCropVignetteFeather = 50,
			PostCropVignetteHighlightContrast = 0,
			PostCropVignetteMidpoint = 50,
			PostCropVignetteRoundness = 0,
			PostCropVignetteStyle = 1,
			ProcessVersion = "6.7",
			RedHue = 0,
			RedSaturation = 0,
			ShadowTint = 0,
			Shadows2012 = 0,
			SharpenDetail = 25,
			SharpenEdgeMasking = 0,
			SharpenRadius = 1,
			Sharpness = 0,
			SplitToningBalance = 0,
			SplitToningHighlightHue = 51,
			SplitToningHighlightSaturation = 46,
			SplitToningShadowHue = 331,
			SplitToningShadowSaturation = 57,
			ToneCurveName2012 = "Custom",
			ToneCurvePV2012 = {
				8,
				29,
				255,
				255,
			},
			ToneCurvePV2012Blue = {
				0,
				0,
				64,
				82,
				137,
				149,
				207,
				211,
				255,
				255,
			},
			ToneCurvePV2012Green = {
				0,
				0,
				130,
				136,
				255,
				255,
			},
			ToneCurvePV2012Red = {
				0,
				0,
				104,
				124,
				255,
				255,
			},
			VignetteAmount = 0,
			VignetteMidpoint = 50,
			WhiteBalance = "Custom",
			Whites2012 = 0,
		},
		uuid = "2C3427FA-A300-4B81-9D82-F1A3EC666EC8",
	},
	version = 0,
}
