Morgan Burks Immersion Lightroom Presets/Muted tone Presets for LR/MB Muted Tone Presets for LR/MB Muted Tone Presets for LR4/MB MT - Belle.lrtemplate
s = {
	id = "DEDE6103-42E6-44DD-AE25-935034A675CD",
	internalName = "MB MT - Belle",
	title = "MB MT - Belle",
	type = "Develop",
	value = {
		settings = {
			BlueHue = -24,
			BlueSaturation = 5,
			CameraProfile = "Adobe Standard",
			EnableCalibration = true,
			EnableSplitToning = true,
			GreenHue = -17,
			GreenSaturation = -50,
			IncrementalTemperature = 5,
			IncrementalTint = 12,
			ProcessVersion = "6.7",
			RedHue = -19,
			RedSaturation = 31,
			ShadowTint = -10,
			SplitToningBalance = 12,
			SplitToningHighlightHue = 214,
			SplitToningHighlightSaturation = 8,
			SplitToningShadowHue = 249,
			SplitToningShadowSaturation = 12,
			WhiteBalance = "Custom",
		},
		uuid = "410FE812-8C2A-4315-B2E9-D9297C419F0F",
	},
	version = 0,
}
