Morgan Burks Immersion Lightroom Presets/Muted tone Presets for LR/MB Muted Tone Presets for LR/MB Muted Tone Presets for LR4/MB MT - Simple Matte Highlights.lrtemplate
s = {
	id = "F71635F9-ACC3-4222-8505-B50CE456A3F2",
	internalName = "MB MT - Simple Matte Highlights",
	title = "MB MT - Simple Matte Highlights",
	type = "Develop",
	value = {
		settings = {
			ConvertToGrayscale = false,
			ParametricDarks = 0,
			ParametricHighlightSplit = 86,
			ParametricHighlights = -88,
			ParametricLights = -8,
			ParametricMidtoneSplit = 70,
			ParametricShadowSplit = 25,
			ParametricShadows = 0,
			ToneCurve = {
				0,
				0,
				32,
				22,
				64,
				56,
				128,
				128,
				192,
				196,
				255,
				255,
			},
			ToneCurveName = "Medium Contrast",
		},
		uuid = "C6A064B5-2327-45F1-B311-97216B148285",
	},
	version = 0,
}
