New Born Lightroom Presets/Amil Neal Productions New Born Lightroom Presets/49 Lightroom Presets/07. ANP NewBorn LR Preset.lrtemplate
s = {
	id = "313AAAB6-73EF-491A-8D92-3D9BAEE8B6BE",
	internalName = "07. ANP NewBorn LR Preset",
	title = "07. ANP NewBorn LR Preset",
	type = "Develop",
	value = {
		settings = {
			AutoLateralCA = 0,
			Blacks2012 = -50,
			BlueHue = 0,
			BlueSaturation = 0,
			CameraProfile = "ACR 3.6",
			ChromaticAberrationB = 0,
			ChromaticAberrationR = 0,
			Clarity2012 = 86,
			ColorNoiseReduction = 0,
			ColorNoiseReductionDetail = 50,
			ColorNoiseReductionSmoothness = 50,
			Contrast2012 = 26,
			ConvertToGrayscale = false,
			CropConstrainToWarp = 0,
			Defringe = 0,
			DefringeGreenAmount = 0,
			DefringeGreenHueHi = 72,
			DefringeGreenHueLo = 32,
			DefringePurpleAmount = 0,
			DefringePurpleHueHi = 78,
			DefringePurpleHueLo = 32,
			EnableCalibration = true,
			EnableColorAdjustments = true,
			EnableDetail = true,
			EnableEffects = true,
			EnableGradientBasedCorrections = true,
			EnableLensCorrections = true,
			EnableSplitToning = true,
			Exposure2012 = 0,
			GrainAmount = 0,
			GrainFrequency = 50,
			GrainSize = 25,
			GreenHue = 0,
			GreenSaturation = 0,
			Highlights2012 = 50,
			HueAdjustmentAqua = 0,
			HueAdjustmentBlue = 0,
			HueAdjustmentGreen = 0,
			HueAdjustmentMagenta = 0,
			HueAdjustmentOrange = 0,
			HueAdjustmentPurple = 0,
			HueAdjustmentRed = 0,
			HueAdjustmentYellow = 0,
			IncrementalTemperature = 12,
			IncrementalTint = 12,
			LensManualDistortionAmount = 0,
			LensProfileEnable = 0,
			LensProfileSetup = "LensDefaults",
			LuminanceAdjustmentAqua = 0,
			LuminanceAdjustmentBlue = 0,
			LuminanceAdjustmentGreen = 0,
			LuminanceAdjustmentMagenta = 0,
			LuminanceAdjustmentOrange = 0,
			LuminanceAdjustmentPurple = 0,
			LuminanceAdjustmentRed = 0,
			LuminanceAdjustmentYellow = 0,
			LuminanceNoiseReductionContrast = 0,
			LuminanceNoiseReductionDetail = 18,
			LuminanceSmoothing = 26,
			ParametricDarks = 13,
			ParametricHighlightSplit = 75,
			ParametricHighlights = 4,
			ParametricLights = -58,
			ParametricMidtoneSplit = 50,
			ParametricShadowSplit = 25,
			ParametricShadows = -63,
			PerspectiveAspect = 0,
			PerspectiveHorizontal = 0,
			PerspectiveRotate = 0,
			PerspectiveScale = 100,
			PerspectiveVertical = 0,
			PostCropVignetteAmount = 0,
			PostCropVignetteFeather = 50,
			PostCropVignetteHighlightContrast = 0,
			PostCropVignetteMidpoint = 50,
			PostCropVignetteRoundness = 0,
			PostCropVignetteStyle = 1,
			ProcessVersion = "6.7",
			RedHue = 0,
			RedSaturation = 0,
			Saturation = -21,
			SaturationAdjustmentAqua = 38,
			SaturationAdjustmentBlue = 42,
			SaturationAdjustmentGreen = 67,
			SaturationAdjustmentMagenta = 67,
			SaturationAdjustmentOrange = 56,
			SaturationAdjustmentPurple = 58,
			SaturationAdjustmentRed = 53,
			SaturationAdjustmentYellow = 51,
			ShadowTint = 0,
			Shadows2012 = 90,
			SharpenDetail = 10,
			SharpenEdgeMasking = 0,
			SharpenRadius = 0.9,
			Sharpness = 41,
			SplitToningBalance = -76,
			SplitToningHighlightHue = 236,
			SplitToningHighlightSaturation = 55,
			SplitToningShadowHue = 214,
			SplitToningShadowSaturation = 12,
			ToneCurveName2012 = "Custom",
			ToneCurvePV2012 = {
				1,
				48,
				255,
				232,
			},
			ToneCurvePV2012Blue = {
				0,
				0,
				255,
				255,
			},
			ToneCurvePV2012Green = {
				0,
				0,
				255,
				255,
			},
			ToneCurvePV2012Red = {
				0,
				0,
				255,
				255,
			},
			Vibrance = 26,
			VignetteAmount = -48,
			VignetteMidpoint = 28,
			WhiteBalance = "Custom",
			Whites2012 = 38,
			orientation = "AB",
		},
		uuid = "FE597C58-F967-416C-9067-9D3FDD99F13D",
	},
	version = 0,
}
