CM 1000+ Lightroom Preset Pack 317985/B & W Collection (64)/B & W Preset (63).lrtemplate
s = {
	id = "AA11939D-8AFF-41DA-9201-AB943E2E85F9",
	internalName = "bw 13",
	title = "bw 13",
	type = "Develop",
	value = {
		settings = {
			AutoLateralCA = 1,
			Blacks2012 = -49,
			BlueHue = -9,
			BlueSaturation = 3,
			CameraProfile = "Adobe Standard",
			ChromaticAberrationB = 0,
			ChromaticAberrationR = 0,
			Clarity2012 = 7,
			ColorNoiseReduction = 25,
			ColorNoiseReductionDetail = 50,
			ColorNoiseReductionSmoothness = 50,
			Contrast2012 = 41,
			ConvertToGrayscale = true,
			Defringe = 2,
			DefringeGreenAmount = 3,
			DefringeGreenHueHi = 70,
			DefringeGreenHueLo = 40,
			DefringePurpleAmount = 3,
			DefringePurpleHueHi = 70,
			DefringePurpleHueLo = 30,
			EnableCalibration = true,
			EnableDetail = true,
			EnableEffects = true,
			EnableGrayscaleMix = true,
			EnableLensCorrections = true,
			EnableSplitToning = true,
			Exposure2012 = 2.58,
			GrainAmount = 0,
			GrainFrequency = 100,
			GrainSize = 15,
			GrayMixerAqua = 35,
			GrayMixerBlue = -29,
			GrayMixerGreen = -19,
			GrayMixerMagenta = 17,
			GrayMixerOrange = -10,
			GrayMixerPurple = 43,
			GrayMixerRed = 17,
			GrayMixerYellow = 9,
			GreenHue = -22,
			GreenSaturation = 25,
			Highlights2012 = -45,
			LensProfileEnable = 0,
			LensProfileSetup = "LensDefaults",
			LuminanceNoiseReductionContrast = 0,
			LuminanceNoiseReductionDetail = 50,
			LuminanceSmoothing = 0,
			ParametricDarks = 0,
			ParametricHighlightSplit = 75,
			ParametricHighlights = 0,
			ParametricLights = 0,
			ParametricMidtoneSplit = 60,
			ParametricShadowSplit = 14,
			ParametricShadows = 0,
			PostCropVignetteAmount = -22,
			PostCropVignetteFeather = 59,
			PostCropVignetteHighlightContrast = 0,
			PostCropVignetteMidpoint = 73,
			PostCropVignetteRoundness = 28,
			PostCropVignetteStyle = 1,
			ProcessVersion = "6.7",
			RedHue = 31,
			RedSaturation = -25,
			ShadowTint = 0,
			Shadows2012 = 87,
			SharpenDetail = 40,
			SharpenEdgeMasking = 30,
			SharpenRadius = 1.5,
			Sharpness = 66,
			SplitToningBalance = -7,
			SplitToningHighlightHue = 159,
			SplitToningHighlightSaturation = 3,
			SplitToningShadowHue = 243,
			SplitToningShadowSaturation = 16,
			ToneCurveName2012 = "Custom",
			ToneCurvePV2012 = {
				0,
				30,
				64,
				56,
				128,
				128,
				192,
				196,
				255,
				233,
			},
			ToneCurvePV2012Blue = {
				0,
				0,
				255,
				255,
			},
			ToneCurvePV2012Green = {
				0,
				0,
				255,
				255,
			},
			ToneCurvePV2012Red = {
				0,
				0,
				255,
				255,
			},
			VignetteAmount = -96,
			VignetteMidpoint = 12,
			WhiteBalance = "As Shot",
			Whites2012 = 28,
		},
		uuid = "72AAA49D-E249-4609-9A42-E7047B6E0466",
	},
	version = 0,
}
