CM 1000+ Lightroom Preset Pack 317985/B & W Collection (64)/B & W Preset (25).lrtemplate
s = {
	id = "C3D7B695-1AC9-4120-AFF6-44848CD6710E",
	internalName = "05_Film B&W Lightroom Presets_Contrast_4",
	title = "05_Film B&W Lightroom Presets_Contrast_4",
	type = "Develop",
	value = {
		settings = {
			Blacks2012 = 0,
			BlueHue = -60,
			BlueSaturation = 0,
			CameraProfile = "Embedded",
			Clarity2012 = -11,
			ColorNoiseReduction = 0,
			ColorNoiseReductionDetail = 50,
			ColorNoiseReductionSmoothness = 50,
			Contrast2012 = 0,
			ConvertToGrayscale = true,
			EnableCalibration = true,
			EnableDetail = true,
			EnableEffects = true,
			EnableGrayscaleMix = true,
			EnableSplitToning = true,
			GrainAmount = 0,
			GrainFrequency = 50,
			GrainSize = 25,
			GrayMixerAqua = -19,
			GrayMixerBlue = 8,
			GrayMixerGreen = -26,
			GrayMixerMagenta = 5,
			GrayMixerOrange = -17,
			GrayMixerPurple = 15,
			GrayMixerRed = -8,
			GrayMixerYellow = -21,
			GreenHue = 60,
			GreenSaturation = 0,
			Highlights2012 = 0,
			LuminanceNoiseReductionContrast = 0,
			LuminanceNoiseReductionDetail = 50,
			LuminanceSmoothing = 0,
			ParametricDarks = 0,
			ParametricHighlightSplit = 75,
			ParametricHighlights = 0,
			ParametricLights = 0,
			ParametricMidtoneSplit = 50,
			ParametricShadowSplit = 25,
			ParametricShadows = 0,
			PostCropVignetteAmount = 0,
			PostCropVignetteFeather = 50,
			PostCropVignetteHighlightContrast = 0,
			PostCropVignetteMidpoint = 50,
			PostCropVignetteRoundness = 0,
			PostCropVignetteStyle = 1,
			ProcessVersion = "6.7",
			RedHue = 0,
			RedSaturation = 0,
			ShadowTint = 0,
			Shadows2012 = 32,
			SharpenDetail = 25,
			SharpenEdgeMasking = 0,
			SharpenRadius = 1,
			Sharpness = 0,
			SplitToningBalance = 0,
			SplitToningHighlightHue = 0,
			SplitToningHighlightSaturation = 0,
			SplitToningShadowHue = 0,
			SplitToningShadowSaturation = 0,
			ToneCurveName2012 = "Custom",
			ToneCurvePV2012 = {
				0,
				6,
				90,
				57,
				160,
				174,
				255,
				244,
			},
			ToneCurvePV2012Blue = {
				0,
				0,
				255,
				255,
			},
			ToneCurvePV2012Green = {
				0,
				0,
				255,
				255,
			},
			ToneCurvePV2012Red = {
				0,
				0,
				255,
				255,
			},
			Whites2012 = 0,
		},
		uuid = "C0AAB700-08C0-4222-A99E-01AF45D0C96B",
	},
	version = 0,
}
