CM 1000+ Lightroom Preset Pack 317985/B & W Collection (64)/B & W Preset (56).lrtemplate
s = {
	id = "F54BD8B7-3F13-4F18-84DC-2A5F39F77468",
	internalName = "bw 06",
	title = "bw 06",
	type = "Develop",
	value = {
		settings = {
			AutoLateralCA = 1,
			Blacks2012 = -24,
			BlueHue = 1,
			BlueSaturation = 66,
			CameraProfile = "Adobe Standard",
			ChromaticAberrationB = 0,
			ChromaticAberrationR = 0,
			Clarity2012 = -3,
			ColorNoiseReduction = 25,
			ColorNoiseReductionDetail = 50,
			ColorNoiseReductionSmoothness = 50,
			Contrast2012 = 0,
			ConvertToGrayscale = true,
			Defringe = 2,
			DefringeGreenAmount = 3,
			DefringeGreenHueHi = 70,
			DefringeGreenHueLo = 40,
			DefringePurpleAmount = 3,
			DefringePurpleHueHi = 70,
			DefringePurpleHueLo = 30,
			EnableCalibration = true,
			EnableDetail = true,
			EnableEffects = true,
			EnableGrayscaleMix = true,
			EnableLensCorrections = true,
			EnableSplitToning = true,
			Exposure2012 = 0,
			GrainAmount = 0,
			GrainFrequency = 60,
			GrainSize = 40,
			GrayMixerAqua = 35,
			GrayMixerBlue = 19,
			GrayMixerGreen = -72,
			GrayMixerMagenta = 30,
			GrayMixerOrange = 0,
			GrayMixerPurple = 25,
			GrayMixerRed = 60,
			GrayMixerYellow = 5,
			GreenHue = 79,
			GreenSaturation = 45,
			Highlights2012 = 31,
			LensProfileEnable = 0,
			LensProfileSetup = "LensDefaults",
			LuminanceNoiseReductionContrast = 0,
			LuminanceNoiseReductionDetail = 50,
			LuminanceSmoothing = 0,
			ParametricDarks = 0,
			ParametricHighlightSplit = 75,
			ParametricHighlights = 0,
			ParametricLights = 0,
			ParametricMidtoneSplit = 50,
			ParametricShadowSplit = 25,
			ParametricShadows = 0,
			PostCropVignetteAmount = 0,
			PostCropVignetteFeather = 50,
			PostCropVignetteHighlightContrast = 0,
			PostCropVignetteMidpoint = 50,
			PostCropVignetteRoundness = 0,
			PostCropVignetteStyle = 1,
			ProcessVersion = "6.7",
			RedHue = 54,
			RedSaturation = -3,
			ShadowTint = 0,
			Shadows2012 = 89,
			SharpenDetail = 40,
			SharpenEdgeMasking = 30,
			SharpenRadius = 1.5,
			Sharpness = 60,
			SplitToningBalance = 0,
			SplitToningHighlightHue = 246,
			SplitToningHighlightSaturation = 11,
			SplitToningShadowHue = 333,
			SplitToningShadowSaturation = 7,
			ToneCurveName2012 = "Custom",
			ToneCurvePV2012 = {
				0,
				3,
				33,
				21,
				63,
				57,
				128,
				128,
				192,
				196,
				255,
				233,
			},
			ToneCurvePV2012Blue = {
				0,
				0,
				255,
				255,
			},
			ToneCurvePV2012Green = {
				0,
				0,
				255,
				255,
			},
			ToneCurvePV2012Red = {
				0,
				0,
				255,
				255,
			},
			VignetteAmount = -62,
			VignetteMidpoint = 29,
			WhiteBalance = "As Shot",
			Whites2012 = 0,
		},
		uuid = "6BB65642-31DD-4C80-8479-361C0CA96FB6",
	},
	version = 0,
}
