CM 1000+ Lightroom Preset Pack 317985/B & W Collection (64)/B & W Preset (51).lrtemplate
s = {
	id = "EAEDA024-2D91-48C7-8146-969CE6F4E71F",
	internalName = "bw 01",
	title = "bw 01",
	type = "Develop",
	value = {
		settings = {
			AutoLateralCA = 1,
			Blacks2012 = -75,
			BlueHue = -39,
			BlueSaturation = -35,
			CameraProfile = "Adobe Standard",
			ChromaticAberrationB = 0,
			ChromaticAberrationR = 0,
			Clarity2012 = 35,
			ColorNoiseReduction = 25,
			ColorNoiseReductionDetail = 50,
			ColorNoiseReductionSmoothness = 50,
			Contrast2012 = 52,
			ConvertToGrayscale = true,
			Defringe = 2,
			DefringeGreenAmount = 3,
			DefringeGreenHueHi = 70,
			DefringeGreenHueLo = 40,
			DefringePurpleAmount = 3,
			DefringePurpleHueHi = 70,
			DefringePurpleHueLo = 30,
			EnableCalibration = true,
			EnableDetail = true,
			EnableEffects = true,
			EnableGrayscaleMix = true,
			EnableLensCorrections = true,
			EnableSplitToning = true,
			Exposure2012 = 0.26,
			GrainAmount = 0,
			GrainFrequency = 100,
			GrainSize = 15,
			GrayMixerAqua = -80,
			GrayMixerBlue = -60,
			GrayMixerGreen = -25,
			GrayMixerMagenta = 9,
			GrayMixerOrange = -10,
			GrayMixerPurple = -3,
			GrayMixerRed = 21,
			GrayMixerYellow = -21,
			GreenHue = 56,
			GreenSaturation = 25,
			Highlights2012 = -14,
			LensProfileEnable = 0,
			LensProfileSetup = "LensDefaults",
			LuminanceNoiseReductionContrast = 0,
			LuminanceNoiseReductionDetail = 50,
			LuminanceSmoothing = 0,
			ParametricDarks = 0,
			ParametricHighlightSplit = 75,
			ParametricHighlights = 0,
			ParametricLights = 0,
			ParametricMidtoneSplit = 60,
			ParametricShadowSplit = 14,
			ParametricShadows = 0,
			PostCropVignetteAmount = 0,
			PostCropVignetteFeather = 50,
			PostCropVignetteHighlightContrast = 0,
			PostCropVignetteMidpoint = 50,
			PostCropVignetteRoundness = 0,
			PostCropVignetteStyle = 1,
			ProcessVersion = "6.7",
			RedHue = 33,
			RedSaturation = -25,
			ShadowTint = 0,
			Shadows2012 = 35,
			SharpenDetail = 40,
			SharpenEdgeMasking = 30,
			SharpenRadius = 1.5,
			Sharpness = 71,
			SplitToningBalance = 49,
			SplitToningHighlightHue = 49,
			SplitToningHighlightSaturation = 5,
			SplitToningShadowHue = 250,
			SplitToningShadowSaturation = 6,
			ToneCurveName2012 = "Custom",
			ToneCurvePV2012 = {
				0,
				19,
				82,
				85,
				184,
				190,
				255,
				221,
			},
			ToneCurvePV2012Blue = {
				0,
				0,
				255,
				255,
			},
			ToneCurvePV2012Green = {
				0,
				0,
				255,
				255,
			},
			ToneCurvePV2012Red = {
				0,
				0,
				255,
				255,
			},
			VignetteAmount = -77,
			VignetteMidpoint = 34,
			WhiteBalance = "As Shot",
			Whites2012 = -22,
		},
		uuid = "2ECA041A-4A75-4E39-8413-7110B44C31FF",
	},
	version = 0,
}
