CM 1000+ Lightroom Preset Pack 317985/B & W Collection (64)/B & W Preset (44).lrtemplate
s = {
	id = "0F6634A0-3C6A-474A-82D4-8C617073A80C",
	internalName = "15_B&W_(portrait 2)",
	title = "15_B&W_(portrait 2)",
	type = "Develop",
	value = {
		settings = {
			AutoLateralCA = 0,
			Blacks2012 = 31,
			BlueHue = 34,
			BlueSaturation = 62,
			CameraProfile = "Embedded",
			ChromaticAberrationB = 0,
			ChromaticAberrationR = 0,
			Clarity2012 = 0,
			ColorNoiseReduction = 0,
			ColorNoiseReductionDetail = 50,
			ColorNoiseReductionSmoothness = 50,
			Contrast2012 = 0,
			ConvertToGrayscale = true,
			CropConstrainToWarp = 0,
			Defringe = 0,
			DefringeGreenAmount = 0,
			DefringeGreenHueHi = 60,
			DefringeGreenHueLo = 40,
			DefringePurpleAmount = 0,
			DefringePurpleHueHi = 70,
			DefringePurpleHueLo = 30,
			EnableCalibration = true,
			EnableDetail = true,
			EnableEffects = true,
			EnableGrayscaleMix = true,
			EnableLensCorrections = true,
			EnableSplitToning = true,
			Exposure2012 = 0,
			GrainAmount = 0,
			GrainFrequency = 50,
			GrainSize = 25,
			GrayMixerAqua = -16,
			GrayMixerBlue = 57,
			GrayMixerGreen = 0,
			GrayMixerMagenta = 7,
			GrayMixerOrange = 2,
			GrayMixerPurple = 14,
			GrayMixerRed = -18,
			GrayMixerYellow = -12,
			GreenHue = 53,
			GreenSaturation = 43,
			Highlights2012 = -21,
			IncrementalTemperature = 11,
			IncrementalTint = 0,
			LensManualDistortionAmount = 0,
			LensProfileEnable = 0,
			LensProfileSetup = "LensDefaults",
			LuminanceNoiseReductionContrast = 0,
			LuminanceNoiseReductionDetail = 50,
			LuminanceSmoothing = 0,
			ParametricDarks = 0,
			ParametricHighlightSplit = 75,
			ParametricHighlights = 0,
			ParametricLights = 0,
			ParametricMidtoneSplit = 50,
			ParametricShadowSplit = 25,
			ParametricShadows = 0,
			PerspectiveAspect = 0,
			PerspectiveHorizontal = 0,
			PerspectiveRotate = 0,
			PerspectiveScale = 100,
			PerspectiveUpright = 0,
			PerspectiveVertical = 0,
			PostCropVignetteAmount = -55,
			PostCropVignetteFeather = 64,
			PostCropVignetteHighlightContrast = 0,
			PostCropVignetteMidpoint = 33,
			PostCropVignetteRoundness = -22,
			PostCropVignetteStyle = 1,
			ProcessVersion = "6.7",
			RedHue = 0,
			RedSaturation = 65,
			ShadowTint = 0,
			Shadows2012 = -9,
			SharpenDetail = 25,
			SharpenEdgeMasking = 48,
			SharpenRadius = 1.5,
			Sharpness = 80,
			SplitToningBalance = 0,
			SplitToningHighlightHue = 0,
			SplitToningHighlightSaturation = 0,
			SplitToningShadowHue = 0,
			SplitToningShadowSaturation = 0,
			ToneCurveName2012 = "Custom",
			ToneCurvePV2012 = {
				0,
				13,
				85,
				71,
				178,
				184,
				255,
				234,
			},
			ToneCurvePV2012Blue = {
				0,
				0,
				255,
				255,
			},
			ToneCurvePV2012Green = {
				0,
				0,
				255,
				255,
			},
			ToneCurvePV2012Red = {
				0,
				0,
				255,
				255,
			},
			VignetteAmount = 0,
			VignetteMidpoint = 50,
			WhiteBalance = "Custom",
			Whites2012 = 23,
			orientation = "AB",
		},
		uuid = "B89F6AD3-EE0C-422C-92B8-A504F4338245",
	},
	version = 0,
}
