CM 1000+ Lightroom Preset Pack 317985/B & W Collection (64)/B & W Preset (34).lrtemplate
s = {
	id = "29F55374-F966-4552-AC35-F686EC8BB95B",
	internalName = "10__Film B&W Lightroom Presets_Low Contrast_4",
	title = "10__Film B&W Lightroom Presets_Low Contrast_4",
	type = "Develop",
	value = {
		settings = {
			Blacks2012 = 0,
			BlueHue = -60,
			BlueSaturation = 0,
			CameraProfile = "Embedded",
			Clarity2012 = -11,
			ColorNoiseReduction = 0,
			ColorNoiseReductionDetail = 50,
			ColorNoiseReductionSmoothness = 50,
			Contrast2012 = 29,
			ConvertToGrayscale = true,
			EnableCalibration = true,
			EnableDetail = true,
			EnableEffects = true,
			EnableGrayscaleMix = true,
			EnableSplitToning = true,
			GrainAmount = 0,
			GrainFrequency = 50,
			GrainSize = 25,
			GrayMixerAqua = -19,
			GrayMixerBlue = 8,
			GrayMixerGreen = -26,
			GrayMixerMagenta = 5,
			GrayMixerOrange = -17,
			GrayMixerPurple = 15,
			GrayMixerRed = -8,
			GrayMixerYellow = -21,
			GreenHue = 60,
			GreenSaturation = 0,
			Highlights2012 = -10,
			LuminanceNoiseReductionContrast = 0,
			LuminanceNoiseReductionDetail = 50,
			LuminanceSmoothing = 0,
			ParametricDarks = 0,
			ParametricHighlightSplit = 75,
			ParametricHighlights = 0,
			ParametricLights = 0,
			ParametricMidtoneSplit = 50,
			ParametricShadowSplit = 25,
			ParametricShadows = 0,
			PostCropVignetteAmount = 0,
			PostCropVignetteFeather = 50,
			PostCropVignetteHighlightContrast = 0,
			PostCropVignetteMidpoint = 50,
			PostCropVignetteRoundness = 0,
			PostCropVignetteStyle = 1,
			ProcessVersion = "6.7",
			RedHue = 0,
			RedSaturation = 0,
			ShadowTint = 0,
			Shadows2012 = 61,
			SharpenDetail = 25,
			SharpenEdgeMasking = 0,
			SharpenRadius = 1,
			Sharpness = 0,
			SplitToningBalance = 0,
			SplitToningHighlightHue = 0,
			SplitToningHighlightSaturation = 0,
			SplitToningShadowHue = 0,
			SplitToningShadowSaturation = 0,
			ToneCurveName2012 = "Custom",
			ToneCurvePV2012 = {
				0,
				60,
				73,
				67,
				166,
				189,
				252,
				204,
			},
			ToneCurvePV2012Blue = {
				0,
				0,
				255,
				255,
			},
			ToneCurvePV2012Green = {
				0,
				0,
				255,
				255,
			},
			ToneCurvePV2012Red = {
				0,
				0,
				255,
				255,
			},
			Whites2012 = 24,
		},
		uuid = "3EBB1E5D-28AE-44FB-9B63-2CB0668E5497",
	},
	version = 0,
}
