1100 Lightroom Presets/CM 1100+ Lightroom Presets 320973/20 Painting Presets V-1/P Horror Look.lrtemplate
s = {
	id = "1B55FFAF-D0BB-4D3D-9E11-72187ADCE825",
	internalName = "P Horror Look",
	title = "P Horror Look",
	type = "Develop",
	value = {
		settings = {
			AutoBrightness = false,
			AutoContrast = false,
			AutoExposure = false,
			AutoLateralCA = 0,
			AutoShadows = false,
			BlueHue = -78,
			BlueSaturation = 0,
			Brightness = 0,
			CameraProfile = "Embedded",
			ChromaticAberrationB = 0,
			ChromaticAberrationR = 0,
			Clarity = 0,
			ColorNoiseReduction = 0,
			ColorNoiseReductionDetail = 50,
			ColorNoiseReductionSmoothness = 50,
			Contrast = 0,
			ConvertToGrayscale = false,
			CropConstrainToWarp = 0,
			Defringe = 0,
			DefringeGreenAmount = 0,
			DefringeGreenHueHi = 60,
			DefringeGreenHueLo = 40,
			DefringePurpleAmount = 0,
			DefringePurpleHueHi = 70,
			DefringePurpleHueLo = 30,
			EnableCalibration = true,
			EnableCircularGradientBasedCorrections = true,
			EnableColorAdjustments = false,
			EnableDetail = true,
			EnableEffects = false,
			EnableGradientBasedCorrections = true,
			EnableLensCorrections = true,
			EnableSplitToning = true,
			Exposure = 0,
			FillLight = 0,
			GrainAmount = 73,
			GrainFrequency = 89,
			GrainSize = 94,
			GreenHue = 95,
			GreenSaturation = 90,
			HighlightRecovery = 0,
			HueAdjustmentAqua = 100,
			HueAdjustmentBlue = 0,
			HueAdjustmentGreen = -52,
			HueAdjustmentMagenta = -73,
			HueAdjustmentOrange = 98,
			HueAdjustmentPurple = 0,
			HueAdjustmentRed = 0,
			HueAdjustmentYellow = 0,
			IncrementalTemperature = 0,
			IncrementalTint = -20,
			LensManualDistortionAmount = 0,
			LensProfileEnable = 0,
			LensProfileSetup = "LensDefaults",
			LuminanceAdjustmentAqua = 80,
			LuminanceAdjustmentBlue = 0,
			LuminanceAdjustmentGreen = -86,
			LuminanceAdjustmentMagenta = -95,
			LuminanceAdjustmentOrange = 68,
			LuminanceAdjustmentPurple = 0,
			LuminanceAdjustmentRed = 0,
			LuminanceAdjustmentYellow = 0,
			LuminanceNoiseReductionContrast = 0,
			LuminanceNoiseReductionDetail = 50,
			LuminanceSmoothing = 0,
			ParametricDarks = 54,
			ParametricHighlightSplit = 75,
			ParametricHighlights = 26,
			ParametricLights = -62,
			ParametricMidtoneSplit = 50,
			ParametricShadowSplit = 25,
			ParametricShadows = -58,
			PerspectiveAspect = 0,
			PerspectiveHorizontal = 0,
			PerspectiveRotate = 0,
			PerspectiveScale = 100,
			PerspectiveUpright = 0,
			PerspectiveVertical = 0,
			PostCropVignetteAmount = 22,
			PostCropVignetteFeather = 100,
			PostCropVignetteHighlightContrast = 0,
			PostCropVignetteMidpoint = 35,
			PostCropVignetteRoundness = 51,
			PostCropVignetteStyle = 1,
			ProcessVersion = "5.0",
			RedHue = 73,
			RedSaturation = -100,
			Saturation = 7,
			SaturationAdjustmentAqua = -86,
			SaturationAdjustmentBlue = 0,
			SaturationAdjustmentGreen = 68,
			SaturationAdjustmentMagenta = 75,
			SaturationAdjustmentOrange = -86,
			SaturationAdjustmentPurple = 0,
			SaturationAdjustmentRed = 0,
			SaturationAdjustmentYellow = 0,
			ShadowTint = 10,
			Shadows = 0,
			SharpenDetail = 25,
			SharpenEdgeMasking = 0,
			SharpenRadius = 1,
			Sharpness = 0,
			SplitToningBalance = 0,
			SplitToningHighlightHue = 355,
			SplitToningHighlightSaturation = 25,
			SplitToningShadowHue = 3,
			SplitToningShadowSaturation = 41,
			ToneCurve = {
				0,
				0,
				255,
				255,
			},
			ToneCurveName = "Linear",
			Vibrance = 7,
			VignetteAmount = 0,
			VignetteMidpoint = 50,
			WhiteBalance = "Custom",
			orientation = "AB",
		},
		uuid = "79E6A662-A611-4F53-893E-D874F20D23FE",
	},
	version = 0,
}
