Pro/Nắng chiều belarus-nắng to-anphamphotography.lrtemplate
s = {
	id = "9B38CEB8-5A13-43FD-819A-74F61296457C",
	internalName = "Nắng chiều belarus-nắng to-anphamphotography",
	title = "Nắng chiều belarus-nắng to-anphamphotography",
	type = "Develop",
	value = {
		settings = {
			AutoBrightness = false,
			AutoContrast = false,
			AutoExposure = false,
			AutoShadows = false,
			BlueHue = 0,
			BlueSaturation = 76,
			Brightness = 6,
			CameraProfile = "Embedded",
			Clarity = 0,
			ColorNoiseReduction = 100,
			ColorNoiseReductionDetail = 50,
			Contrast = 2,
			ConvertToGrayscale = false,
			EnableCalibration = true,
			EnableColorAdjustments = true,
			EnableDetail = true,
			EnableEffects = true,
			EnableGradientBasedCorrections = true,
			EnableSplitToning = true,
			Exposure = 0,
			FillLight = 0,
			GradientBasedCorrections = {
				{
					CorrectionActive = true,
					CorrectionAmount = 1,
					CorrectionID = "058F9EFB-A907-4232-8DFC-F96D0CC204BC",
					CorrectionMasks = {
						{
							FullX = 0.746212,
							FullY = 1.23219,
							MaskID = "931117A4-9E81-47E9-9E94-D43086EF2A6E",
							MaskValue = 1,
							What = "Mask/Gradient",
							ZeroX = 0.452648,
							ZeroY = 0.314972,
						},
					},
					CorrectionReferenceX = 0.59943,
					CorrectionReferenceY = 0.773581,
					LocalBrightness = 0,
					LocalClarity = 0,
					LocalContrast = 0,
					LocalExposure = 0.25,
					LocalSaturation = 0,
					LocalSharpness = 0,
					LocalToningHue = 50,
					LocalToningSaturation = 1,
					What = "Correction",
				},
			},
			GrainAmount = 0,
			GrainFrequency = 50,
			GrainSize = 25,
			GreenHue = 30,
			GreenSaturation = 25,
			HighlightRecovery = 3,
			HueAdjustmentAqua = -22,
			HueAdjustmentBlue = -9,
			HueAdjustmentGreen = -84,
			HueAdjustmentMagenta = 65,
			HueAdjustmentOrange = 10,
			HueAdjustmentPurple = -20,
			HueAdjustmentRed = 40,
			HueAdjustmentYellow = -57,
			IncrementalTemperature = 6,
			IncrementalTint = -3,
			LuminanceAdjustmentAqua = 0,
			LuminanceAdjustmentBlue = 0,
			LuminanceAdjustmentGreen = 30,
			LuminanceAdjustmentMagenta = 0,
			LuminanceAdjustmentOrange = 10,
			LuminanceAdjustmentPurple = 0,
			LuminanceAdjustmentRed = 15,
			LuminanceAdjustmentYellow = -18,
			LuminanceNoiseReductionContrast = 0,
			LuminanceNoiseReductionDetail = 50,
			LuminanceSmoothing = 15,
			ParametricDarks = 10,
			ParametricHighlightSplit = 75,
			ParametricHighlights = -39,
			ParametricLights = 0,
			ParametricMidtoneSplit = 50,
			ParametricShadowSplit = 25,
			ParametricShadows = -40,
			PostCropVignetteAmount = -24,
			PostCropVignetteFeather = 50,
			PostCropVignetteHighlightContrast = 0,
			PostCropVignetteMidpoint = 47,
			PostCropVignetteRoundness = 0,
			PostCropVignetteStyle = 1,
			ProcessVersion = "5.7",
			RedHue = 0,
			RedSaturation = 0,
			Saturation = -3,
			SaturationAdjustmentAqua = -40,
			SaturationAdjustmentBlue = -40,
			SaturationAdjustmentGreen = -82,
			SaturationAdjustmentMagenta = -30,
			SaturationAdjustmentOrange = -10,
			SaturationAdjustmentPurple = -30,
			SaturationAdjustmentRed = 9,
			SaturationAdjustmentYellow = -9,
			ShadowTint = 100,
			Shadows = 12,
			SharpenDetail = 50,
			SharpenEdgeMasking = 0,
			SharpenRadius = 1,
			Sharpness = 50,
			SplitToningBalance = 40,
			SplitToningHighlightHue = 50,
			SplitToningHighlightSaturation = 8,
			SplitToningShadowHue = 266,
			SplitToningShadowSaturation = 20,
			ToneCurve = {
				0,
				0,
				255,
				255,
			},
			ToneCurveName = "Linear",
			Vibrance = 40,
			WhiteBalance = "Custom",
			orientation = "DA",
		},
		uuid = "4DD5C1F4-97A2-4664-8FFE-FF4F3CD3D962",
	},
	version = 0,
}
