Morgan Burks Immersion Lightroom Presets/Infusion Presets for LR 5/MB Infusion Presets for LR/Infusion LR5 Presets/BW - Deep Clear.lrtemplate
s = {
	id = "EC90DD23-9B40-4887-80C1-974A7FF51240",
	internalName = "Deep Clear BW",
	title = "BW - Deep Clear",
	type = "Develop",
	value = {
		settings = {
			Clarity2012 = 100,
			ConvertToGrayscale = false,
			ParametricDarks = 0,
			ParametricHighlightSplit = 75,
			ParametricHighlights = 0,
			ParametricLights = 0,
			ParametricMidtoneSplit = 50,
			ParametricShadowSplit = 25,
			ParametricShadows = 0,
			ProcessVersion = "6.7",
			Saturation = -100,
			ToneCurveName2012 = "Custom",
			ToneCurvePV2012 = {
				43,
				27,
				133,
				127,
				255,
				197,
			},
			ToneCurvePV2012Blue = {
				0,
				0,
				255,
				255,
			},
			ToneCurvePV2012Green = {
				0,
				0,
				255,
				255,
			},
			ToneCurvePV2012Red = {
				0,
				0,
				255,
				255,
			},
		},
		uuid = "F542547A-654D-4211-BC73-C3D5C502B3BD",
	},
	version = 0,
}
