Morgan Burks Immersion Lightroom Presets/Infusion Presets for LR 5/MB Infusion Presets for LR/Infusion LR5 Presets/Matte - Super Subtle.lrtemplate
s = {
	id = "1D61CE24-FEAB-4A50-980C-9821A224353A",
	internalName = "Subtle Matte",
	title = "Matte - Super Subtle",
	type = "Develop",
	value = {
		settings = {
			ParametricDarks = 0,
			ParametricHighlightSplit = 75,
			ParametricHighlights = 0,
			ParametricLights = 0,
			ParametricMidtoneSplit = 50,
			ParametricShadowSplit = 25,
			ParametricShadows = 0,
			ProcessVersion = "6.7",
			ToneCurveName2012 = "Custom",
			ToneCurvePV2012 = {
				26,
				32,
				174,
				175,
				255,
				233,
			},
			ToneCurvePV2012Blue = {
				0,
				0,
				255,
				255,
			},
			ToneCurvePV2012Green = {
				0,
				0,
				255,
				255,
			},
			ToneCurvePV2012Red = {
				0,
				0,
				255,
				255,
			},
		},
		uuid = "4CCDED46-E2CE-46E3-94F3-D3D1309F43BC",
	},
	version = 0,
}
