CM The Ultimate Lightroom Preset Bundle 317028/Ultimate Sleeklens lightroom presets/wedding/Wedding-BrightSunny1.lrtemplate
s = {
	id = "CE32B6F8-A3DB-48A3-B6BA-567B8BAC29EE",
	internalName = "Wedding-BrightSunny1",
	title = "Wedding-BrightSunny1",
	type = "Develop",
	value = {
		settings = {
			AutoLateralCA = 0,
			Blacks2012 = 36,
			BlueHue = 0,
			BlueSaturation = 0,
			CameraProfile = "Adobe Standard",
			ChromaticAberrationB = 0,
			ChromaticAberrationR = 0,
			Clarity2012 = 53,
			ColorNoiseReduction = 25,
			ColorNoiseReductionDetail = 50,
			ColorNoiseReductionSmoothness = 50,
			Contrast2012 = -51,
			ConvertToGrayscale = false,
			Defringe = 0,
			DefringeGreenAmount = 0,
			DefringeGreenHueHi = 60,
			DefringeGreenHueLo = 40,
			DefringePurpleAmount = 0,
			DefringePurpleHueHi = 70,
			DefringePurpleHueLo = 30,
			EnableCalibration = true,
			EnableColorAdjustments = true,
			EnableDetail = true,
			EnableEffects = true,
			EnableLensCorrections = true,
			EnableSplitToning = true,
			Exposure2012 = 1.8,
			GreenHue = 0,
			GreenSaturation = 0,
			Highlights2012 = -69,
			HueAdjustmentAqua = -25,
			HueAdjustmentBlue = -16,
			HueAdjustmentGreen = 19,
			HueAdjustmentMagenta = 0,
			HueAdjustmentOrange = 0,
			HueAdjustmentPurple = 0,
			HueAdjustmentRed = 0,
			HueAdjustmentYellow = -16,
			LensProfileEnable = 0,
			LensProfileSetup = "LensDefaults",
			LuminanceAdjustmentAqua = 0,
			LuminanceAdjustmentBlue = 0,
			LuminanceAdjustmentGreen = 0,
			LuminanceAdjustmentMagenta = 0,
			LuminanceAdjustmentOrange = 21,
			LuminanceAdjustmentPurple = 0,
			LuminanceAdjustmentRed = 0,
			LuminanceAdjustmentYellow = 0,
			LuminanceNoiseReductionContrast = 0,
			LuminanceNoiseReductionDetail = 50,
			LuminanceSmoothing = 19,
			ParametricDarks = 33,
			ParametricHighlightSplit = 75,
			ParametricHighlights = -18,
			ParametricLights = -10,
			ParametricMidtoneSplit = 50,
			ParametricShadowSplit = 25,
			ParametricShadows = -50,
			PerspectiveUpright = 0,
			PostCropVignetteAmount = -10,
			PostCropVignetteFeather = 64,
			PostCropVignetteHighlightContrast = 0,
			PostCropVignetteMidpoint = 16,
			PostCropVignetteRoundness = 0,
			PostCropVignetteStyle = 1,
			ProcessVersion = "6.7",
			RedHue = 0,
			RedSaturation = 0,
			Saturation = 7,
			SaturationAdjustmentAqua = 0,
			SaturationAdjustmentBlue = 0,
			SaturationAdjustmentGreen = 0,
			SaturationAdjustmentMagenta = 0,
			SaturationAdjustmentOrange = 0,
			SaturationAdjustmentPurple = 0,
			SaturationAdjustmentRed = 0,
			SaturationAdjustmentYellow = 0,
			ShadowTint = 0,
			Shadows2012 = 42,
			SharpenDetail = 39,
			SharpenEdgeMasking = 0,
			SharpenRadius = 0.9,
			Sharpness = 42,
			SplitToningBalance = -83,
			SplitToningHighlightHue = 208,
			SplitToningHighlightSaturation = 18,
			SplitToningShadowHue = 54,
			SplitToningShadowSaturation = 21,
			Temperature = 6533,
			Tint = 26,
			ToneCurveName2012 = "Linear",
			ToneCurvePV2012 = {
				0,
				0,
				255,
				255,
			},
			ToneCurvePV2012Blue = {
				0,
				0,
				255,
				255,
			},
			ToneCurvePV2012Green = {
				0,
				0,
				255,
				255,
			},
			ToneCurvePV2012Red = {
				0,
				0,
				255,
				255,
			},
			Vibrance = 45,
			VignetteAmount = 0,
			VignetteMidpoint = 50,
			WhiteBalance = "Custom",
			Whites2012 = -16,
		},
		uuid = "EDCA1001-8B72-4AF5-ACB8-8130D74EF061",
	},
	version = 0,
}
