CM The Ultimate Lightroom Preset Bundle 317028/Ultimate Sleeklens lightroom presets/wedding/Wedding-B&W2.lrtemplate
s = {
	id = "5672C231-61E3-4F32-B0A4-0E3E1144AB97",
	internalName = "Wedding-B&W2",
	title = "Wedding-B&W2",
	type = "Develop",
	value = {
		settings = {
			AutoLateralCA = 0,
			BlueHue = 0,
			BlueSaturation = 0,
			CameraProfile = "Adobe Standard",
			ChromaticAberrationB = 0,
			ChromaticAberrationR = 0,
			ColorNoiseReduction = 25,
			ColorNoiseReductionDetail = 50,
			ColorNoiseReductionSmoothness = 50,
			ConvertToGrayscale = true,
			Defringe = 0,
			DefringeGreenAmount = 0,
			DefringeGreenHueHi = 60,
			DefringeGreenHueLo = 40,
			DefringePurpleAmount = 0,
			DefringePurpleHueHi = 70,
			DefringePurpleHueLo = 30,
			EnableCalibration = true,
			EnableDetail = true,
			EnableGrayscaleMix = true,
			EnableLensCorrections = true,
			GrayMixerAqua = 0,
			GrayMixerBlue = 0,
			GrayMixerGreen = 0,
			GrayMixerMagenta = 0,
			GrayMixerOrange = 0,
			GrayMixerPurple = 0,
			GrayMixerRed = 0,
			GrayMixerYellow = 0,
			GreenHue = 0,
			GreenSaturation = 0,
			LensProfileEnable = 0,
			LensProfileSetup = "LensDefaults",
			LuminanceNoiseReductionContrast = 0,
			LuminanceNoiseReductionDetail = 50,
			LuminanceSmoothing = 0,
			ParametricDarks = 77,
			ParametricHighlightSplit = 88,
			ParametricHighlights = -72,
			ParametricLights = -39,
			ParametricMidtoneSplit = 52,
			ParametricShadowSplit = 15,
			ParametricShadows = 94,
			PerspectiveUpright = 0,
			ProcessVersion = "6.7",
			RedHue = 0,
			RedSaturation = 0,
			ShadowTint = 0,
			ToneCurveName2012 = "Linear",
			ToneCurvePV2012 = {
				0,
				0,
				255,
				255,
			},
			ToneCurvePV2012Blue = {
				0,
				0,
				255,
				255,
			},
			ToneCurvePV2012Green = {
				0,
				0,
				255,
				255,
			},
			ToneCurvePV2012Red = {
				0,
				0,
				255,
				255,
			},
			VignetteAmount = -22,
			VignetteMidpoint = 31,
		},
		uuid = "56600CCA-8DEC-423D-A386-56F2165E2280",
	},
	version = 0,
}
