100-Landscape-Lightroom-Presets/Presets/Landscape Effect 61.lrtemplate
s = {
	id = "A0215573-3D6E-43F7-B09D-F8C42FCB07E4",
	internalName = "Landscape Effect 61",
	title = "Landscape Effect 61",
	type = "Develop",
	value = {
		settings = {
			AutoLateralCA = 0,
			Blacks2012 = 36,
			BlueHue = 0,
			BlueSaturation = 0,
			CameraProfile = "Embedded",
			ChromaticAberrationB = 0,
			ChromaticAberrationR = 0,
			Clarity2012 = 24,
			ColorNoiseReduction = 0,
			ColorNoiseReductionDetail = 50,
			ColorNoiseReductionSmoothness = 50,
			Contrast2012 = 17,
			ConvertToGrayscale = true,
			CropConstrainToWarp = 0,
			Defringe = 0,
			DefringeGreenAmount = 0,
			DefringeGreenHueHi = 60,
			DefringeGreenHueLo = 40,
			DefringePurpleAmount = 0,
			DefringePurpleHueHi = 70,
			DefringePurpleHueLo = 30,
			EnableCalibration = true,
			EnableCircularGradientBasedCorrections = true,
			EnableDetail = true,
			EnableEffects = true,
			EnableGradientBasedCorrections = true,
			EnableGrayscaleMix = true,
			EnableLensCorrections = true,
			EnableSplitToning = true,
			Exposure2012 = 0,
			GradientBasedCorrections = {
				{
					CorrectionActive = true,
					CorrectionAmount = 1,
					CorrectionID = "BF104C31-D5CC-4E0C-9538-8877BF323438",
					CorrectionMasks = {
						{
							FullX = 0.600365,
							FullY = 0.364384,
							MaskID = "098D09B4-46F6-459D-8F6C-4D522644ADB0",
							MaskValue = 1,
							What = "Mask/Gradient",
							ZeroX = -0.277372,
							ZeroY = 1.20274,
						},
					},
					CorrectionReferenceX = 0.161497,
					CorrectionReferenceY = 0.783562,
					LocalBrightness = 0,
					LocalClarity = 0,
					LocalClarity2012 = 0.67059,
					LocalContrast = 0,
					LocalContrast2012 = 0,
					LocalExposure = 0.25,
					LocalExposure2012 = 0,
					LocalHighlights2012 = 0,
					LocalLuminanceNoise = 0,
					LocalMoire = 0,
					LocalSaturation = 0,
					LocalShadows2012 = 1,
					LocalSharpness = 0,
					LocalTemperature = 0,
					LocalTint = 0,
					LocalToningHue = 0,
					LocalToningSaturation = 0,
					What = "Correction",
				},
			},
			GrainAmount = 0,
			GrainFrequency = 50,
			GrainSize = 25,
			GrayMixerAqua = -18,
			GrayMixerBlue = 9,
			GrayMixerGreen = -27,
			GrayMixerMagenta = 3,
			GrayMixerOrange = -19,
			GrayMixerPurple = 15,
			GrayMixerRed = -10,
			GrayMixerYellow = -23,
			GreenHue = 0,
			GreenSaturation = 0,
			Highlights2012 = 52,
			IncrementalTemperature = 12,
			IncrementalTint = 0,
			LensManualDistortionAmount = 0,
			LensProfileEnable = 0,
			LensProfileSetup = "LensDefaults",
			LuminanceNoiseReductionContrast = 0,
			LuminanceNoiseReductionDetail = 50,
			LuminanceSmoothing = 0,
			ParametricDarks = 20,
			ParametricHighlightSplit = 75,
			ParametricHighlights = 0,
			ParametricLights = 1,
			ParametricMidtoneSplit = 50,
			ParametricShadowSplit = 25,
			ParametricShadows = -92,
			PerspectiveAspect = 0,
			PerspectiveHorizontal = 0,
			PerspectiveRotate = 0,
			PerspectiveScale = 100,
			PerspectiveUpright = 0,
			PerspectiveVertical = 0,
			PostCropVignetteAmount = -20,
			PostCropVignetteFeather = 50,
			PostCropVignetteHighlightContrast = 0,
			PostCropVignetteMidpoint = 50,
			PostCropVignetteRoundness = 0,
			PostCropVignetteStyle = 1,
			ProcessVersion = "6.7",
			RedHue = 38,
			RedSaturation = 0,
			ShadowTint = 10,
			Shadows2012 = 55,
			SharpenDetail = 25,
			SharpenEdgeMasking = 0,
			SharpenRadius = 1,
			Sharpness = 0,
			SplitToningBalance = 0,
			SplitToningHighlightHue = 17,
			SplitToningHighlightSaturation = 0,
			SplitToningShadowHue = 209,
			SplitToningShadowSaturation = 0,
			ToneCurveName2012 = "Custom",
			ToneCurvePV2012 = {
				0,
				27,
				140,
				102,
				255,
				255,
			},
			ToneCurvePV2012Blue = {
				0,
				0,
				255,
				255,
			},
			ToneCurvePV2012Green = {
				0,
				0,
				255,
				255,
			},
			ToneCurvePV2012Red = {
				0,
				0,
				255,
				255,
			},
			VignetteAmount = 0,
			VignetteMidpoint = 50,
			WhiteBalance = "Custom",
			Whites2012 = 2,
			orientation = "AB",
		},
		uuid = "55372CD6-F1E2-4E25-8D26-C713B76FB8B1",
	},
	version = 0,
}
