Complete Lightroom Workflow Bundle/Contrastly Complete Lightroom Workflow Bundle/Contrastly Retro & Vintage Lightroom Presets/RV Special 5.lrtemplate
s = {
	id = "10D40AA7-1C8E-46EF-9CF1-A6AD959B8CB8",
	internalName = "RV Special 5",
	title = "RV Special 5",
	type = "Develop",
	value = {
		settings = {
			AutoLateralCA = 0,
			Blacks2012 = 40,
			BlueHue = 0,
			BlueSaturation = 0,
			CameraProfile = "Embedded",
			ChromaticAberrationB = 0,
			ChromaticAberrationR = 0,
			Clarity2012 = 50,
			ColorNoiseReduction = 0,
			ColorNoiseReductionDetail = 50,
			ColorNoiseReductionSmoothness = 50,
			Contrast2012 = 40,
			ConvertToGrayscale = true,
			CropConstrainToWarp = 0,
			Defringe = 0,
			DefringeGreenAmount = 0,
			DefringeGreenHueHi = 60,
			DefringeGreenHueLo = 40,
			DefringePurpleAmount = 0,
			DefringePurpleHueHi = 70,
			DefringePurpleHueLo = 30,
			EnableCalibration = true,
			EnableCircularGradientBasedCorrections = true,
			EnableDetail = true,
			EnableEffects = true,
			EnableGradientBasedCorrections = true,
			EnableGrayscaleMix = true,
			EnableLensCorrections = true,
			EnableSplitToning = true,
			Exposure2012 = -0.8,
			GrainAmount = 20,
			GrainFrequency = 50,
			GrainSize = 25,
			GrayMixerAqua = 0,
			GrayMixerBlue = 0,
			GrayMixerGreen = 0,
			GrayMixerMagenta = 0,
			GrayMixerOrange = 0,
			GrayMixerPurple = 0,
			GrayMixerRed = 0,
			GrayMixerYellow = 0,
			GreenHue = 0,
			GreenSaturation = 0,
			Highlights2012 = 0,
			IncrementalTemperature = 76,
			IncrementalTint = 67,
			LensManualDistortionAmount = 0,
			LensProfileEnable = 0,
			LensProfileSetup = "LensDefaults",
			LuminanceNoiseReductionContrast = 0,
			LuminanceNoiseReductionDetail = 50,
			LuminanceSmoothing = 0,
			ParametricDarks = 0,
			ParametricHighlightSplit = 75,
			ParametricHighlights = 0,
			ParametricLights = 0,
			ParametricMidtoneSplit = 50,
			ParametricShadowSplit = 25,
			ParametricShadows = 0,
			PerspectiveAspect = 0,
			PerspectiveHorizontal = 0,
			PerspectiveRotate = 0,
			PerspectiveScale = 100,
			PerspectiveUpright = 0,
			PerspectiveVertical = 0,
			PostCropVignetteAmount = -41,
			PostCropVignetteFeather = 50,
			PostCropVignetteHighlightContrast = 20,
			PostCropVignetteMidpoint = 77,
			PostCropVignetteRoundness = 12,
			PostCropVignetteStyle = 2,
			ProcessVersion = "6.7",
			RedHue = 0,
			RedSaturation = 0,
			ShadowTint = 0,
			Shadows2012 = 60,
			SharpenDetail = 25,
			SharpenEdgeMasking = 0,
			SharpenRadius = 1,
			Sharpness = 0,
			SplitToningBalance = 0,
			SplitToningHighlightHue = 150,
			SplitToningHighlightSaturation = 27,
			SplitToningShadowHue = 0,
			SplitToningShadowSaturation = 0,
			ToneCurveName2012 = "Custom",
			ToneCurvePV2012 = {
				0,
				0,
				48,
				29,
				87,
				77,
				170,
				186,
				226,
				238,
				255,
				255,
			},
			ToneCurvePV2012Blue = {
				0,
				9,
				255,
				244,
			},
			ToneCurvePV2012Green = {
				0,
				0,
				255,
				255,
			},
			ToneCurvePV2012Red = {
				9,
				54,
				255,
				159,
			},
			VignetteAmount = 0,
			VignetteMidpoint = 50,
			WhiteBalance = "Custom",
			Whites2012 = 19,
			orientation = "BC",
		},
		uuid = "D8A881E1-CC94-4092-9E78-21AE066EC2EB",
	},
	version = 0,
}
