CM 1000+ Lightroom Preset Pack 317985/Wedding Collection (39)/Wedding Preset (5).lrtemplate
s = {
	id = "4AC758EC-B176-4BB0-963E-FCC9BC4B9953",
	internalName = "darki",
	title = "Dark",
	type = "Develop",
	value = {
		settings = {
			AutoLateralCA = 0,
			Blacks2012 = -4,
			BlueHue = 0,
			BlueSaturation = 0,
			CameraProfile = "Embedded",
			ChromaticAberrationB = 0,
			ChromaticAberrationR = 0,
			CircularGradientBasedCorrections = {
				{
					CorrectionActive = true,
					CorrectionAmount = 1,
					CorrectionID = "999338DF-2D9E-4604-AC7E-4A5AE9D3714C",
					CorrectionMasks = {
						{
							Angle = 0,
							Bottom = 0.69149,
							Feather = 54,
							Flipped = false,
							Left = -0.141231,
							MaskID = "EAFD9A39-9779-4F15-A1E5-3847469836AB",
							MaskValue = 1,
							Midpoint = 50,
							Right = 1.10251,
							Roundness = 0,
							Top = 0.059271,
							Version = 2,
							What = "Mask/CircularGradient",
						},
					},
					CorrectionReferenceX = 0.480637,
					CorrectionReferenceY = 0.375381,
					LocalBrightness = 0,
					LocalClarity = 0,
					LocalClarity2012 = 0.22,
					LocalContrast = 0,
					LocalContrast2012 = 0.42,
					LocalDefringe = 0,
					LocalExposure = 0,
					LocalExposure2012 = -0.34,
					LocalHighlights2012 = -0.3,
					LocalLuminanceNoise = 0,
					LocalMoire = 0,
					LocalSaturation = -0.84,
					LocalShadows2012 = -1,
					LocalSharpness = 0.12,
					LocalTemperature = 0,
					LocalTint = 0,
					LocalToningHue = 0,
					LocalToningSaturation = 0,
					What = "Correction",
				},
			},
			Clarity2012 = 19,
			ColorNoiseReduction = 0,
			ColorNoiseReductionDetail = 50,
			Contrast2012 = 77,
			ConvertToGrayscale = false,
			CropConstrainToWarp = 0,
			Defringe = 0,
			DefringeGreenAmount = 0,
			DefringeGreenHueHi = 60,
			DefringeGreenHueLo = 40,
			DefringePurpleAmount = 0,
			DefringePurpleHueHi = 70,
			DefringePurpleHueLo = 30,
			EnableCalibration = true,
			EnableCircularGradientBasedCorrections = true,
			EnableColorAdjustments = true,
			EnableDetail = true,
			EnableEffects = true,
			EnableGradientBasedCorrections = true,
			EnableLensCorrections = true,
			EnableSplitToning = true,
			Exposure2012 = 0.21,
			GrainAmount = 0,
			GrainFrequency = 50,
			GrainSize = 25,
			GreenHue = 0,
			GreenSaturation = 0,
			Highlights2012 = -21,
			HueAdjustmentAqua = -2,
			HueAdjustmentBlue = 0,
			HueAdjustmentGreen = 0,
			HueAdjustmentMagenta = 0,
			HueAdjustmentOrange = 0,
			HueAdjustmentPurple = 0,
			HueAdjustmentRed = 0,
			HueAdjustmentYellow = 0,
			LensManualDistortionAmount = 0,
			LensProfileEnable = 0,
			LensProfileSetup = "LensDefaults",
			LuminanceAdjustmentAqua = 29,
			LuminanceAdjustmentBlue = 16,
			LuminanceAdjustmentGreen = 0,
			LuminanceAdjustmentMagenta = 0,
			LuminanceAdjustmentOrange = 0,
			LuminanceAdjustmentPurple = 0,
			LuminanceAdjustmentRed = 0,
			LuminanceAdjustmentYellow = 0,
			LuminanceNoiseReductionContrast = 0,
			LuminanceNoiseReductionDetail = 50,
			LuminanceSmoothing = 0,
			ParametricDarks = 0,
			ParametricHighlightSplit = 75,
			ParametricHighlights = 0,
			ParametricLights = 0,
			ParametricMidtoneSplit = 50,
			ParametricShadowSplit = 25,
			ParametricShadows = 0,
			PerspectiveAspect = 0,
			PerspectiveHorizontal = 0,
			PerspectiveRotate = 0,
			PerspectiveScale = 100,
			PerspectiveUpright = 0,
			PerspectiveVertical = 0,
			PostCropVignetteAmount = -6,
			PostCropVignetteFeather = 100,
			PostCropVignetteHighlightContrast = 48,
			PostCropVignetteMidpoint = 44,
			PostCropVignetteRoundness = 0,
			PostCropVignetteStyle = 1,
			ProcessVersion = "6.7",
			RedHue = 0,
			RedSaturation = 0,
			Saturation = 0,
			SaturationAdjustmentAqua = 0,
			SaturationAdjustmentBlue = 4,
			SaturationAdjustmentGreen = 0,
			SaturationAdjustmentMagenta = 0,
			SaturationAdjustmentOrange = -6,
			SaturationAdjustmentPurple = 0,
			SaturationAdjustmentRed = 0,
			SaturationAdjustmentYellow = 12,
			ShadowTint = 0,
			Shadows2012 = -100,
			SharpenDetail = 25,
			SharpenEdgeMasking = 0,
			SharpenRadius = 1,
			Sharpness = 34,
			SplitToningBalance = 0,
			SplitToningHighlightHue = 204,
			SplitToningHighlightSaturation = 55,
			SplitToningShadowHue = 247,
			SplitToningShadowSaturation = 0,
			ToneCurveName2012 = "Linear",
			ToneCurvePV2012 = {
				0,
				0,
				255,
				255,
			},
			ToneCurvePV2012Blue = {
				0,
				0,
				255,
				255,
			},
			ToneCurvePV2012Green = {
				0,
				0,
				255,
				255,
			},
			ToneCurvePV2012Red = {
				0,
				0,
				255,
				255,
			},
			Vibrance = -25,
			VignetteAmount = 0,
			VignetteMidpoint = 50,
			WhiteBalance = "As Shot",
			Whites2012 = -58,
			orientation = "AB",
		},
		uuid = "2DF440DB-5A44-4602-AC21-FD603A8D5494",
	},
	version = 0,
}
