PhotoSerge Lightroom Presets Collection Vol. 1-8 Bundle (LR)_DiTim/08-Lightroom-Presets-Volume-3-Movies/PhotoSerge-Vol 3 Movies/Shades- Mint & Black Bright.lrtemplate
s = {
	id = "167EA5DD-ED46-4ACC-85B9-C12E8BF1247E",
	internalName = "Duo 17 Mint-Black",
	title = "Shades: Mint & Black Bright",
	type = "Develop",
	value = {
		settings = {
			AutoLateralCA = 1,
			Blacks2012 = -20,
			BlueHue = 0,
			BlueSaturation = 0,
			CameraProfile = "Adobe Standard",
			ChromaticAberrationB = 0,
			ChromaticAberrationR = 0,
			CircularGradientBasedCorrections = {
				{
					CorrectionActive = true,
					CorrectionAmount = 1,
					CorrectionID = "8AD7FC85-AE76-40D3-A189-DA524B6E11EA",
					CorrectionMasks = {
						{
							Angle = 29.6758,
							Bottom = 1.21869,
							Feather = 100,
							Flipped = true,
							Left = 0.516721,
							MaskID = "22EA9A32-05F9-4914-BF12-2AF77B70F2AD",
							MaskValue = 1,
							Midpoint = 50,
							Right = -0.138476,
							Roundness = 0,
							Top = -1.17104,
							Version = 2,
							What = "Mask/CircularGradient",
						},
					},
					CorrectionReferenceX = 0.189122,
					CorrectionReferenceY = 0.023825,
					LocalBrightness = 0,
					LocalClarity = 0,
					LocalClarity2012 = 0,
					LocalContrast = 0,
					LocalContrast2012 = 0,
					LocalDefringe = 0,
					LocalExposure = 0,
					LocalExposure2012 = 0.1,
					LocalHighlights2012 = 0,
					LocalLuminanceNoise = 0,
					LocalMoire = 0,
					LocalSaturation = 0,
					LocalShadows2012 = 0,
					LocalSharpness = 0,
					LocalTemperature = 0,
					LocalTint = 0,
					LocalToningHue = 0,
					LocalToningSaturation = 0,
					What = "Correction",
				},
				{
					CorrectionActive = true,
					CorrectionAmount = 1,
					CorrectionID = "11C2EFDD-191A-4BF4-8D9D-D90566F85B20",
					CorrectionMasks = {
						{
							Angle = 29.6758,
							Bottom = 2.15287,
							Feather = 100,
							Flipped = true,
							Left = 0.466689,
							MaskID = "22EA9A32-05F9-4914-BF12-2AF77B70F2AD",
							MaskValue = 1,
							Midpoint = 50,
							Right = -0.162518,
							Roundness = 0,
							Top = -0.259069,
							Version = 2,
							What = "Mask/CircularGradient",
						},
					},
					CorrectionReferenceX = 0.152086,
					CorrectionReferenceY = 0.946901,
					LocalBrightness = 0,
					LocalClarity = 0,
					LocalClarity2012 = 0,
					LocalContrast = 0,
					LocalContrast2012 = 0,
					LocalDefringe = 0,
					LocalExposure = 0,
					LocalExposure2012 = 0.1,
					LocalHighlights2012 = 0,
					LocalLuminanceNoise = 0,
					LocalMoire = 0,
					LocalSaturation = 0,
					LocalShadows2012 = 0,
					LocalSharpness = 0,
					LocalTemperature = 0,
					LocalTint = 0,
					LocalToningHue = 0,
					LocalToningSaturation = 0,
					What = "Correction",
				},
				{
					CorrectionActive = true,
					CorrectionAmount = 1,
					CorrectionID = "2880F196-B512-47F8-8C36-73C85F422EAB",
					CorrectionMasks = {
						{
							Angle = 29.6758,
							Bottom = 1.22561,
							Feather = 100,
							Flipped = true,
							Left = 0.978015,
							MaskID = "22EA9A32-05F9-4914-BF12-2AF77B70F2AD",
							MaskValue = 1,
							Midpoint = 50,
							Right = 0.329006,
							Roundness = 0,
							Top = -1.16941,
							Version = 2,
							What = "Mask/CircularGradient",
						},
					},
					CorrectionReferenceX = 0.65351,
					CorrectionReferenceY = 0.0281,
					LocalBrightness = 0,
					LocalClarity = 0,
					LocalClarity2012 = 0,
					LocalContrast = 0,
					LocalContrast2012 = 0,
					LocalDefringe = 0,
					LocalExposure = 0,
					LocalExposure2012 = 0.1,
					LocalHighlights2012 = 0,
					LocalLuminanceNoise = 0,
					LocalMoire = 0,
					LocalSaturation = 0,
					LocalShadows2012 = 0,
					LocalSharpness = 0,
					LocalTemperature = 0,
					LocalTint = 0,
					LocalToningHue = 0,
					LocalToningSaturation = 0,
					What = "Correction",
				},
				{
					CorrectionActive = true,
					CorrectionAmount = 1,
					CorrectionID = "D494A3B0-125E-44F3-8A0B-327A1BC3B37B",
					CorrectionMasks = {
						{
							Angle = 29.6758,
							Bottom = 2.15393,
							Feather = 100,
							Flipped = true,
							Left = 0.946933,
							MaskID = "22EA9A32-05F9-4914-BF12-2AF77B70F2AD",
							MaskValue = 1,
							Midpoint = 50,
							Right = 0.320202,
							Roundness = 0,
							Top = -0.260127,
							Version = 2,
							What = "Mask/CircularGradient",
						},
					},
					CorrectionReferenceX = 0.633568,
					CorrectionReferenceY = 0.946901,
					LocalBrightness = 0,
					LocalClarity = 0,
					LocalClarity2012 = 0,
					LocalContrast = 0,
					LocalContrast2012 = 0,
					LocalDefringe = 0,
					LocalExposure = 0,
					LocalExposure2012 = 0.1,
					LocalHighlights2012 = 0,
					LocalLuminanceNoise = 0,
					LocalMoire = 0,
					LocalSaturation = 0,
					LocalShadows2012 = 0,
					LocalSharpness = 0,
					LocalTemperature = 0,
					LocalTint = 0,
					LocalToningHue = 0,
					LocalToningSaturation = 0,
					What = "Correction",
				},
				{
					CorrectionActive = true,
					CorrectionAmount = 1,
					CorrectionID = "09FF3B4D-3B4C-4F17-AD78-0B3060AFDC21",
					CorrectionMasks = {
						{
							Angle = 29.6758,
							Bottom = 1.25197,
							Feather = 100,
							Flipped = true,
							Left = 1.45284,
							MaskID = "22EA9A32-05F9-4914-BF12-2AF77B70F2AD",
							MaskValue = 1,
							Midpoint = 50,
							Right = 0.885518,
							Roundness = 0,
							Top = -1.21287,
							Version = 2,
							What = "Mask/CircularGradient",
						},
					},
					CorrectionReferenceX = 1.16918,
					CorrectionReferenceY = 0.01955,
					LocalBrightness = 0,
					LocalClarity = 0,
					LocalClarity2012 = 0,
					LocalContrast = 0,
					LocalContrast2012 = 0,
					LocalDefringe = 0,
					LocalExposure = 0,
					LocalExposure2012 = 0.1,
					LocalHighlights2012 = 0,
					LocalLuminanceNoise = 0,
					LocalMoire = 0,
					LocalSaturation = 0,
					LocalShadows2012 = 0,
					LocalSharpness = 0,
					LocalTemperature = 0,
					LocalTint = 0,
					LocalToningHue = 0,
					LocalToningSaturation = 0,
					What = "Correction",
				},
				{
					CorrectionActive = true,
					CorrectionAmount = 1,
					CorrectionID = "4C16517D-FB6D-4188-A6D5-D638C9F02024",
					CorrectionMasks = {
						{
							Angle = 29.6758,
							Bottom = 2.15393,
							Feather = 100,
							Flipped = true,
							Left = 0.736107,
							MaskID = "22EA9A32-05F9-4914-BF12-2AF77B70F2AD",
							MaskValue = 1,
							Midpoint = 50,
							Right = 0.109376,
							Roundness = 0,
							Top = -0.260127,
							Version = 2,
							What = "Mask/CircularGradient",
						},
					},
					CorrectionReferenceX = 0.422741,
					CorrectionReferenceY = 0.946901,
					LocalBrightness = 0,
					LocalClarity = 0,
					LocalClarity2012 = 0,
					LocalContrast = 0,
					LocalContrast2012 = 0,
					LocalDefringe = 0,
					LocalExposure = 0,
					LocalExposure2012 = 0.1,
					LocalHighlights2012 = 0,
					LocalLuminanceNoise = 0,
					LocalMoire = 0,
					LocalSaturation = 0,
					LocalShadows2012 = 0,
					LocalSharpness = 0,
					LocalTemperature = 0,
					LocalTint = 0,
					LocalToningHue = 0,
					LocalToningSaturation = 0,
					What = "Correction",
				},
				{
					CorrectionActive = true,
					CorrectionAmount = 1,
					CorrectionID = "CFB8BD58-97C9-4F96-8A3C-A9215475369D",
					CorrectionMasks = {
						{
							Angle = 29.6758,
							Bottom = 2.09089,
							Feather = 100,
							Flipped = true,
							Left = 0.167917,
							MaskID = "22EA9A32-05F9-4914-BF12-2AF77B70F2AD",
							MaskValue = 1,
							Midpoint = 50,
							Right = -0.456338,
							Roundness = 0,
							Top = -0.325288,
							Version = 2,
							What = "Mask/CircularGradient",
						},
					},
					CorrectionReferenceX = -0.144211,
					CorrectionReferenceY = 0.882801,
					LocalBrightness = 0,
					LocalClarity = 0,
					LocalClarity2012 = 0,
					LocalContrast = 0,
					LocalContrast2012 = 0,
					LocalDefringe = 0,
					LocalExposure = 0,
					LocalExposure2012 = 0.1,
					LocalHighlights2012 = 0,
					LocalLuminanceNoise = 0,
					LocalMoire = 0,
					LocalSaturation = 0,
					LocalShadows2012 = 0,
					LocalSharpness = 0,
					LocalTemperature = 0,
					LocalTint = 0,
					LocalToningHue = 0,
					LocalToningSaturation = 0,
					What = "Correction",
				},
				{
					CorrectionActive = true,
					CorrectionAmount = 1,
					CorrectionID = "ABF91D64-1E00-42CB-93D0-05B7F3E3B580",
					CorrectionMasks = {
						{
							Angle = 29.6758,
							Bottom = 1.23619,
							Feather = 100,
							Flipped = true,
							Left = 0.751962,
							MaskID = "22EA9A32-05F9-4914-BF12-2AF77B70F2AD",
							MaskValue = 1,
							Midpoint = 50,
							Right = 0.127707,
							Roundness = 0,
							Top = -1.17999,
							Version = 2,
							What = "Mask/CircularGradient",
						},
					},
					CorrectionReferenceX = 0.439835,
					CorrectionReferenceY = 0.0281,
					LocalBrightness = 0,
					LocalClarity = 0,
					LocalClarity2012 = 0,
					LocalContrast = 0,
					LocalContrast2012 = 0,
					LocalDefringe = 0,
					LocalExposure = 0,
					LocalExposure2012 = 0.1,
					LocalHighlights2012 = 0,
					LocalLuminanceNoise = 0,
					LocalMoire = 0,
					LocalSaturation = 0,
					LocalShadows2012 = 0,
					LocalSharpness = 0,
					LocalTemperature = 0,
					LocalTint = 0,
					LocalToningHue = 0,
					LocalToningSaturation = 0,
					What = "Correction",
				},
				{
					CorrectionActive = true,
					CorrectionAmount = 1,
					CorrectionID = "C60BA3A8-867F-4F51-94F3-2064A78A07E4",
					CorrectionMasks = {
						{
							Angle = 29.6758,
							Bottom = 1.21486,
							Feather = 100,
							Flipped = true,
							Left = 1.20421,
							MaskID = "22EA9A32-05F9-4914-BF12-2AF77B70F2AD",
							MaskValue = 1,
							Midpoint = 50,
							Right = 0.570049,
							Roundness = 0,
							Top = -1.19285,
							Version = 2,
							What = "Mask/CircularGradient",
						},
					},
					CorrectionReferenceX = 0.88713,
					CorrectionReferenceY = 0.011005,
					LocalBrightness = 0,
					LocalClarity = 0,
					LocalClarity2012 = 0,
					LocalContrast = 0,
					LocalContrast2012 = 0,
					LocalDefringe = 0,
					LocalExposure = 0,
					LocalExposure2012 = 0.1,
					LocalHighlights2012 = 0,
					LocalLuminanceNoise = 0,
					LocalMoire = 0,
					LocalSaturation = 0,
					LocalShadows2012 = 0,
					LocalSharpness = 0,
					LocalTemperature = 0,
					LocalTint = 0,
					LocalToningHue = 0,
					LocalToningSaturation = 0,
					What = "Correction",
				},
				{
					CorrectionActive = true,
					CorrectionAmount = 1,
					CorrectionID = "2F83D9EC-8236-4BAF-B276-173BB3E03E20",
					CorrectionMasks = {
						{
							Angle = 29.6758,
							Bottom = 2.14592,
							Feather = 100,
							Flipped = true,
							Left = 1.17993,
							MaskID = "22EA9A32-05F9-4914-BF12-2AF77B70F2AD",
							MaskValue = 1,
							Midpoint = 50,
							Right = 0.554439,
							Roundness = 0,
							Top = -0.269203,
							Version = 2,
							What = "Mask/CircularGradient",
						},
					},
					CorrectionReferenceX = 0.867185,
					CorrectionReferenceY = 0.938358,
					LocalBrightness = 0,
					LocalClarity = 0,
					LocalClarity2012 = 0,
					LocalContrast = 0,
					LocalContrast2012 = 0,
					LocalDefringe = 0,
					LocalExposure = 0,
					LocalExposure2012 = 0.1,
					LocalHighlights2012 = 0,
					LocalLuminanceNoise = 0,
					LocalMoire = 0,
					LocalSaturation = 0,
					LocalShadows2012 = 0,
					LocalSharpness = 0,
					LocalTemperature = 0,
					LocalTint = 0,
					LocalToningHue = 0,
					LocalToningSaturation = 0,
					What = "Correction",
				},
			},
			Clarity2012 = 0,
			ColorNoiseReduction = 25,
			ColorNoiseReductionDetail = 50,
			ColorNoiseReductionSmoothness = 50,
			Contrast2012 = 0,
			ConvertToGrayscale = false,
			CropConstrainToWarp = 0,
			Defringe = 0,
			DefringeGreenAmount = 0,
			DefringeGreenHueHi = 60,
			DefringeGreenHueLo = 40,
			DefringePurpleAmount = 0,
			DefringePurpleHueHi = 70,
			DefringePurpleHueLo = 30,
			EnableCalibration = true,
			EnableCircularGradientBasedCorrections = true,
			EnableColorAdjustments = true,
			EnableDetail = true,
			EnableEffects = true,
			EnableGradientBasedCorrections = true,
			EnableLensCorrections = true,
			EnableSplitToning = true,
			Exposure2012 = 1.5,
			GradientBasedCorrections = {
				{
					CorrectionActive = true,
					CorrectionAmount = 1,
					CorrectionID = "79028A22-BA1A-4DD1-A465-C27720C042CB",
					CorrectionMasks = {
						{
							FullX = -0.003782,
							FullY = 0.466515,
							MaskID = "8E6A5DD8-F998-4351-B4D8-9AD539F0EBD7",
							MaskValue = 1,
							What = "Mask/Gradient",
							ZeroX = 0.527988,
							ZeroY = 0.557321,
						},
					},
					CorrectionReferenceX = 0.262103,
					CorrectionReferenceY = 0.511918,
					LocalBrightness = -0.406593,
					LocalClarity = 0,
					LocalClarity2012 = 0,
					LocalContrast = 0,
					LocalContrast2012 = 0,
					LocalExposure = 0.058824,
					LocalExposure2012 = -0.347769,
					LocalHighlights2012 = 0,
					LocalLuminanceNoise = 0,
					LocalMoire = 0,
					LocalSaturation = 0,
					LocalShadows2012 = 0,
					LocalSharpness = 0,
					LocalTemperature = 0,
					LocalTint = 0,
					LocalToningHue = 327,
					LocalToningSaturation = 0,
					What = "Correction",
				},
			},
			GrainAmount = 0,
			GrainFrequency = 50,
			GrainSize = 25,
			GreenHue = 0,
			GreenSaturation = 0,
			Highlights2012 = -100,
			HueAdjustmentAqua = 0,
			HueAdjustmentBlue = 0,
			HueAdjustmentGreen = 0,
			HueAdjustmentMagenta = 0,
			HueAdjustmentOrange = 0,
			HueAdjustmentPurple = 0,
			HueAdjustmentRed = 0,
			HueAdjustmentYellow = 0,
			LensManualDistortionAmount = 0,
			LensProfileEnable = 1,
			LensProfileSetup = "LensDefaults",
			LuminanceAdjustmentAqua = 0,
			LuminanceAdjustmentBlue = 0,
			LuminanceAdjustmentGreen = 0,
			LuminanceAdjustmentMagenta = 0,
			LuminanceAdjustmentOrange = 0,
			LuminanceAdjustmentPurple = 0,
			LuminanceAdjustmentRed = 0,
			LuminanceAdjustmentYellow = 0,
			LuminanceNoiseReductionContrast = 0,
			LuminanceNoiseReductionDetail = 50,
			LuminanceSmoothing = 0,
			ParametricDarks = 20,
			ParametricHighlightSplit = 75,
			ParametricHighlights = 30,
			ParametricLights = 15,
			ParametricMidtoneSplit = 50,
			ParametricShadowSplit = 25,
			ParametricShadows = -60,
			PerspectiveAspect = 0,
			PerspectiveHorizontal = 0,
			PerspectiveRotate = 0,
			PerspectiveScale = 100,
			PerspectiveUpright = 0,
			PerspectiveVertical = 0,
			PostCropVignetteAmount = 0,
			PostCropVignetteFeather = 50,
			PostCropVignetteHighlightContrast = 0,
			PostCropVignetteMidpoint = 50,
			PostCropVignetteRoundness = 0,
			PostCropVignetteStyle = 1,
			ProcessVersion = "6.7",
			RedHue = 0,
			RedSaturation = 0,
			Saturation = -89,
			SaturationAdjustmentAqua = 0,
			SaturationAdjustmentBlue = 0,
			SaturationAdjustmentGreen = 0,
			SaturationAdjustmentMagenta = 0,
			SaturationAdjustmentOrange = 0,
			SaturationAdjustmentPurple = 0,
			SaturationAdjustmentRed = 0,
			SaturationAdjustmentYellow = 0,
			ShadowTint = 0,
			Shadows2012 = 100,
			SharpenDetail = 20,
			SharpenEdgeMasking = 49,
			SharpenRadius = 0.5,
			Sharpness = 92,
			SplitToningBalance = -65,
			SplitToningHighlightHue = 135,
			SplitToningHighlightSaturation = 72,
			SplitToningShadowHue = 192,
			SplitToningShadowSaturation = 0,
			ToneCurveName2012 = "Linear",
			ToneCurvePV2012 = {
				0,
				0,
				255,
				255,
			},
			ToneCurvePV2012Blue = {
				0,
				0,
				255,
				255,
			},
			ToneCurvePV2012Green = {
				0,
				0,
				255,
				255,
			},
			ToneCurvePV2012Red = {
				0,
				0,
				255,
				255,
			},
			Vibrance = 0,
			VignetteAmount = 0,
			VignetteMidpoint = 50,
			WhiteBalance = "Auto",
			Whites2012 = 10,
			orientation = "AB",
		},
		uuid = "EE7EB8F5-61FE-434C-81E9-B7276685C47E",
	},
	version = 0,
}
