TheBabyCollection/BittyBaby/(B&W) Last 1.lrtemplate
s = {
	id = "6356F940-8B6C-4810-9446-079BF24674B7",
	internalName = "(B&W) Last 1",
	title = "(B&W) Last 1",
	type = "Develop",
	value = {
		settings = {
			AutoBrightness = false,
			AutoContrast = false,
			AutoShadows = false,
			BlueHue = 0,
			BlueSaturation = 0,
			Brightness = 64,
			CameraProfile = "Adobe Standard",
			Clarity = 20,
			Contrast = 17,
			ConvertToGrayscale = false,
			EnableCalibration = true,
			EnableColorAdjustments = true,
			EnableDetail = true,
			EnableGradientBasedCorrections = true,
			EnableSplitToning = true,
			FillLight = 25,
			GreenHue = 0,
			GreenSaturation = 0,
			HighlightRecovery = 61,
			HueAdjustmentAqua = 0,
			HueAdjustmentBlue = 0,
			HueAdjustmentGreen = 0,
			HueAdjustmentMagenta = 0,
			HueAdjustmentOrange = 0,
			HueAdjustmentPurple = 0,
			HueAdjustmentRed = 0,
			HueAdjustmentYellow = 0,
			LuminanceAdjustmentAqua = 0,
			LuminanceAdjustmentBlue = 0,
			LuminanceAdjustmentGreen = 0,
			LuminanceAdjustmentMagenta = 0,
			LuminanceAdjustmentOrange = 0,
			LuminanceAdjustmentPurple = 0,
			LuminanceAdjustmentRed = 0,
			LuminanceAdjustmentYellow = 0,
			ParametricDarks = 47,
			ParametricHighlightSplit = 75,
			ParametricHighlights = -15,
			ParametricLights = 23,
			ParametricMidtoneSplit = 50,
			ParametricShadowSplit = 25,
			ParametricShadows = -40,
			ProcessVersion = "5.7",
			RedHue = 0,
			RedSaturation = 0,
			Saturation = -100,
			SaturationAdjustmentAqua = 0,
			SaturationAdjustmentBlue = 0,
			SaturationAdjustmentGreen = 0,
			SaturationAdjustmentMagenta = 0,
			SaturationAdjustmentOrange = 0,
			SaturationAdjustmentPurple = 0,
			SaturationAdjustmentRed = 0,
			SaturationAdjustmentYellow = 0,
			ShadowTint = 0,
			Shadows = 26,
			SharpenDetail = 25,
			SharpenEdgeMasking = 0,
			SharpenRadius = 0.9,
			Sharpness = 33,
			SplitToningBalance = 0,
			SplitToningHighlightHue = 3,
			SplitToningHighlightSaturation = 1,
			SplitToningShadowHue = 3,
			SplitToningShadowSaturation = 0,
			ToneCurve = {
				0,
				0,
				65,
				69,
				128,
				128,
				182,
				186,
				245,
				250,
				255,
				255,
			},
			ToneCurveName = "Custom",
			Vibrance = 0,
			orientation = "AB",
		},
		uuid = "1827631A-83C9-44AE-883A-A73DC0940FA2",
	},
	version = 0,
}
