TheBabyCollection/BittyBaby/(Baby) Mustard.lrtemplate
s = {
	id = "227BA520-358C-45A5-ADF5-758D34109D1C",
	internalName = "(Baby) Mustard",
	title = "(Baby) Mustard",
	type = "Develop",
	value = {
		settings = {
			AutoBrightness = false,
			AutoContrast = false,
			AutoShadows = false,
			BlueHue = 0,
			BlueSaturation = 0,
			Brightness = 53,
			CameraProfile = "Adobe Standard",
			Clarity = 20,
			ColorNoiseReduction = 25,
			ColorNoiseReductionDetail = 50,
			Contrast = -12,
			ConvertToGrayscale = false,
			EnableCalibration = true,
			EnableColorAdjustments = true,
			EnableDetail = true,
			EnableEffects = true,
			EnableGradientBasedCorrections = true,
			EnableLensCorrections = true,
			EnableSplitToning = true,
			FillLight = 21,
			GreenHue = -26,
			GreenSaturation = 0,
			HighlightRecovery = 18,
			HueAdjustmentAqua = 0,
			HueAdjustmentBlue = 0,
			HueAdjustmentGreen = 0,
			HueAdjustmentMagenta = 0,
			HueAdjustmentOrange = 0,
			HueAdjustmentPurple = 0,
			HueAdjustmentRed = 0,
			HueAdjustmentYellow = 0,
			LuminanceAdjustmentAqua = 0,
			LuminanceAdjustmentBlue = 0,
			LuminanceAdjustmentGreen = 0,
			LuminanceAdjustmentMagenta = 0,
			LuminanceAdjustmentOrange = 0,
			LuminanceAdjustmentPurple = 0,
			LuminanceAdjustmentRed = 0,
			LuminanceAdjustmentYellow = 0,
			LuminanceNoiseReductionContrast = 0,
			LuminanceNoiseReductionDetail = 50,
			LuminanceSmoothing = 0,
			ParametricDarks = 16,
			ParametricHighlightSplit = 75,
			ParametricHighlights = 20,
			ParametricLights = 1,
			ParametricMidtoneSplit = 50,
			ParametricShadowSplit = 25,
			ParametricShadows = -28,
			PostCropVignetteAmount = 0,
			PostCropVignetteFeather = 50,
			PostCropVignetteHighlightContrast = 0,
			PostCropVignetteMidpoint = 50,
			PostCropVignetteRoundness = 0,
			PostCropVignetteStyle = 1,
			ProcessVersion = "5.7",
			RedHue = 0,
			RedSaturation = 0,
			Saturation = 8,
			SaturationAdjustmentAqua = 0,
			SaturationAdjustmentBlue = -2,
			SaturationAdjustmentGreen = -5,
			SaturationAdjustmentMagenta = -18,
			SaturationAdjustmentOrange = -18,
			SaturationAdjustmentPurple = 0,
			SaturationAdjustmentRed = -14,
			SaturationAdjustmentYellow = 29,
			ShadowTint = 22,
			Shadows = 11,
			SharpenDetail = 25,
			SharpenEdgeMasking = 0,
			SharpenRadius = 1,
			Sharpness = 31,
			SplitToningBalance = 0,
			SplitToningHighlightHue = 244,
			SplitToningHighlightSaturation = 3,
			SplitToningShadowHue = 360,
			SplitToningShadowSaturation = 6,
			ToneCurve = {
				0,
				0,
				48,
				47,
				118,
				120,
				155,
				150,
				255,
				241,
			},
			ToneCurveName = "Custom",
			Vibrance = 0,
			VignetteAmount = 0,
			VignetteMidpoint = 50,
			orientation = "AB",
		},
		uuid = "DD3BCF1F-A204-4ED8-A582-7BA826B732AD",
	},
	version = 0,
}
