TheBabyCollection/BittyBaby/(Baby Work) Haze Lighter.lrtemplate
s = {
	id = "9681537F-FB58-4CEB-91D7-AABD47301421",
	internalName = "(Baby Work) Haze Lighter",
	title = "(Baby Work) Haze Lighter",
	type = "Develop",
	value = {
		settings = {
			AutoContrast = false,
			Contrast = 9,
			ParametricDarks = 0,
			ParametricHighlightSplit = 75,
			ParametricHighlights = 0,
			ParametricLights = 0,
			ParametricMidtoneSplit = 50,
			ParametricShadowSplit = 25,
			ParametricShadows = 0,
			ToneCurve = {
				0,
				19,
				70,
				75,
				117,
				118,
				196,
				186,
				255,
				239,
			},
			ToneCurveName = "Custom",
		},
		uuid = "71F2DE74-2675-4173-9653-833F5541BCE3",
	},
	version = 0,
}
