TheBabyCollection/BittyBaby/(Baby) Dandy Warm Less Contrast.lrtemplate
s = {
	id = "66C7A157-F8FC-4346-BF37-5FE13227D5DF",
	internalName = "(Baby) Dandy Warm Less Contrast",
	title = "(Baby) Dandy Warm Less Contrast",
	type = "Develop",
	value = {
		settings = {
			AutoBrightness = false,
			AutoContrast = false,
			AutoExposure = false,
			AutoShadows = false,
			BlueHue = 0,
			BlueSaturation = 0,
			Brightness = 53,
			CameraProfile = "Adobe Standard",
			Clarity = 13,
			Contrast = -17,
			ConvertToGrayscale = false,
			EnableCalibration = true,
			EnableColorAdjustments = true,
			EnableDetail = true,
			EnableEffects = true,
			EnableGradientBasedCorrections = true,
			EnableSplitToning = true,
			Exposure = 0,
			FillLight = 34,
			GrainAmount = 0,
			GrainFrequency = 50,
			GrainSize = 25,
			GreenHue = -26,
			GreenSaturation = 0,
			HighlightRecovery = 85,
			HueAdjustmentAqua = 0,
			HueAdjustmentBlue = 0,
			HueAdjustmentGreen = 2,
			HueAdjustmentMagenta = -30,
			HueAdjustmentOrange = 0,
			HueAdjustmentPurple = -20,
			HueAdjustmentRed = 23,
			HueAdjustmentYellow = 0,
			LuminanceAdjustmentAqua = 0,
			LuminanceAdjustmentBlue = 0,
			LuminanceAdjustmentGreen = 0,
			LuminanceAdjustmentMagenta = 0,
			LuminanceAdjustmentOrange = 0,
			LuminanceAdjustmentPurple = 0,
			LuminanceAdjustmentRed = 0,
			LuminanceAdjustmentYellow = 0,
			ParametricDarks = -10,
			ParametricHighlightSplit = 75,
			ParametricHighlights = 5,
			ParametricLights = 12,
			ParametricMidtoneSplit = 46,
			ParametricShadowSplit = 25,
			ParametricShadows = -9,
			PostCropVignetteAmount = 1,
			PostCropVignetteFeather = 50,
			PostCropVignetteHighlightContrast = 0,
			PostCropVignetteMidpoint = 50,
			PostCropVignetteRoundness = 0,
			PostCropVignetteStyle = 1,
			ProcessVersion = "5.7",
			RedHue = 0,
			RedSaturation = 0,
			Saturation = -15,
			SaturationAdjustmentAqua = 0,
			SaturationAdjustmentBlue = -23,
			SaturationAdjustmentGreen = 0,
			SaturationAdjustmentMagenta = 0,
			SaturationAdjustmentOrange = -23,
			SaturationAdjustmentPurple = 27,
			SaturationAdjustmentRed = -20,
			SaturationAdjustmentYellow = 0,
			ShadowTint = 22,
			Shadows = 14,
			SharpenDetail = 25,
			SharpenEdgeMasking = 0,
			SharpenRadius = 1,
			Sharpness = 31,
			SplitToningBalance = 0,
			SplitToningHighlightHue = 50,
			SplitToningHighlightSaturation = 17,
			SplitToningShadowHue = 46,
			SplitToningShadowSaturation = 31,
			ToneCurve = {
				0,
				23,
				56,
				62,
				81,
				82,
				105,
				109,
				255,
				250,
			},
			ToneCurveName = "Custom",
			Vibrance = 1,
			orientation = "AB",
		},
		uuid = "D8E1C5EB-8466-4C45-8D96-35A6C3FBD246",
	},
	version = 0,
}
