TheBabyCollection/BittyBaby/(Baby) Sweetlight 1.lrtemplate
s = {
	id = "FBA3136E-6F7E-4914-B021-675FCDF08E2F",
	internalName = "(Baby) Sweetlight 1",
	title = "(Baby) Sweetlight 1",
	type = "Develop",
	value = {
		settings = {
			AutoBrightness = false,
			AutoContrast = false,
			AutoShadows = false,
			BlueHue = 0,
			BlueSaturation = 0,
			Brightness = 29,
			CameraProfile = "Adobe Standard",
			Clarity = 24,
			ColorNoiseReduction = 25,
			ColorNoiseReductionDetail = 50,
			Contrast = 17,
			ConvertToGrayscale = false,
			EnableCalibration = true,
			EnableColorAdjustments = true,
			EnableDetail = true,
			EnableEffects = true,
			EnableGradientBasedCorrections = true,
			EnableSplitToning = true,
			FillLight = 20,
			GrainAmount = 0,
			GrainFrequency = 50,
			GrainSize = 25,
			GreenHue = 0,
			GreenSaturation = 0,
			HighlightRecovery = 36,
			HueAdjustmentAqua = 0,
			HueAdjustmentBlue = -25,
			HueAdjustmentGreen = 0,
			HueAdjustmentMagenta = 0,
			HueAdjustmentOrange = 16,
			HueAdjustmentPurple = 0,
			HueAdjustmentRed = -43,
			HueAdjustmentYellow = 0,
			LuminanceAdjustmentAqua = 0,
			LuminanceAdjustmentBlue = 14,
			LuminanceAdjustmentGreen = -5,
			LuminanceAdjustmentMagenta = 0,
			LuminanceAdjustmentOrange = 0,
			LuminanceAdjustmentPurple = 0,
			LuminanceAdjustmentRed = 0,
			LuminanceAdjustmentYellow = 0,
			LuminanceNoiseReductionContrast = 50,
			LuminanceNoiseReductionDetail = 50,
			LuminanceSmoothing = 0,
			ParametricDarks = -4,
			ParametricHighlightSplit = 84,
			ParametricHighlights = 0,
			ParametricLights = 15,
			ParametricMidtoneSplit = 61,
			ParametricShadowSplit = 19,
			ParametricShadows = 0,
			PostCropVignetteAmount = 0,
			PostCropVignetteFeather = 50,
			PostCropVignetteHighlightContrast = 0,
			PostCropVignetteMidpoint = 50,
			PostCropVignetteRoundness = 0,
			PostCropVignetteStyle = 1,
			ProcessVersion = "5.7",
			RedHue = 0,
			RedSaturation = -22,
			Saturation = 3,
			SaturationAdjustmentAqua = -20,
			SaturationAdjustmentBlue = 0,
			SaturationAdjustmentGreen = 0,
			SaturationAdjustmentMagenta = 0,
			SaturationAdjustmentOrange = -23,
			SaturationAdjustmentPurple = 0,
			SaturationAdjustmentRed = -18,
			SaturationAdjustmentYellow = 0,
			ShadowTint = 15,
			Shadows = 0,
			SharpenDetail = 29,
			SharpenEdgeMasking = 0,
			SharpenRadius = 1.1,
			Sharpness = 48,
			SplitToningBalance = -1,
			SplitToningHighlightHue = 331,
			SplitToningHighlightSaturation = 0,
			SplitToningShadowHue = 311,
			SplitToningShadowSaturation = 14,
			ToneCurve = {
				0,
				8,
				32,
				22,
				42,
				30,
				83,
				79,
				87,
				83,
				196,
				198,
				255,
				247,
			},
			ToneCurveName = "Custom",
			Vibrance = 20,
			orientation = "AB",
		},
		uuid = "14D69E20-F0F3-4AFC-B2F3-E4599569714A",
	},
	version = 0,
}
