TheBabyCollection/BittyBaby/(Baby) Sweetheart 8 light.lrtemplate
s = {
	id = "101EE920-B1B7-43F9-B659-16E0A9C6EB72",
	internalName = "(Baby) Sweetheart 8 light",
	title = "(Baby) Sweetheart 8 light",
	type = "Develop",
	value = {
		settings = {
			AutoBrightness = false,
			AutoContrast = false,
			AutoShadows = false,
			BlueHue = 0,
			BlueSaturation = 0,
			Brightness = 53,
			CameraProfile = "Adobe Standard",
			Clarity = 24,
			ColorNoiseReduction = 25,
			ColorNoiseReductionDetail = 50,
			Contrast = -24,
			ConvertToGrayscale = false,
			EnableCalibration = true,
			EnableColorAdjustments = true,
			EnableDetail = true,
			EnableEffects = true,
			EnableGradientBasedCorrections = true,
			EnableSplitToning = true,
			FillLight = 34,
			GrainAmount = 0,
			GrainFrequency = 50,
			GrainSize = 25,
			GreenHue = 0,
			GreenSaturation = 0,
			HighlightRecovery = 36,
			HueAdjustmentAqua = 0,
			HueAdjustmentBlue = -25,
			HueAdjustmentGreen = 0,
			HueAdjustmentMagenta = 0,
			HueAdjustmentOrange = -14,
			HueAdjustmentPurple = 0,
			HueAdjustmentRed = -43,
			HueAdjustmentYellow = 0,
			LuminanceAdjustmentAqua = 0,
			LuminanceAdjustmentBlue = 14,
			LuminanceAdjustmentGreen = -5,
			LuminanceAdjustmentMagenta = 0,
			LuminanceAdjustmentOrange = 0,
			LuminanceAdjustmentPurple = 0,
			LuminanceAdjustmentRed = 0,
			LuminanceAdjustmentYellow = 0,
			LuminanceNoiseReductionContrast = 50,
			LuminanceNoiseReductionDetail = 50,
			LuminanceSmoothing = 0,
			ParametricDarks = -4,
			ParametricHighlightSplit = 84,
			ParametricHighlights = 0,
			ParametricLights = 15,
			ParametricMidtoneSplit = 61,
			ParametricShadowSplit = 19,
			ParametricShadows = 0,
			PostCropVignetteAmount = 0,
			PostCropVignetteFeather = 50,
			PostCropVignetteHighlightContrast = 0,
			PostCropVignetteMidpoint = 50,
			PostCropVignetteRoundness = 0,
			PostCropVignetteStyle = 1,
			ProcessVersion = "5.7",
			RedHue = 0,
			RedSaturation = -26,
			Saturation = 1,
			SaturationAdjustmentAqua = -20,
			SaturationAdjustmentBlue = 0,
			SaturationAdjustmentGreen = 0,
			SaturationAdjustmentMagenta = 0,
			SaturationAdjustmentOrange = -7,
			SaturationAdjustmentPurple = 0,
			SaturationAdjustmentRed = -11,
			SaturationAdjustmentYellow = 0,
			ShadowTint = -24,
			Shadows = 0,
			SharpenDetail = 29,
			SharpenEdgeMasking = 0,
			SharpenRadius = 1.1,
			Sharpness = 48,
			SplitToningBalance = -1,
			SplitToningHighlightHue = 57,
			SplitToningHighlightSaturation = 27,
			SplitToningShadowHue = 307,
			SplitToningShadowSaturation = 0,
			ToneCurve = {
				0,
				8,
				32,
				22,
				42,
				30,
				83,
				79,
				87,
				83,
				196,
				198,
				255,
				235,
			},
			ToneCurveName = "Custom",
			Vibrance = 20,
			orientation = "AB",
		},
		uuid = "1A260745-4D74-4322-AF6C-091E91B90107",
	},
	version = 0,
}
