TheBabyCollection/BittyBaby/(Baby) Sweetlight 2.lrtemplate
s = {
	id = "B0073C74-4C6B-4EA6-B8BB-CD5267A66EB5",
	internalName = "(Baby) Sweetlight 2",
	title = "(Baby) Sweetlight 2",
	type = "Develop",
	value = {
		settings = {
			AutoBrightness = false,
			AutoContrast = false,
			AutoShadows = false,
			Brightness = 29,
			Clarity = 24,
			ColorNoiseReduction = 25,
			ColorNoiseReductionDetail = 50,
			Contrast = 17,
			ConvertToGrayscale = false,
			EnableColorAdjustments = true,
			EnableDetail = true,
			EnableEffects = true,
			EnableGradientBasedCorrections = true,
			EnableLensCorrections = true,
			EnableSplitToning = true,
			FillLight = 20,
			HighlightRecovery = 36,
			HueAdjustmentAqua = 0,
			HueAdjustmentBlue = -25,
			HueAdjustmentGreen = 0,
			HueAdjustmentMagenta = 0,
			HueAdjustmentOrange = -11,
			HueAdjustmentPurple = 0,
			HueAdjustmentRed = -43,
			HueAdjustmentYellow = 0,
			LuminanceAdjustmentAqua = 0,
			LuminanceAdjustmentBlue = 14,
			LuminanceAdjustmentGreen = -5,
			LuminanceAdjustmentMagenta = 0,
			LuminanceAdjustmentOrange = 0,
			LuminanceAdjustmentPurple = 0,
			LuminanceAdjustmentRed = 0,
			LuminanceAdjustmentYellow = 0,
			LuminanceNoiseReductionContrast = 50,
			LuminanceNoiseReductionDetail = 50,
			LuminanceSmoothing = 0,
			ParametricDarks = -4,
			ParametricHighlightSplit = 84,
			ParametricHighlights = 0,
			ParametricLights = 15,
			ParametricMidtoneSplit = 61,
			ParametricShadowSplit = 19,
			ParametricShadows = 0,
			PostCropVignetteAmount = 0,
			PostCropVignetteFeather = 50,
			PostCropVignetteHighlightContrast = 0,
			PostCropVignetteMidpoint = 50,
			PostCropVignetteRoundness = 0,
			PostCropVignetteStyle = 1,
			Saturation = 3,
			SaturationAdjustmentAqua = -20,
			SaturationAdjustmentBlue = 0,
			SaturationAdjustmentGreen = 0,
			SaturationAdjustmentMagenta = 0,
			SaturationAdjustmentOrange = -7,
			SaturationAdjustmentPurple = 0,
			SaturationAdjustmentRed = -11,
			SaturationAdjustmentYellow = 0,
			Shadows = 0,
			SharpenDetail = 29,
			SharpenEdgeMasking = 0,
			SharpenRadius = 1.1,
			Sharpness = 48,
			SplitToningBalance = -1,
			SplitToningHighlightHue = 331,
			SplitToningHighlightSaturation = 0,
			SplitToningShadowHue = 311,
			SplitToningShadowSaturation = 14,
			Temperature = 5563,
			Tint = -16,
			ToneCurve = {
				0,
				8,
				32,
				22,
				42,
				30,
				83,
				79,
				87,
				83,
				196,
				198,
				255,
				247,
			},
			ToneCurveName = "Custom",
			Vibrance = 20,
			VignetteAmount = 0,
			VignetteMidpoint = 50,
			WhiteBalance = "Custom",
			orientation = "AB",
		},
		uuid = "8ACC9A30-D662-4B6D-B44D-2B4F7B315EE2",
	},
	version = 0,
}
