TheBabyCollection/BittyBaby/(Baby Work) Quick Boost Lighter.lrtemplate
s = {
	id = "FF1AD116-A9E3-4543-AF2E-6E99B08B5B83",
	internalName = "(Baby Work) Quick Boost Lighter",
	title = "(Baby Work) Quick Boost Lighter",
	type = "Develop",
	value = {
		settings = {
			AutoBrightness = false,
			AutoContrast = false,
			AutoShadows = false,
			BlueHue = 0,
			BlueSaturation = 0,
			Brightness = 67,
			CameraProfile = "Adobe Standard",
			Contrast = 25,
			ConvertToGrayscale = false,
			EnableCalibration = true,
			EnableColorAdjustments = true,
			EnableGradientBasedCorrections = true,
			FillLight = 9,
			GreenHue = 0,
			GreenSaturation = 0,
			HighlightRecovery = 34,
			HueAdjustmentAqua = 0,
			HueAdjustmentBlue = 0,
			HueAdjustmentGreen = 0,
			HueAdjustmentMagenta = 0,
			HueAdjustmentOrange = 14,
			HueAdjustmentPurple = 0,
			HueAdjustmentRed = 0,
			HueAdjustmentYellow = 0,
			LuminanceAdjustmentAqua = 0,
			LuminanceAdjustmentBlue = 0,
			LuminanceAdjustmentGreen = 0,
			LuminanceAdjustmentMagenta = 0,
			LuminanceAdjustmentOrange = 0,
			LuminanceAdjustmentPurple = 0,
			LuminanceAdjustmentRed = 0,
			LuminanceAdjustmentYellow = 0,
			RedHue = 0,
			RedSaturation = 0,
			Saturation = 0,
			SaturationAdjustmentAqua = 0,
			SaturationAdjustmentBlue = 0,
			SaturationAdjustmentGreen = 0,
			SaturationAdjustmentMagenta = -41,
			SaturationAdjustmentOrange = 0,
			SaturationAdjustmentPurple = -2,
			SaturationAdjustmentRed = -34,
			SaturationAdjustmentYellow = 0,
			ShadowTint = 0,
			Shadows = 5,
			Vibrance = 45,
			orientation = "AB",
		},
		uuid = "BC5464C3-9B06-4B05-BFCF-DC10ABB6CAB6",
	},
	version = 0,
}
