TheBabyCollection/BittyBaby/(Baby) Hush Red Darker Desat.lrtemplate
s = {
	id = "64FC85C3-DF5E-4C48-BEB5-05407B859435",
	internalName = "(Baby) Hush Red Darker Desat",
	title = "(Baby) Hush Red Darker Desat",
	type = "Develop",
	value = {
		settings = {
			AutoBrightness = false,
			AutoContrast = false,
			AutoExposure = false,
			AutoShadows = false,
			BlueHue = -6,
			BlueSaturation = 47,
			Brightness = 40,
			CameraProfile = "ACR 4.4",
			Clarity = 0,
			Contrast = 14,
			ConvertToGrayscale = false,
			EnableCalibration = true,
			EnableColorAdjustments = true,
			EnableDetail = true,
			EnableEffects = true,
			EnableGradientBasedCorrections = true,
			EnableSplitToning = true,
			Exposure = 0,
			FillLight = 10,
			GrainAmount = 0,
			GrainFrequency = 50,
			GrainSize = 50,
			GreenHue = 54,
			GreenSaturation = 1,
			HighlightRecovery = 34,
			HueAdjustmentAqua = 0,
			HueAdjustmentBlue = 0,
			HueAdjustmentGreen = 0,
			HueAdjustmentMagenta = 0,
			HueAdjustmentOrange = 20,
			HueAdjustmentPurple = 0,
			HueAdjustmentRed = -5,
			HueAdjustmentYellow = 0,
			LuminanceAdjustmentAqua = 0,
			LuminanceAdjustmentBlue = 0,
			LuminanceAdjustmentGreen = 0,
			LuminanceAdjustmentMagenta = 0,
			LuminanceAdjustmentOrange = 0,
			LuminanceAdjustmentPurple = 0,
			LuminanceAdjustmentRed = 0,
			LuminanceAdjustmentYellow = 0,
			ParametricDarks = -9,
			ParametricHighlightSplit = 75,
			ParametricHighlights = -18,
			ParametricLights = 0,
			ParametricMidtoneSplit = 50,
			ParametricShadowSplit = 25,
			ParametricShadows = 9,
			PostCropVignetteAmount = 0,
			PostCropVignetteFeather = 50,
			PostCropVignetteHighlightContrast = 0,
			PostCropVignetteMidpoint = 50,
			PostCropVignetteRoundness = 0,
			PostCropVignetteStyle = 2,
			ProcessVersion = "5.7",
			RedHue = 56,
			RedSaturation = -38,
			Saturation = 1,
			SaturationAdjustmentAqua = 0,
			SaturationAdjustmentBlue = 18,
			SaturationAdjustmentGreen = 0,
			SaturationAdjustmentMagenta = 0,
			SaturationAdjustmentOrange = -7,
			SaturationAdjustmentPurple = 0,
			SaturationAdjustmentRed = -43,
			SaturationAdjustmentYellow = -16,
			ShadowTint = -13,
			Shadows = 0,
			SharpenDetail = 25,
			SharpenEdgeMasking = 0,
			SharpenRadius = 1,
			Sharpness = 31,
			SplitToningBalance = 84,
			SplitToningHighlightHue = 281,
			SplitToningHighlightSaturation = 10,
			SplitToningShadowHue = 360,
			SplitToningShadowSaturation = 16,
			ToneCurve = {
				0,
				0,
				148,
				126,
				255,
				255,
			},
			ToneCurveName = "Custom",
			Vibrance = 22,
			orientation = "AB",
		},
		uuid = "4C69B1E9-5FED-4A2E-86A4-F6522DFB86B9",
	},
	version = 0,
}
