CM 1000+ Lightroom Preset Pack 317985/Vintage, Retro Collection (120)/Vintage (74).lrtemplate
s = {
	id = "08EA260F-9888-43EC-9268-82612EB08383",
	internalName = "Wistful ••",
	title = "Wistful ••",
	type = "Develop",
	value = {
		settings = {
			ConvertToGrayscale = false,
			EnableEffects = true,
			ParametricDarks = 0,
			ParametricHighlightSplit = 75,
			ParametricHighlights = 0,
			ParametricLights = 0,
			ParametricMidtoneSplit = 50,
			ParametricShadowSplit = 25,
			ParametricShadows = 0,
			PostCropVignetteAmount = 0,
			PostCropVignetteFeather = 50,
			PostCropVignetteHighlightContrast = 0,
			PostCropVignetteMidpoint = 50,
			PostCropVignetteRoundness = 0,
			PostCropVignetteStyle = 1,
			Saturation = -44,
			ToneCurveName2012 = "Wistful -",
			ToneCurvePV2012 = {
				0,
				0,
				255,
				255,
			},
			ToneCurvePV2012Blue = {
				0,
				8,
				36,
				35,
				72,
				65,
				109,
				103,
				145,
				145,
				182,
				179,
				218,
				211,
				255,
				242,
			},
			ToneCurvePV2012Green = {
				0,
				8,
				36,
				35,
				72,
				65,
				109,
				103,
				145,
				145,
				182,
				179,
				218,
				211,
				255,
				242,
			},
			ToneCurvePV2012Red = {
				0,
				8,
				36,
				35,
				72,
				64,
				109,
				103,
				145,
				146,
				182,
				181,
				218,
				211,
				255,
				242,
			},
		},
		uuid = "884CA903-702D-4AEA-B792-1607D7C24E48",
	},
	version = 0,
}
