CM 1000+ Lightroom Preset Pack 317985/Vintage, Retro Collection (120)/Vintage (85).lrtemplate
s = {
	id = "2CB2622C-9F2A-408E-BBF9-8A4C79B29D62",
	internalName = "Darkroom •••",
	title = "Darkroom •••",
	type = "Develop",
	value = {
		settings = {
			ConvertToGrayscale = false,
			EnableEffects = true,
			ParametricDarks = 0,
			ParametricHighlightSplit = 75,
			ParametricHighlights = 0,
			ParametricLights = 0,
			ParametricMidtoneSplit = 50,
			ParametricShadowSplit = 25,
			ParametricShadows = 0,
			PostCropVignetteAmount = -30,
			PostCropVignetteFeather = 50,
			PostCropVignetteHighlightContrast = 0,
			PostCropVignetteMidpoint = 75,
			PostCropVignetteRoundness = 100,
			PostCropVignetteStyle = 1,
			Saturation = 0,
			ToneCurveName2012 = "Darkroom",
			ToneCurvePV2012 = {
				0,
				0,
				255,
				255,
			},
			ToneCurvePV2012Blue = {
				0,
				13,
				36,
				40,
				72,
				88,
				109,
				144,
				145,
				181,
				182,
				211,
				218,
				230,
				255,
				250,
			},
			ToneCurvePV2012Green = {
				0,
				17,
				36,
				49,
				72,
				92,
				109,
				147,
				145,
				186,
				182,
				214,
				218,
				234,
				255,
				250,
			},
			ToneCurvePV2012Red = {
				0,
				0,
				36,
				24,
				72,
				75,
				109,
				141,
				145,
				186,
				182,
				214,
				218,
				234,
				255,
				251,
			},
		},
		uuid = "29E2B7F9-898E-408E-8981-BDA81DBCD069",
	},
	version = 0,
}
