CM 1000+ Lightroom Preset Pack 317985/Vintage, Retro Collection (120)/Vintage (104).lrtemplate
s = {
	id = "50983B67-1EC8-4C87-B672-2B681A259D07",
	internalName = "Evocative ••",
	title = "Evocative ••",
	type = "Develop",
	value = {
		settings = {
			ConvertToGrayscale = false,
			EnableEffects = true,
			ParametricDarks = 0,
			ParametricHighlightSplit = 75,
			ParametricHighlights = 0,
			ParametricLights = 0,
			ParametricMidtoneSplit = 50,
			ParametricShadowSplit = 25,
			ParametricShadows = 0,
			PostCropVignetteAmount = 0,
			PostCropVignetteFeather = 50,
			PostCropVignetteHighlightContrast = 0,
			PostCropVignetteMidpoint = 50,
			PostCropVignetteRoundness = 0,
			PostCropVignetteStyle = 1,
			Saturation = 0,
			ToneCurveName2012 = "Evocative -",
			ToneCurvePV2012 = {
				0,
				0,
				255,
				255,
			},
			ToneCurvePV2012Blue = {
				0,
				0,
				36,
				71,
				72,
				93,
				109,
				110,
				145,
				135,
				182,
				169,
				218,
				203,
				255,
				255,
			},
			ToneCurvePV2012Green = {
				0,
				0,
				36,
				44,
				72,
				78,
				109,
				114,
				145,
				151,
				182,
				185,
				218,
				219,
				255,
				255,
			},
			ToneCurvePV2012Red = {
				0,
				0,
				36,
				32,
				72,
				73,
				109,
				118,
				145,
				157,
				182,
				193,
				218,
				227,
				255,
				255,
			},
		},
		uuid = "CAE53E49-114D-473B-A349-F58329499566",
	},
	version = 0,
}
