CM 1000+ Lightroom Preset Pack 317985/Vintage, Retro Collection (120)/Vintage (101).lrtemplate
s = {
	id = "783BCCD5-C024-4CE4-9216-ED22AAAE808E",
	internalName = "Endurance ••••",
	title = "Endurance ••••",
	type = "Develop",
	value = {
		settings = {
			ConvertToGrayscale = false,
			EnableEffects = true,
			ParametricDarks = 0,
			ParametricHighlightSplit = 75,
			ParametricHighlights = 0,
			ParametricLights = 0,
			ParametricMidtoneSplit = 50,
			ParametricShadowSplit = 25,
			ParametricShadows = 0,
			PostCropVignetteAmount = 0,
			PostCropVignetteFeather = 50,
			PostCropVignetteHighlightContrast = 0,
			PostCropVignetteMidpoint = 50,
			PostCropVignetteRoundness = 0,
			PostCropVignetteStyle = 1,
			Saturation = 0,
			ToneCurveName2012 = "Endurance +",
			ToneCurvePV2012 = {
				0,
				0,
				255,
				255,
			},
			ToneCurvePV2012Blue = {
				0,
				42,
				36,
				49,
				72,
				57,
				109,
				95,
				145,
				152,
				182,
				180,
				218,
				194,
				255,
				209,
			},
			ToneCurvePV2012Green = {
				0,
				44,
				36,
				51,
				72,
				58,
				109,
				148,
				145,
				206,
				182,
				222,
				218,
				228,
				255,
				233,
			},
			ToneCurvePV2012Red = {
				0,
				33,
				36,
				41,
				72,
				51,
				109,
				156,
				145,
				214,
				182,
				229,
				218,
				243,
				255,
				248,
			},
		},
		uuid = "64F8ACEC-321D-4EA1-9C38-C369155D2742",
	},
	version = 0,
}
