CM 1000+ Lightroom Preset Pack 317985/Vintage, Retro Collection (120)/Vintage (105).lrtemplate
s = {
	id = "47144163-6B70-4940-A1D7-0240E16AE64B",
	internalName = "Evocative •••",
	title = "Evocative •••",
	type = "Develop",
	value = {
		settings = {
			ConvertToGrayscale = false,
			EnableEffects = true,
			ParametricDarks = 0,
			ParametricHighlightSplit = 75,
			ParametricHighlights = 0,
			ParametricLights = 0,
			ParametricMidtoneSplit = 50,
			ParametricShadowSplit = 25,
			ParametricShadows = 0,
			PostCropVignetteAmount = 0,
			PostCropVignetteFeather = 50,
			PostCropVignetteHighlightContrast = 0,
			PostCropVignetteMidpoint = 50,
			PostCropVignetteRoundness = 0,
			PostCropVignetteStyle = 1,
			Saturation = 0,
			ToneCurveName2012 = "Evocative",
			ToneCurvePV2012 = {
				0,
				0,
				255,
				255,
			},
			ToneCurvePV2012Blue = {
				0,
				0,
				36,
				83,
				72,
				97,
				109,
				110,
				145,
				132,
				182,
				164,
				218,
				198,
				255,
				255,
			},
			ToneCurvePV2012Green = {
				0,
				0,
				36,
				46,
				72,
				80,
				109,
				115,
				145,
				153,
				182,
				186,
				218,
				220,
				255,
				255,
			},
			ToneCurvePV2012Red = {
				0,
				0,
				36,
				30,
				72,
				74,
				109,
				122,
				145,
				161,
				182,
				196,
				218,
				230,
				255,
				255,
			},
		},
		uuid = "8545166A-423C-4D12-B17E-F617D50141AF",
	},
	version = 0,
}
