CM 1000+ Lightroom Preset Pack 317985/Vintage, Retro Collection (120)/Vintage (29).lrtemplate
s = {
	id = "D75C0A2E-B9D8-47B6-8DFB-A1D08DAF44C4",
	internalName = "Preset 27",
	title = "Preset 27",
	type = "Develop",
	value = {
		settings = {
			AutoLateralCA = 0,
			Blacks2012 = 0,
			BlueHue = 0,
			BlueSaturation = 0,
			CameraProfile = "Embedded",
			ChromaticAberrationB = 0,
			ChromaticAberrationR = 0,
			Clarity2012 = -24,
			ColorNoiseReduction = 0,
			ColorNoiseReductionDetail = 50,
			ColorNoiseReductionSmoothness = 50,
			Contrast2012 = 19,
			ConvertToGrayscale = false,
			Defringe = 0,
			DefringeGreenAmount = 0,
			DefringeGreenHueHi = 60,
			DefringeGreenHueLo = 40,
			DefringePurpleAmount = 0,
			DefringePurpleHueHi = 70,
			DefringePurpleHueLo = 30,
			EnableCalibration = true,
			EnableColorAdjustments = true,
			EnableDetail = true,
			EnableEffects = true,
			EnableLensCorrections = true,
			EnableSplitToning = true,
			Exposure2012 = -0.48,
			GrainAmount = 0,
			GrainFrequency = 50,
			GrainSize = 25,
			GreenHue = 0,
			GreenSaturation = 0,
			Highlights2012 = 0,
			HueAdjustmentAqua = 62,
			HueAdjustmentBlue = 0,
			HueAdjustmentGreen = 38,
			HueAdjustmentMagenta = 0,
			HueAdjustmentOrange = 69,
			HueAdjustmentPurple = 0,
			HueAdjustmentRed = 13,
			HueAdjustmentYellow = -29,
			IncrementalTemperature = -31,
			IncrementalTint = 0,
			LuminanceAdjustmentAqua = 0,
			LuminanceAdjustmentBlue = 0,
			LuminanceAdjustmentGreen = 0,
			LuminanceAdjustmentMagenta = 0,
			LuminanceAdjustmentOrange = 0,
			LuminanceAdjustmentPurple = 0,
			LuminanceAdjustmentRed = 0,
			LuminanceAdjustmentYellow = 0,
			LuminanceNoiseReductionContrast = 0,
			LuminanceNoiseReductionDetail = 50,
			LuminanceSmoothing = 33,
			ParametricDarks = 9,
			ParametricHighlightSplit = 75,
			ParametricHighlights = 0,
			ParametricLights = 0,
			ParametricMidtoneSplit = 50,
			ParametricShadowSplit = 25,
			ParametricShadows = 0,
			PostCropVignetteAmount = 24,
			PostCropVignetteFeather = 71,
			PostCropVignetteHighlightContrast = 0,
			PostCropVignetteMidpoint = 37,
			PostCropVignetteRoundness = 76,
			PostCropVignetteStyle = 1,
			ProcessVersion = "6.7",
			RedHue = 0,
			RedSaturation = 0,
			Saturation = 33,
			SaturationAdjustmentAqua = 0,
			SaturationAdjustmentBlue = 0,
			SaturationAdjustmentGreen = 0,
			SaturationAdjustmentMagenta = 0,
			SaturationAdjustmentOrange = 0,
			SaturationAdjustmentPurple = 0,
			SaturationAdjustmentRed = 0,
			SaturationAdjustmentYellow = 0,
			ShadowTint = 0,
			Shadows2012 = 0,
			SharpenDetail = 25,
			SharpenEdgeMasking = 0,
			SharpenRadius = 1,
			Sharpness = 0,
			SplitToningBalance = 0,
			SplitToningHighlightHue = 0,
			SplitToningHighlightSaturation = 0,
			SplitToningShadowHue = 58,
			SplitToningShadowSaturation = 30,
			ToneCurveName2012 = "Linear",
			ToneCurvePV2012 = {
				0,
				0,
				255,
				255,
			},
			ToneCurvePV2012Blue = {
				0,
				0,
				255,
				255,
			},
			ToneCurvePV2012Green = {
				0,
				0,
				255,
				255,
			},
			ToneCurvePV2012Red = {
				0,
				0,
				255,
				255,
			},
			Vibrance = 43,
			VignetteAmount = 0,
			VignetteMidpoint = 50,
			WhiteBalance = "Custom",
			Whites2012 = 0,
		},
		uuid = "E2E0F913-4292-41E2-89CE-76F8D7625774",
	},
	version = 0,
}
