1100 Lightroom Presets/CM 1100+ Lightroom Presets 320973/10 The Color Boosts/Bloody Pink.lrtemplate
s = {
	id = "F72907AB-F6E6-42E4-9128-ABB29B0925E2",
	internalName = "Bloody Pink",
	title = "Bloody Pink",
	type = "Develop",
	value = {
		settings = {
			AutoLateralCA = 0,
			Blacks2012 = 0,
			BlueHue = 81,
			BlueSaturation = -38,
			CameraProfile = "Embedded",
			ChromaticAberrationB = 0,
			ChromaticAberrationR = 0,
			Clarity2012 = 52,
			ColorNoiseReduction = 0,
			ColorNoiseReductionDetail = 50,
			ColorNoiseReductionSmoothness = 50,
			Contrast2012 = -6,
			ConvertToGrayscale = false,
			CropConstrainToWarp = 0,
			Defringe = 0,
			DefringeGreenAmount = 13,
			DefringeGreenHueHi = 89,
			DefringeGreenHueLo = 20,
			DefringePurpleAmount = 16,
			DefringePurpleHueHi = 98,
			DefringePurpleHueLo = 56,
			EnableCalibration = true,
			EnableCircularGradientBasedCorrections = true,
			EnableColorAdjustments = true,
			EnableDetail = true,
			EnableEffects = true,
			EnableGradientBasedCorrections = true,
			EnableLensCorrections = true,
			EnableSplitToning = true,
			Exposure2012 = 0.83,
			GrainAmount = 0,
			GrainFrequency = 50,
			GrainSize = 25,
			GreenHue = -36,
			GreenSaturation = 48,
			Highlights2012 = 36,
			HueAdjustmentAqua = -2,
			HueAdjustmentBlue = 0,
			HueAdjustmentGreen = -11,
			HueAdjustmentMagenta = 2,
			HueAdjustmentOrange = -11,
			HueAdjustmentPurple = -2,
			HueAdjustmentRed = -9,
			HueAdjustmentYellow = -11,
			IncrementalTemperature = -5,
			IncrementalTint = -32,
			LensManualDistortionAmount = 0,
			LensProfileEnable = 0,
			LensProfileSetup = "LensDefaults",
			LuminanceAdjustmentAqua = 2,
			LuminanceAdjustmentBlue = 0,
			LuminanceAdjustmentGreen = 0,
			LuminanceAdjustmentMagenta = -4,
			LuminanceAdjustmentOrange = -2,
			LuminanceAdjustmentPurple = -4,
			LuminanceAdjustmentRed = 4,
			LuminanceAdjustmentYellow = -4,
			LuminanceNoiseReductionContrast = 0,
			LuminanceNoiseReductionDetail = 50,
			LuminanceSmoothing = 0,
			ParametricDarks = -44,
			ParametricHighlightSplit = 75,
			ParametricHighlights = -5,
			ParametricLights = 13,
			ParametricMidtoneSplit = 50,
			ParametricShadowSplit = 25,
			ParametricShadows = 0,
			PerspectiveAspect = 0,
			PerspectiveHorizontal = 0,
			PerspectiveRotate = 0,
			PerspectiveScale = 100,
			PerspectiveUpright = 0,
			PerspectiveVertical = 0,
			PostCropVignetteAmount = -21,
			PostCropVignetteFeather = 50,
			PostCropVignetteHighlightContrast = 0,
			PostCropVignetteMidpoint = 55,
			PostCropVignetteRoundness = 0,
			PostCropVignetteStyle = 2,
			ProcessVersion = "6.7",
			RedHue = -36,
			RedSaturation = 43,
			Saturation = -86,
			SaturationAdjustmentAqua = 2,
			SaturationAdjustmentBlue = 0,
			SaturationAdjustmentGreen = 0,
			SaturationAdjustmentMagenta = 0,
			SaturationAdjustmentOrange = 0,
			SaturationAdjustmentPurple = 0,
			SaturationAdjustmentRed = -2,
			SaturationAdjustmentYellow = 4,
			ShadowTint = -24,
			Shadows2012 = -100,
			SharpenDetail = 50,
			SharpenEdgeMasking = 0,
			SharpenRadius = 1.7,
			Sharpness = 48,
			SplitToningBalance = -19,
			SplitToningHighlightHue = 294,
			SplitToningHighlightSaturation = 97,
			SplitToningShadowHue = 42,
			SplitToningShadowSaturation = 68,
			ToneCurveName2012 = "Custom",
			ToneCurvePV2012 = {
				2,
				35,
				255,
				255,
			},
			ToneCurvePV2012Blue = {
				0,
				0,
				255,
				255,
			},
			ToneCurvePV2012Green = {
				0,
				0,
				255,
				255,
			},
			ToneCurvePV2012Red = {
				0,
				0,
				255,
				255,
			},
			Vibrance = -28,
			VignetteAmount = 0,
			VignetteMidpoint = 50,
			WhiteBalance = "Custom",
			Whites2012 = 0,
			orientation = "AB",
		},
		uuid = "8FF51EC6-6676-4B0E-AFF7-970767490F26",
	},
	version = 0,
}
