Preset Kingdom - Film Looks/11. Slight Sepia Film.lrtemplate
s = {
	id = "38467D3D-0E8D-4289-8B78-2392FF46561B",
	internalName = "Classic Sepia Film",
	title = "11. Slight Sepia Film",
	type = "Develop",
	value = {
		settings = {
			Blacks2012 = -30,
			Clarity2012 = 10,
			ColorNoiseReduction = 0,
			ColorNoiseReductionDetail = 50,
			ColorNoiseReductionSmoothness = 50,
			Contrast2012 = -15,
			ConvertToGrayscale = false,
			EnableColorAdjustments = true,
			EnableDetail = true,
			EnableEffects = true,
			EnableSplitToning = true,
			Exposure2012 = 0,
			GrainAmount = 20,
			GrainFrequency = 50,
			GrainSize = 25,
			Highlights2012 = -10,
			HueAdjustmentAqua = 0,
			HueAdjustmentBlue = 0,
			HueAdjustmentGreen = 0,
			HueAdjustmentMagenta = 0,
			HueAdjustmentOrange = 0,
			HueAdjustmentPurple = 0,
			HueAdjustmentRed = 0,
			HueAdjustmentYellow = 0,
			IncrementalTemperature = 5,
			IncrementalTint = -24,
			LuminanceAdjustmentAqua = 0,
			LuminanceAdjustmentBlue = 0,
			LuminanceAdjustmentGreen = 0,
			LuminanceAdjustmentMagenta = 0,
			LuminanceAdjustmentOrange = 0,
			LuminanceAdjustmentPurple = 0,
			LuminanceAdjustmentRed = 0,
			LuminanceAdjustmentYellow = 0,
			LuminanceNoiseReductionContrast = 0,
			LuminanceNoiseReductionDetail = 50,
			LuminanceSmoothing = 0,
			ParametricDarks = 10,
			ParametricHighlightSplit = 75,
			ParametricHighlights = 24,
			ParametricLights = -9,
			ParametricMidtoneSplit = 50,
			ParametricShadowSplit = 25,
			ParametricShadows = -9,
			PostCropVignetteAmount = 0,
			PostCropVignetteFeather = 50,
			PostCropVignetteHighlightContrast = 0,
			PostCropVignetteMidpoint = 50,
			PostCropVignetteRoundness = 0,
			PostCropVignetteStyle = 1,
			ProcessVersion = "6.7",
			Saturation = -30,
			SaturationAdjustmentAqua = 0,
			SaturationAdjustmentBlue = 0,
			SaturationAdjustmentGreen = 0,
			SaturationAdjustmentMagenta = 0,
			SaturationAdjustmentOrange = 0,
			SaturationAdjustmentPurple = 0,
			SaturationAdjustmentRed = 0,
			SaturationAdjustmentYellow = 0,
			Shadows2012 = 15,
			SharpenDetail = 25,
			SharpenEdgeMasking = 0,
			SharpenRadius = 1,
			Sharpness = 0,
			SplitToningBalance = 0,
			SplitToningHighlightHue = 45,
			SplitToningHighlightSaturation = 15,
			SplitToningShadowHue = 40,
			SplitToningShadowSaturation = 30,
			ToneCurveName2012 = "Custom",
			ToneCurvePV2012 = {
				0,
				42,
				65,
				70,
				182,
				183,
				255,
				221,
			},
			ToneCurvePV2012Blue = {
				0,
				0,
				255,
				255,
			},
			ToneCurvePV2012Green = {
				0,
				0,
				255,
				255,
			},
			ToneCurvePV2012Red = {
				0,
				0,
				125,
				130,
				255,
				255,
			},
			Vibrance = 0,
			WhiteBalance = "Custom",
			Whites2012 = 5,
		},
		uuid = "58E90DA7-CAAF-48F5-ACAB-F547109F203D",
	},
	version = 0,
}
