JAY LAY/JAY LAY - Конструктор пресетов (2014)/Presets/[Jay Lay presets] JL/1 JAY.lrtemplate
s = {
	id = "D6699643-2411-4A9A-8057-3D24C77A7F87",
	internalName = "1 JAY",
	title = "1 JAY",
	type = "Develop",
	value = {
		settings = {
			Blacks2012 = -48,
			BlueHue = -66,
			BlueSaturation = 7,
			CameraProfile = "Adobe Standard",
			Clarity2012 = -28,
			Contrast2012 = -30,
			ConvertToGrayscale = false,
			EnableCalibration = true,
			EnableColorAdjustments = true,
			EnableDetail = true,
			EnableEffects = true,
			EnableSplitToning = true,
			Exposure2012 = 0.79,
			GrainAmount = 0,
			GrainFrequency = 50,
			GrainSize = 25,
			GreenHue = -71,
			GreenSaturation = 75,
			Highlights2012 = -57,
			HueAdjustmentAqua = 62,
			HueAdjustmentBlue = -19,
			HueAdjustmentGreen = 58,
			HueAdjustmentMagenta = 0,
			HueAdjustmentOrange = -20,
			HueAdjustmentPurple = 0,
			HueAdjustmentRed = -49,
			HueAdjustmentYellow = -83,
			LuminanceAdjustmentAqua = 0,
			LuminanceAdjustmentBlue = -9,
			LuminanceAdjustmentGreen = 0,
			LuminanceAdjustmentMagenta = 28,
			LuminanceAdjustmentOrange = -19,
			LuminanceAdjustmentPurple = 0,
			LuminanceAdjustmentRed = 0,
			LuminanceAdjustmentYellow = 0,
			ParametricDarks = 0,
			ParametricHighlightSplit = 75,
			ParametricHighlights = 0,
			ParametricLights = 0,
			ParametricMidtoneSplit = 50,
			ParametricShadowSplit = 25,
			ParametricShadows = 0,
			PostCropVignetteAmount = -18,
			PostCropVignetteFeather = 50,
			PostCropVignetteHighlightContrast = 0,
			PostCropVignetteMidpoint = 30,
			PostCropVignetteRoundness = 100,
			PostCropVignetteStyle = 1,
			ProcessVersion = "6.7",
			RedHue = 43,
			RedSaturation = -84,
			Saturation = -34,
			SaturationAdjustmentAqua = 0,
			SaturationAdjustmentBlue = -40,
			SaturationAdjustmentGreen = 0,
			SaturationAdjustmentMagenta = 0,
			SaturationAdjustmentOrange = 21,
			SaturationAdjustmentPurple = 0,
			SaturationAdjustmentRed = 0,
			SaturationAdjustmentYellow = 0,
			ShadowTint = 29,
			Shadows2012 = 84,
			SharpenDetail = 25,
			SharpenEdgeMasking = 0,
			SharpenRadius = 0.5,
			Sharpness = 136,
			SplitToningBalance = -20,
			SplitToningHighlightHue = 57,
			SplitToningHighlightSaturation = 9,
			SplitToningShadowHue = 192,
			SplitToningShadowSaturation = 7,
			ToneCurveName2012 = "Custom",
			ToneCurvePV2012 = {
				0,
				15,
				71,
				46,
				180,
				181,
				255,
				227,
			},
			ToneCurvePV2012Blue = {
				0,
				0,
				255,
				255,
			},
			ToneCurvePV2012Green = {
				0,
				0,
				255,
				255,
			},
			ToneCurvePV2012Red = {
				0,
				0,
				255,
				255,
			},
			Vibrance = 36,
			Whites2012 = 25,
		},
		uuid = "7BA5F4F6-4BA5-417E-8B1B-08B7A5527AE9",
	},
	version = 0,
}
