JAY LAY/JAY LAY - Конструктор пресетов (2014)/Presets/[Jay Lay presets] JL/JAY LAY_FILM COLORS PRESET.lrtemplate
s = {
	id = "C80B3318-5F35-4524-A8C8-2599B8074C1F",
	internalName = "JAY LAY_FILM COLORS PRESET",
	title = "JAY LAY_FILM COLORS PRESET",
	type = "Develop",
	value = {
		settings = {
			Blacks2012 = 63,
			BlueHue = -46,
			BlueSaturation = -100,
			CameraProfile = "Adobe Standard",
			Clarity2012 = -16,
			ColorNoiseReduction = 25,
			ColorNoiseReductionDetail = 50,
			ColorNoiseReductionSmoothness = 50,
			Contrast2012 = -8,
			ConvertToGrayscale = false,
			EnableCalibration = true,
			EnableColorAdjustments = true,
			EnableDetail = true,
			EnableEffects = true,
			EnableSplitToning = true,
			Exposure2012 = 0.48,
			GrainAmount = 20,
			GrainFrequency = 50,
			GrainSize = 12,
			GreenHue = 100,
			GreenSaturation = 72,
			Highlights2012 = -37,
			HueAdjustmentAqua = 19,
			HueAdjustmentBlue = 48,
			HueAdjustmentGreen = 0,
			HueAdjustmentMagenta = 0,
			HueAdjustmentOrange = 8,
			HueAdjustmentPurple = 0,
			HueAdjustmentRed = -7,
			HueAdjustmentYellow = 0,
			LuminanceAdjustmentAqua = 0,
			LuminanceAdjustmentBlue = -8,
			LuminanceAdjustmentGreen = 0,
			LuminanceAdjustmentMagenta = 0,
			LuminanceAdjustmentOrange = 0,
			LuminanceAdjustmentPurple = 0,
			LuminanceAdjustmentRed = 0,
			LuminanceAdjustmentYellow = 0,
			LuminanceNoiseReductionContrast = 0,
			LuminanceNoiseReductionDetail = 50,
			LuminanceSmoothing = 0,
			ParametricDarks = 0,
			ParametricHighlightSplit = 75,
			ParametricHighlights = 0,
			ParametricLights = 0,
			ParametricMidtoneSplit = 50,
			ParametricShadowSplit = 25,
			ParametricShadows = 0,
			PostCropVignetteAmount = 0,
			PostCropVignetteFeather = 50,
			PostCropVignetteHighlightContrast = 0,
			PostCropVignetteMidpoint = 50,
			PostCropVignetteRoundness = 0,
			PostCropVignetteStyle = 1,
			ProcessVersion = "6.7",
			RedHue = 52,
			RedSaturation = -34,
			Saturation = -15,
			SaturationAdjustmentAqua = 0,
			SaturationAdjustmentBlue = 0,
			SaturationAdjustmentGreen = 0,
			SaturationAdjustmentMagenta = 0,
			SaturationAdjustmentOrange = 0,
			SaturationAdjustmentPurple = 0,
			SaturationAdjustmentRed = -26,
			SaturationAdjustmentYellow = 0,
			ShadowTint = -4,
			Shadows2012 = 25,
			SharpenDetail = 25,
			SharpenEdgeMasking = 0,
			SharpenRadius = 0.5,
			Sharpness = 101,
			SplitToningBalance = 0,
			SplitToningHighlightHue = 0,
			SplitToningHighlightSaturation = 0,
			SplitToningShadowHue = 0,
			SplitToningShadowSaturation = 0,
			Temperature = 5352,
			Tint = -18,
			ToneCurveName2012 = "Custom",
			ToneCurvePV2012 = {
				0,
				0,
				80,
				50,
				124,
				116,
				187,
				202,
				255,
				220,
			},
			ToneCurvePV2012Blue = {
				0,
				4,
				48,
				48,
				101,
				101,
				255,
				255,
			},
			ToneCurvePV2012Green = {
				0,
				0,
				255,
				255,
			},
			ToneCurvePV2012Red = {
				0,
				0,
				255,
				255,
			},
			Vibrance = 0,
			WhiteBalance = "Custom",
			Whites2012 = 13,
		},
		uuid = "C1902E50-94F9-4F27-8FA0-DDC697EFFE67",
	},
	version = 0,
}
