JAY LAY/JAY LAY - Конструктор пресетов (2014)/Presets/[Jay Lay presets] JL/preset 8 (toning).lrtemplate
s = {
	id = "8B888557-0903-4EBA-A34F-883F7CB849C6",
	internalName = "preset 8 (toning)",
	title = "preset 8 (toning)",
	type = "Develop",
	value = {
		settings = {
			AutoLateralCA = 0,
			Blacks2012 = 25,
			BlueHue = -28,
			BlueSaturation = 5,
			CameraProfile = "Adobe Standard",
			ChromaticAberrationB = 0,
			ChromaticAberrationR = 0,
			Clarity2012 = 0,
			ColorNoiseReduction = 25,
			ColorNoiseReductionDetail = 50,
			ColorNoiseReductionSmoothness = 50,
			Contrast2012 = 0,
			ConvertToGrayscale = false,
			CropConstrainToWarp = 0,
			Defringe = 0,
			DefringeGreenAmount = 0,
			DefringeGreenHueHi = 60,
			DefringeGreenHueLo = 40,
			DefringePurpleAmount = 0,
			DefringePurpleHueHi = 70,
			DefringePurpleHueLo = 30,
			EnableCalibration = true,
			EnableCircularGradientBasedCorrections = true,
			EnableColorAdjustments = true,
			EnableDetail = true,
			EnableEffects = true,
			EnableGradientBasedCorrections = true,
			EnableLensCorrections = true,
			EnableSplitToning = true,
			Exposure2012 = 0,
			GrainAmount = 16,
			GrainFrequency = 50,
			GrainSize = 30,
			GreenHue = 49,
			GreenSaturation = 0,
			Highlights2012 = -20,
			HueAdjustmentAqua = 76,
			HueAdjustmentBlue = -10,
			HueAdjustmentGreen = 30,
			HueAdjustmentMagenta = 20,
			HueAdjustmentOrange = 2,
			HueAdjustmentPurple = 15,
			HueAdjustmentRed = 15,
			HueAdjustmentYellow = 15,
			LensManualDistortionAmount = 0,
			LensProfileEnable = 0,
			LensProfileSetup = "LensDefaults",
			LuminanceAdjustmentAqua = -10,
			LuminanceAdjustmentBlue = -30,
			LuminanceAdjustmentGreen = -15,
			LuminanceAdjustmentMagenta = -10,
			LuminanceAdjustmentOrange = -8,
			LuminanceAdjustmentPurple = -10,
			LuminanceAdjustmentRed = -15,
			LuminanceAdjustmentYellow = 0,
			LuminanceNoiseReductionContrast = 0,
			LuminanceNoiseReductionDetail = 50,
			LuminanceSmoothing = 0,
			ParametricDarks = 0,
			ParametricHighlightSplit = 75,
			ParametricHighlights = 0,
			ParametricLights = 0,
			ParametricMidtoneSplit = 50,
			ParametricShadowSplit = 25,
			ParametricShadows = 0,
			PerspectiveAspect = 0,
			PerspectiveHorizontal = 0,
			PerspectiveRotate = 0,
			PerspectiveScale = 100,
			PerspectiveUpright = 0,
			PerspectiveVertical = 0,
			PostCropVignetteAmount = 0,
			PostCropVignetteFeather = 50,
			PostCropVignetteHighlightContrast = 0,
			PostCropVignetteMidpoint = 50,
			PostCropVignetteRoundness = 0,
			PostCropVignetteStyle = 1,
			ProcessVersion = "6.7",
			RedHue = 28,
			RedSaturation = 0,
			Saturation = 5,
			SaturationAdjustmentAqua = -30,
			SaturationAdjustmentBlue = -20,
			SaturationAdjustmentGreen = -50,
			SaturationAdjustmentMagenta = -25,
			SaturationAdjustmentOrange = -4,
			SaturationAdjustmentPurple = -30,
			SaturationAdjustmentRed = -10,
			SaturationAdjustmentYellow = -5,
			ShadowTint = 0,
			Shadows2012 = 25,
			SharpenDetail = 25,
			SharpenEdgeMasking = 0,
			SharpenRadius = 1,
			Sharpness = 150,
			SplitToningBalance = 94,
			SplitToningHighlightHue = 57,
			SplitToningHighlightSaturation = 9,
			SplitToningShadowHue = 201,
			SplitToningShadowSaturation = 6,
			Temperature = 4743,
			Tint = 0,
			ToneCurveName2012 = "Custom",
			ToneCurvePV2012 = {
				0,
				19,
				52,
				55,
				115,
				138,
				201,
				209,
				255,
				249,
			},
			ToneCurvePV2012Blue = {
				0,
				18,
				46,
				31,
				130,
				130,
				183,
				190,
				255,
				251,
			},
			ToneCurvePV2012Green = {
				0,
				11,
				44,
				30,
				127,
				129,
				177,
				185,
				255,
				255,
			},
			ToneCurvePV2012Red = {
				0,
				0,
				45,
				32,
				87,
				76,
				127,
				129,
				178,
				189,
				255,
				255,
			},
			Vibrance = 0,
			VignetteAmount = 0,
			VignetteMidpoint = 50,
			WhiteBalance = "Custom",
			Whites2012 = -10,
			orientation = "BA",
		},
		uuid = "AD428656-B8D6-44F7-A2B6-4D3448E19DD2",
	},
	version = 0,
}
