Ivan Gorokhov - 85 Lightroom n ACR Presets/85 LR PRESETS AND 25 PRESETS FOR ADOBE CAMERA RAW 2015/85 LR presets and top 25 ACR  + (video Example)/13.lrtemplate
s = {
	id = "5F9BA3BE-FF23-49E6-83D3-1E3F7CC0C01D",
	internalName = "09",
	title = "09",
	type = "Develop",
	value = {
		settings = {
			AutoLateralCA = 0,
			Blacks2012 = -78,
			BlueHue = 0,
			BlueSaturation = 48,
			CameraProfile = "Adobe Standard",
			ChromaticAberrationB = 0,
			ChromaticAberrationR = 0,
			Clarity2012 = -2,
			ColorNoiseReduction = 25,
			ColorNoiseReductionDetail = 50,
			Contrast2012 = -48,
			ConvertToGrayscale = false,
			CropConstrainToWarp = 0,
			Defringe = 0,
			DefringeGreenAmount = 0,
			DefringeGreenHueHi = 60,
			DefringeGreenHueLo = 40,
			DefringePurpleAmount = 0,
			DefringePurpleHueHi = 70,
			DefringePurpleHueLo = 30,
			EnableCalibration = true,
			EnableColorAdjustments = true,
			EnableDetail = true,
			EnableEffects = true,
			EnableGradientBasedCorrections = true,
			EnableLensCorrections = true,
			EnableSplitToning = false,
			Exposure2012 = 0.29,
			GrainAmount = 0,
			GrainFrequency = 50,
			GrainSize = 25,
			GreenHue = 7,
			GreenSaturation = 57,
			Highlights2012 = -100,
			HueAdjustmentAqua = -2,
			HueAdjustmentBlue = 3,
			HueAdjustmentGreen = -100,
			HueAdjustmentMagenta = 100,
			HueAdjustmentOrange = 11,
			HueAdjustmentPurple = 0,
			HueAdjustmentRed = -23,
			HueAdjustmentYellow = -48,
			IncrementalTemperature = 17,
			IncrementalTint = -18,
			LensManualDistortionAmount = 0,
			LensProfileEnable = 0,
			LensProfileSetup = "LensDefaults",
			LuminanceAdjustmentAqua = 0,
			LuminanceAdjustmentBlue = 4,
			LuminanceAdjustmentGreen = -7,
			LuminanceAdjustmentMagenta = 0,
			LuminanceAdjustmentOrange = 7,
			LuminanceAdjustmentPurple = 0,
			LuminanceAdjustmentRed = 22,
			LuminanceAdjustmentYellow = -19,
			LuminanceNoiseReductionContrast = 0,
			LuminanceNoiseReductionDetail = 50,
			LuminanceSmoothing = 0,
			ParametricDarks = -7,
			ParametricHighlightSplit = 75,
			ParametricHighlights = -7,
			ParametricLights = 0,
			ParametricMidtoneSplit = 50,
			ParametricShadowSplit = 25,
			ParametricShadows = 19,
			PerspectiveHorizontal = 0,
			PerspectiveRotate = 0,
			PerspectiveScale = 100,
			PerspectiveVertical = 0,
			PostCropVignetteAmount = -33,
			PostCropVignetteFeather = 100,
			PostCropVignetteHighlightContrast = 0,
			PostCropVignetteMidpoint = 3,
			PostCropVignetteRoundness = -21,
			PostCropVignetteStyle = 1,
			ProcessVersion = "6.7",
			RedHue = 0,
			RedSaturation = -80,
			Saturation = -12,
			SaturationAdjustmentAqua = -12,
			SaturationAdjustmentBlue = -43,
			SaturationAdjustmentGreen = -49,
			SaturationAdjustmentMagenta = -64,
			SaturationAdjustmentOrange = -7,
			SaturationAdjustmentPurple = 0,
			SaturationAdjustmentRed = -3,
			SaturationAdjustmentYellow = 42,
			ShadowTint = -51,
			Shadows2012 = 100,
			SharpenDetail = 25,
			SharpenEdgeMasking = 0,
			SharpenRadius = 3,
			Sharpness = 23,
			SplitToningBalance = -64,
			SplitToningHighlightHue = 176,
			SplitToningHighlightSaturation = 9,
			SplitToningShadowHue = 37,
			SplitToningShadowSaturation = 8,
			ToneCurveName2012 = "Custom",
			ToneCurvePV2012 = {
				0,
				31,
				83,
				54,
				192,
				178,
				255,
				212,
			},
			ToneCurvePV2012Blue = {
				0,
				10,
				68,
				68,
				193,
				193,
				255,
				238,
			},
			ToneCurvePV2012Green = {
				0,
				10,
				65,
				66,
				198,
				199,
				255,
				243,
			},
			ToneCurvePV2012Red = {
				0,
				10,
				68,
				69,
				191,
				187,
				255,
				238,
			},
			Vibrance = 48,
			VignetteAmount = 0,
			VignetteMidpoint = 50,
			WhiteBalance = "Custom",
			Whites2012 = 19,
			orientation = "AB",
		},
		uuid = "C4314F55-9408-413A-B5D4-2D6B52824696",
	},
	version = 0,
}
