Ivan Gorokhov - 85 Lightroom n ACR Presets/85 LR PRESETS AND 25 PRESETS FOR ADOBE CAMERA RAW 2015/85 LR presets and top 25 ACR  + (video Example)/5.lrtemplate
s = {
	id = "5CD30E5E-62B6-4CEC-A1CD-4C8D92F0F56F",
	internalName = "5",
	title = "5",
	type = "Develop",
	value = {
		settings = {
			AutoLateralCA = 0,
			Blacks2012 = -75,
			BlueHue = 0,
			BlueSaturation = 35,
			CameraProfile = "Adobe Standard",
			ChromaticAberrationB = 0,
			ChromaticAberrationR = 0,
			Clarity2012 = 45,
			ColorNoiseReduction = 25,
			ColorNoiseReductionDetail = 50,
			Contrast2012 = -32,
			ConvertToGrayscale = false,
			CropConstrainToWarp = 0,
			Defringe = 0,
			DefringeGreenAmount = 0,
			DefringeGreenHueHi = 60,
			DefringeGreenHueLo = 40,
			DefringePurpleAmount = 0,
			DefringePurpleHueHi = 70,
			DefringePurpleHueLo = 30,
			EnableCalibration = true,
			EnableColorAdjustments = true,
			EnableDetail = true,
			EnableEffects = true,
			EnableGradientBasedCorrections = true,
			EnableLensCorrections = true,
			EnableSplitToning = false,
			Exposure2012 = 0.3,
			GrainAmount = 0,
			GrainFrequency = 50,
			GrainSize = 25,
			GreenHue = 0,
			GreenSaturation = 41,
			Highlights2012 = -100,
			HueAdjustmentAqua = 16,
			HueAdjustmentBlue = 17,
			HueAdjustmentGreen = 8,
			HueAdjustmentMagenta = 100,
			HueAdjustmentOrange = -9,
			HueAdjustmentPurple = 0,
			HueAdjustmentRed = -15,
			HueAdjustmentYellow = -100,
			IncrementalTemperature = 11,
			IncrementalTint = -8,
			LensManualDistortionAmount = 0,
			LensProfileEnable = 0,
			LensProfileSetup = "LensDefaults",
			LuminanceAdjustmentAqua = 0,
			LuminanceAdjustmentBlue = -5,
			LuminanceAdjustmentGreen = 31,
			LuminanceAdjustmentMagenta = 0,
			LuminanceAdjustmentOrange = 12,
			LuminanceAdjustmentPurple = 0,
			LuminanceAdjustmentRed = 0,
			LuminanceAdjustmentYellow = -36,
			LuminanceNoiseReductionContrast = 0,
			LuminanceNoiseReductionDetail = 50,
			LuminanceSmoothing = 0,
			ParametricDarks = -3,
			ParametricHighlightSplit = 75,
			ParametricHighlights = -8,
			ParametricLights = 8,
			ParametricMidtoneSplit = 50,
			ParametricShadowSplit = 25,
			ParametricShadows = 23,
			PerspectiveAspect = 0,
			PerspectiveHorizontal = 0,
			PerspectiveRotate = 0,
			PerspectiveScale = 100,
			PerspectiveVertical = 0,
			PostCropVignetteAmount = -34,
			PostCropVignetteFeather = 100,
			PostCropVignetteHighlightContrast = 0,
			PostCropVignetteMidpoint = 9,
			PostCropVignetteRoundness = 0,
			PostCropVignetteStyle = 1,
			ProcessVersion = "6.7",
			RedHue = 0,
			RedSaturation = -80,
			Saturation = -23,
			SaturationAdjustmentAqua = -100,
			SaturationAdjustmentBlue = -62,
			SaturationAdjustmentGreen = 12,
			SaturationAdjustmentMagenta = -64,
			SaturationAdjustmentOrange = -2,
			SaturationAdjustmentPurple = 0,
			SaturationAdjustmentRed = -6,
			SaturationAdjustmentYellow = -100,
			ShadowTint = 21,
			Shadows2012 = 100,
			SharpenDetail = 25,
			SharpenEdgeMasking = 0,
			SharpenRadius = 3,
			Sharpness = 109,
			SplitToningBalance = -64,
			SplitToningHighlightHue = 176,
			SplitToningHighlightSaturation = 9,
			SplitToningShadowHue = 37,
			SplitToningShadowSaturation = 8,
			ToneCurveName2012 = "Custom",
			ToneCurvePV2012 = {
				0,
				31,
				83,
				54,
				192,
				178,
				255,
				212,
			},
			ToneCurvePV2012Blue = {
				0,
				10,
				68,
				68,
				193,
				193,
				255,
				238,
			},
			ToneCurvePV2012Green = {
				0,
				10,
				65,
				66,
				198,
				199,
				255,
				243,
			},
			ToneCurvePV2012Red = {
				0,
				10,
				68,
				69,
				191,
				187,
				255,
				238,
			},
			Vibrance = 62,
			VignetteAmount = 0,
			VignetteMidpoint = 50,
			WhiteBalance = "Custom",
			Whites2012 = -20,
			orientation = "AB",
		},
		uuid = "B87481C2-4796-4690-86BD-6D10C9EE9065",
	},
	version = 0,
}
