PhotoSerge Lightroom Presets Collection Vol. 1-8 Bundle (LR)_DiTim/08-Lightroom-Presets-Volume-7-Fall/08-Lightroom-Presets-Volume-7-Fall/PhotoSerge-Vol 7 Fall/Tone- Cold Leaves.lrtemplate
s = {
	id = "01D272ED-BAB7-4021-802C-95E794652D56",
	internalName = "Cold leaves",
	title = "Tone: Cold Leaves",
	type = "Develop",
	value = {
		settings = {
			AutoLateralCA = 0,
			Blacks2012 = -84,
			BlueHue = 0,
			BlueSaturation = 0,
			CameraProfile = "Adobe Standard",
			ChromaticAberrationB = 0,
			ChromaticAberrationR = 0,
			Clarity2012 = -62,
			ColorNoiseReduction = 25,
			ColorNoiseReductionDetail = 50,
			ColorNoiseReductionSmoothness = 50,
			Contrast2012 = 19,
			ConvertToGrayscale = false,
			CropConstrainToWarp = 0,
			Defringe = 0,
			DefringeGreenAmount = 0,
			DefringeGreenHueHi = 60,
			DefringeGreenHueLo = 40,
			DefringePurpleAmount = 0,
			DefringePurpleHueHi = 70,
			DefringePurpleHueLo = 30,
			EnableCalibration = true,
			EnableCircularGradientBasedCorrections = true,
			EnableColorAdjustments = true,
			EnableDetail = true,
			EnableEffects = true,
			EnableGradientBasedCorrections = true,
			EnableLensCorrections = true,
			EnableSplitToning = true,
			Exposure2012 = 0.4,
			GrainAmount = 0,
			GrainFrequency = 49,
			GrainSize = 10,
			GreenHue = 0,
			GreenSaturation = 0,
			Highlights2012 = -100,
			HueAdjustmentAqua = 0,
			HueAdjustmentBlue = -29,
			HueAdjustmentGreen = -69,
			HueAdjustmentMagenta = 0,
			HueAdjustmentOrange = -34,
			HueAdjustmentPurple = 0,
			HueAdjustmentRed = -44,
			HueAdjustmentYellow = -65,
			IncrementalTemperature = -67,
			IncrementalTint = -10,
			LensManualDistortionAmount = 0,
			LensProfileEnable = 0,
			LensProfileSetup = "LensDefaults",
			LuminanceAdjustmentAqua = -14,
			LuminanceAdjustmentBlue = -12,
			LuminanceAdjustmentGreen = 8,
			LuminanceAdjustmentMagenta = 0,
			LuminanceAdjustmentOrange = 0,
			LuminanceAdjustmentPurple = -13,
			LuminanceAdjustmentRed = -26,
			LuminanceAdjustmentYellow = -6,
			LuminanceNoiseReductionContrast = 0,
			LuminanceNoiseReductionDetail = 50,
			LuminanceSmoothing = 0,
			ParametricDarks = 0,
			ParametricHighlightSplit = 75,
			ParametricHighlights = 0,
			ParametricLights = 0,
			ParametricMidtoneSplit = 50,
			ParametricShadowSplit = 25,
			ParametricShadows = 0,
			PerspectiveAspect = 0,
			PerspectiveHorizontal = 0,
			PerspectiveRotate = 0,
			PerspectiveScale = 100,
			PerspectiveUpright = 0,
			PerspectiveVertical = 0,
			PostCropVignetteAmount = 0,
			PostCropVignetteFeather = 50,
			PostCropVignetteHighlightContrast = 0,
			PostCropVignetteMidpoint = 50,
			PostCropVignetteRoundness = 0,
			PostCropVignetteStyle = 1,
			ProcessVersion = "6.7",
			RedHue = 0,
			RedSaturation = 0,
			Saturation = -45,
			SaturationAdjustmentAqua = 0,
			SaturationAdjustmentBlue = -60,
			SaturationAdjustmentGreen = -7,
			SaturationAdjustmentMagenta = 7,
			SaturationAdjustmentOrange = 0,
			SaturationAdjustmentPurple = 4,
			SaturationAdjustmentRed = 0,
			SaturationAdjustmentYellow = 0,
			ShadowTint = 0,
			Shadows2012 = 76,
			SharpenDetail = 35,
			SharpenEdgeMasking = 0,
			SharpenRadius = 0.8,
			Sharpness = 50,
			SplitToningBalance = 0,
			SplitToningHighlightHue = 219,
			SplitToningHighlightSaturation = 58,
			SplitToningShadowHue = 0,
			SplitToningShadowSaturation = 38,
			ToneCurveName2012 = "Custom",
			ToneCurvePV2012 = {
				19,
				0,
				77,
				54,
				129,
				127,
				176,
				206,
				236,
				255,
			},
			ToneCurvePV2012Blue = {
				0,
				0,
				255,
				255,
			},
			ToneCurvePV2012Green = {
				0,
				0,
				255,
				255,
			},
			ToneCurvePV2012Red = {
				0,
				0,
				255,
				255,
			},
			Vibrance = 30,
			VignetteAmount = 0,
			VignetteMidpoint = 50,
			WhiteBalance = "Custom",
			Whites2012 = -45,
			orientation = "AB",
		},
		uuid = "D4570037-C69E-4B07-BEC0-A18BCDEF2FA7",
	},
	version = 0,
}
