Complete Preset Bundle for Lightroom/Complete Preset Bundle by Gabha/BW Sandalwood.lrtemplate
s = {
	id = "19F10DF6-C1E4-4184-B67B-BAFCE778935C",
	internalName = "BW Sandlewood",
	title = "BW Sandalwood",
	type = "Develop",
	value = {
		settings = {
			Blacks2012 = -29,
			Clarity2012 = 0,
			Contrast2012 = 12,
			ConvertToGrayscale = true,
			EnableEffects = true,
			EnableGrayscaleMix = true,
			EnableSplitToning = true,
			GrayMixerAqua = -18,
			GrayMixerBlue = 11,
			GrayMixerGreen = -27,
			GrayMixerMagenta = 4,
			GrayMixerOrange = -19,
			GrayMixerPurple = 16,
			GrayMixerRed = -10,
			GrayMixerYellow = -23,
			Highlights2012 = -10,
			ParametricDarks = 0,
			ParametricHighlightSplit = 75,
			ParametricHighlights = 0,
			ParametricLights = 0,
			ParametricMidtoneSplit = 50,
			ParametricShadowSplit = 25,
			ParametricShadows = 0,
			PostCropVignetteAmount = -9,
			PostCropVignetteFeather = 50,
			PostCropVignetteHighlightContrast = 0,
			PostCropVignetteMidpoint = 50,
			PostCropVignetteRoundness = 0,
			PostCropVignetteStyle = 1,
			ProcessVersion = "6.7",
			Shadows2012 = 18,
			SplitToningBalance = 0,
			SplitToningHighlightHue = 235,
			SplitToningHighlightSaturation = 44,
			SplitToningShadowHue = 42,
			SplitToningShadowSaturation = 60,
			ToneCurveName2012 = "Strong Contrast",
			ToneCurvePV2012 = {
				0,
				0,
				32,
				16,
				64,
				50,
				128,
				128,
				192,
				202,
				255,
				255,
			},
			ToneCurvePV2012Blue = {
				0,
				0,
				255,
				255,
			},
			ToneCurvePV2012Green = {
				0,
				0,
				255,
				255,
			},
			ToneCurvePV2012Red = {
				0,
				0,
				255,
				255,
			},
		},
		uuid = "F628144E-957E-4036-BD84-4582A4A0493C",
	},
	version = 0,
}
