Complete Preset Bundle for Lightroom/Complete Preset Bundle by Gabha/Cinema.lrtemplate
s = {
	id = "13DDFB2B-C7F5-43EF-87A6-2A68E0A0AC61",
	internalName = "2",
	title = "Cinema",
	type = "Develop",
	value = {
		settings = {
			EnableEffects = true,
			ParametricDarks = 0,
			ParametricHighlightSplit = 75,
			ParametricHighlights = 0,
			ParametricLights = 0,
			ParametricMidtoneSplit = 50,
			ParametricShadowSplit = 25,
			ParametricShadows = 0,
			PostCropVignetteAmount = -14,
			PostCropVignetteFeather = 50,
			PostCropVignetteHighlightContrast = 0,
			PostCropVignetteMidpoint = 50,
			PostCropVignetteRoundness = 0,
			PostCropVignetteStyle = 1,
			ProcessVersion = "6.7",
			ToneCurveName2012 = "Custom",
			ToneCurvePV2012 = {
				0,
				0,
				255,
				255,
			},
			ToneCurvePV2012Blue = {
				0,
				0,
				69,
				87,
				179,
				206,
				255,
				255,
			},
			ToneCurvePV2012Green = {
				0,
				0,
				53,
				57,
				184,
				187,
				255,
				255,
			},
			ToneCurvePV2012Red = {
				0,
				0,
				60,
				82,
				174,
				193,
				255,
				255,
			},
		},
		uuid = "4ABAFB81-6712-4BF2-9C74-DA0F7CCD1C9D",
	},
	version = 0,
}
