Complete Preset Bundle for Lightroom/Complete Preset Bundle by Gabha/Frosty.lrtemplate
s = {
	id = "E3CD247B-8E82-4B4E-B6A6-D09A54356E40",
	internalName = "6",
	title = "Frosty",
	type = "Develop",
	value = {
		settings = {
			Contrast2012 = -30,
			EnableEffects = true,
			ParametricDarks = 0,
			ParametricHighlightSplit = 75,
			ParametricHighlights = 0,
			ParametricLights = 0,
			ParametricMidtoneSplit = 50,
			ParametricShadowSplit = 25,
			ParametricShadows = 0,
			PostCropVignetteAmount = -24,
			PostCropVignetteFeather = 60,
			PostCropVignetteHighlightContrast = 0,
			PostCropVignetteMidpoint = 38,
			PostCropVignetteRoundness = 0,
			PostCropVignetteStyle = 1,
			ProcessVersion = "6.7",
			ToneCurveName2012 = "Custom",
			ToneCurvePV2012 = {
				0,
				0,
				114,
				134,
				255,
				255,
			},
			ToneCurvePV2012Blue = {
				0,
				0,
				255,
				255,
			},
			ToneCurvePV2012Green = {
				0,
				0,
				131,
				119,
				255,
				255,
			},
			ToneCurvePV2012Red = {
				0,
				0,
				86,
				66,
				192,
				189,
				255,
				255,
			},
		},
		uuid = "5DE13D77-6D98-4FF4-90B3-7210B0315F65",
	},
	version = 0,
}
