Complete Preset Bundle for Lightroom/Complete Preset Bundle by Gabha/HDR Like.lrtemplate
s = {
	id = "E4003F4D-65E1-45D7-9E08-9413047DA76D",
	internalName = "HDR Like",
	title = "HDR Like",
	type = "Develop",
	value = {
		settings = {
			Blacks2012 = -50,
			Clarity2012 = 50,
			Contrast2012 = 0,
			ConvertToGrayscale = false,
			EnableColorAdjustments = true,
			Exposure2012 = 0,
			Highlights2012 = -70,
			HueAdjustmentAqua = 0,
			HueAdjustmentBlue = 0,
			HueAdjustmentGreen = 0,
			HueAdjustmentMagenta = 0,
			HueAdjustmentOrange = 0,
			HueAdjustmentPurple = 0,
			HueAdjustmentRed = 0,
			HueAdjustmentYellow = 0,
			LuminanceAdjustmentAqua = 0,
			LuminanceAdjustmentBlue = 0,
			LuminanceAdjustmentGreen = 0,
			LuminanceAdjustmentMagenta = 0,
			LuminanceAdjustmentOrange = 0,
			LuminanceAdjustmentPurple = 0,
			LuminanceAdjustmentRed = 0,
			LuminanceAdjustmentYellow = 0,
			ProcessVersion = "6.7",
			Saturation = 8,
			SaturationAdjustmentAqua = 0,
			SaturationAdjustmentBlue = 0,
			SaturationAdjustmentGreen = 0,
			SaturationAdjustmentMagenta = 0,
			SaturationAdjustmentOrange = 0,
			SaturationAdjustmentPurple = 0,
			SaturationAdjustmentRed = 0,
			SaturationAdjustmentYellow = 0,
			Shadows2012 = 60,
			Vibrance = 25,
			Whites2012 = 20,
		},
		uuid = "D8B8724F-FE74-43CA-A1EF-B7D3673D4351",
	},
	version = 0,
}
