Complete Preset Bundle for Lightroom/Complete Preset Bundle by Gabha/High Noon.lrtemplate
s = {
	id = "36282ED1-A894-4450-AB50-D1DBFC477258",
	internalName = "High Noon",
	title = "High Noon",
	type = "Develop",
	value = {
		settings = {
			Blacks2012 = -16,
			Clarity2012 = 18,
			Contrast2012 = 30,
			ConvertToGrayscale = false,
			EnableColorAdjustments = true,
			EnableEffects = true,
			Highlights2012 = -85,
			HueAdjustmentAqua = 0,
			HueAdjustmentBlue = 0,
			HueAdjustmentGreen = 0,
			HueAdjustmentMagenta = 0,
			HueAdjustmentOrange = 0,
			HueAdjustmentPurple = 0,
			HueAdjustmentRed = 0,
			HueAdjustmentYellow = 0,
			LuminanceAdjustmentAqua = 0,
			LuminanceAdjustmentBlue = 0,
			LuminanceAdjustmentGreen = 0,
			LuminanceAdjustmentMagenta = 0,
			LuminanceAdjustmentOrange = 0,
			LuminanceAdjustmentPurple = 0,
			LuminanceAdjustmentRed = 0,
			LuminanceAdjustmentYellow = 0,
			ParametricDarks = 0,
			ParametricHighlightSplit = 75,
			ParametricHighlights = 0,
			ParametricLights = 0,
			ParametricMidtoneSplit = 50,
			ParametricShadowSplit = 25,
			ParametricShadows = 0,
			PostCropVignetteAmount = 0,
			PostCropVignetteFeather = 50,
			PostCropVignetteHighlightContrast = 0,
			PostCropVignetteMidpoint = 50,
			PostCropVignetteRoundness = 0,
			PostCropVignetteStyle = 1,
			ProcessVersion = "6.7",
			Saturation = 8,
			SaturationAdjustmentAqua = 0,
			SaturationAdjustmentBlue = 0,
			SaturationAdjustmentGreen = 0,
			SaturationAdjustmentMagenta = 0,
			SaturationAdjustmentOrange = 0,
			SaturationAdjustmentPurple = 0,
			SaturationAdjustmentRed = 0,
			SaturationAdjustmentYellow = 0,
			Shadows2012 = 55,
			ToneCurveName2012 = "Custom",
			ToneCurvePV2012 = {
				0,
				0,
				34,
				22,
				67,
				54,
				124,
				131,
				185,
				204,
				255,
				255,
			},
			ToneCurvePV2012Blue = {
				0,
				0,
				255,
				255,
			},
			ToneCurvePV2012Green = {
				0,
				0,
				255,
				255,
			},
			ToneCurvePV2012Red = {
				0,
				0,
				255,
				255,
			},
			Vibrance = 16,
			WhiteBalance = "As Shot",
			Whites2012 = 0,
		},
		uuid = "93E039D0-4063-4409-8BC9-3FCBEF6686DB",
	},
	version = 0,
}
