Complete Preset Bundle for Lightroom/Complete Preset Bundle by Gabha/Lomographic 1.lrtemplate
s = {
	id = "AC8E9B9A-1AC4-4459-A629-7721E39C90EE",
	internalName = "Lomographic 1",
	title = "Lomographic 1",
	type = "Develop",
	value = {
		settings = {
			EnableEffects = true,
			ParametricDarks = 0,
			ParametricHighlightSplit = 75,
			ParametricHighlights = 0,
			ParametricLights = 0,
			ParametricMidtoneSplit = 50,
			ParametricShadowSplit = 25,
			ParametricShadows = 0,
			PostCropVignetteAmount = -23,
			PostCropVignetteFeather = 78,
			PostCropVignetteHighlightContrast = 0,
			PostCropVignetteMidpoint = 50,
			PostCropVignetteRoundness = 0,
			PostCropVignetteStyle = 1,
			ProcessVersion = "6.7",
			ToneCurveName2012 = "Custom",
			ToneCurvePV2012 = {
				0,
				0,
				32,
				22,
				64,
				56,
				128,
				128,
				192,
				196,
				255,
				255,
			},
			ToneCurvePV2012Blue = {
				0,
				0,
				140,
				93,
				192,
				177,
				255,
				255,
			},
			ToneCurvePV2012Green = {
				0,
				0,
				100,
				137,
				205,
				190,
				255,
				255,
			},
			ToneCurvePV2012Red = {
				0,
				0,
				255,
				255,
			},
		},
		uuid = "1AED0BA0-B06A-4731-B588-7913AF4DFE35",
	},
	version = 0,
}
