Complete Preset Bundle for Lightroom/Complete Preset Bundle by Gabha/The Valiant (Strong).lrtemplate
s = {
	id = "B3AA808F-B6C4-4FE0-9EE6-2B48520C412F",
	internalName = "The Valiant (Strong)",
	title = "The Valiant (Strong)",
	type = "Develop",
	value = {
		settings = {
			Blacks2012 = -6,
			Clarity2012 = -5,
			Contrast2012 = -23,
			ConvertToGrayscale = false,
			EnableEffects = true,
			EnableSplitToning = true,
			Highlights2012 = -25,
			ParametricDarks = 0,
			ParametricHighlightSplit = 75,
			ParametricHighlights = 0,
			ParametricLights = 0,
			ParametricMidtoneSplit = 50,
			ParametricShadowSplit = 25,
			ParametricShadows = 0,
			PostCropVignetteAmount = -49,
			PostCropVignetteFeather = 59,
			PostCropVignetteHighlightContrast = 0,
			PostCropVignetteMidpoint = 54,
			PostCropVignetteRoundness = -22,
			PostCropVignetteStyle = 1,
			ProcessVersion = "6.7",
			Saturation = -75,
			Shadows2012 = 35,
			SplitToningBalance = -14,
			SplitToningHighlightHue = 94,
			SplitToningHighlightSaturation = 44,
			SplitToningShadowHue = 77,
			SplitToningShadowSaturation = 41,
			ToneCurveName2012 = "Strong Contrast",
			ToneCurvePV2012 = {
				0,
				0,
				32,
				16,
				64,
				50,
				128,
				128,
				192,
				202,
				255,
				255,
			},
			ToneCurvePV2012Blue = {
				0,
				0,
				255,
				255,
			},
			ToneCurvePV2012Green = {
				0,
				0,
				255,
				255,
			},
			ToneCurvePV2012Red = {
				0,
				0,
				255,
				255,
			},
			Vibrance = 14,
			Whites2012 = 25,
		},
		uuid = "87E7C449-FF14-4AE3-B121-3936F002DB62",
	},
	version = 0,
}
