Complete Preset Bundle for Lightroom/Complete Preset Bundle by Gabha/When Sun Fades.lrtemplate
s = {
	id = "0EC2F5C3-A5AC-4113-A196-F6543322F926",
	internalName = "When Sun Fades",
	title = "When Sun Fades",
	type = "Develop",
	value = {
		settings = {
			Blacks2012 = -6,
			Clarity2012 = 10,
			Contrast2012 = 20,
			ConvertToGrayscale = false,
			EnableColorAdjustments = true,
			EnableEffects = true,
			EnableSplitToning = true,
			Highlights2012 = -45,
			HueAdjustmentAqua = 0,
			HueAdjustmentBlue = 0,
			HueAdjustmentGreen = 0,
			HueAdjustmentMagenta = 0,
			HueAdjustmentOrange = 0,
			HueAdjustmentPurple = 0,
			HueAdjustmentRed = 0,
			HueAdjustmentYellow = 0,
			LuminanceAdjustmentAqua = 0,
			LuminanceAdjustmentBlue = 0,
			LuminanceAdjustmentGreen = 0,
			LuminanceAdjustmentMagenta = 0,
			LuminanceAdjustmentOrange = 0,
			LuminanceAdjustmentPurple = 0,
			LuminanceAdjustmentRed = 0,
			LuminanceAdjustmentYellow = 0,
			PostCropVignetteAmount = -25,
			PostCropVignetteFeather = 50,
			PostCropVignetteHighlightContrast = 0,
			PostCropVignetteMidpoint = 44,
			PostCropVignetteRoundness = 0,
			PostCropVignetteStyle = 1,
			ProcessVersion = "6.7",
			Saturation = -53,
			SaturationAdjustmentAqua = 0,
			SaturationAdjustmentBlue = 0,
			SaturationAdjustmentGreen = 0,
			SaturationAdjustmentMagenta = 0,
			SaturationAdjustmentOrange = 0,
			SaturationAdjustmentPurple = 0,
			SaturationAdjustmentRed = 0,
			SaturationAdjustmentYellow = 0,
			SplitToningBalance = 0,
			SplitToningHighlightHue = 52,
			SplitToningHighlightSaturation = 37,
			SplitToningShadowHue = 52,
			SplitToningShadowSaturation = 16,
			Vibrance = -14,
		},
		uuid = "22F1FFCC-9109-4299-A1D9-01A79047A237",
	},
	version = 0,
}
