CM - Wedding Lightroom Presets Bundle HQ 323529/Presets Bundle/Film Lightroom Presets by BeArt/beart - Film Repulsion BW.lrtemplate
s = {
	id = "8B602B64-7D92-4C28-9051-B378CF1A81A9",
	internalName = "beart - Film Repulsion BW",
	title = "beart - Film Repulsion BW",
	type = "Develop",
	value = {
		settings = {
			AutoLateralCA = 0,
			Blacks2012 = -43,
			BlueHue = 0,
			BlueSaturation = 0,
			CameraProfile = "Adobe Standard",
			ChromaticAberrationB = 0,
			ChromaticAberrationR = 0,
			Clarity2012 = 45,
			ColorNoiseReduction = 31,
			ColorNoiseReductionDetail = 50,
			ColorNoiseReductionSmoothness = 50,
			Contrast2012 = 5,
			ConvertToGrayscale = true,
			CropConstrainToWarp = 0,
			Defringe = 0,
			DefringeGreenAmount = 0,
			DefringeGreenHueHi = 60,
			DefringeGreenHueLo = 40,
			DefringePurpleAmount = 0,
			DefringePurpleHueHi = 70,
			DefringePurpleHueLo = 30,
			Dehaze = 0,
			EnableCalibration = true,
			EnableCircularGradientBasedCorrections = true,
			EnableDetail = true,
			EnableEffects = true,
			EnableGradientBasedCorrections = true,
			EnableGrayscaleMix = true,
			EnableLensCorrections = true,
			EnableSplitToning = true,
			Exposure2012 = -0.24,
			GrainAmount = 10,
			GrainFrequency = 0,
			GrainSize = 6,
			GrayMixerAqua = -11,
			GrayMixerBlue = 15,
			GrayMixerGreen = -38,
			GrayMixerMagenta = 0,
			GrayMixerOrange = 9,
			GrayMixerPurple = 0,
			GrayMixerRed = 9,
			GrayMixerYellow = 4,
			GreenHue = 13,
			GreenSaturation = 0,
			Highlights2012 = -10,
			LensManualDistortionAmount = 0,
			LensProfileEnable = 0,
			LensProfileSetup = "LensDefaults",
			LuminanceNoiseReductionContrast = 0,
			LuminanceNoiseReductionDetail = 50,
			LuminanceSmoothing = 6,
			ParametricDarks = 25,
			ParametricHighlightSplit = 90,
			ParametricHighlights = 0,
			ParametricLights = 8,
			ParametricMidtoneSplit = 54,
			ParametricShadowSplit = 10,
			ParametricShadows = -100,
			PerspectiveAspect = 0,
			PerspectiveHorizontal = 0,
			PerspectiveRotate = 0,
			PerspectiveScale = 100,
			PerspectiveUpright = 0,
			PerspectiveVertical = 0,
			PostCropVignetteAmount = 0,
			PostCropVignetteFeather = 50,
			PostCropVignetteHighlightContrast = 0,
			PostCropVignetteMidpoint = 50,
			PostCropVignetteRoundness = 0,
			PostCropVignetteStyle = 1,
			ProcessVersion = "6.7",
			RedHue = 16,
			RedSaturation = 0,
			ShadowTint = 0,
			Shadows2012 = 29,
			SharpenDetail = 8,
			SharpenEdgeMasking = 0,
			SharpenRadius = 0.9,
			Sharpness = 25,
			SplitToningBalance = -51,
			SplitToningHighlightHue = 37,
			SplitToningHighlightSaturation = 0,
			SplitToningShadowHue = 37,
			SplitToningShadowSaturation = 0,
			ToneCurveName2012 = "Custom",
			ToneCurvePV2012 = {
				0,
				63,
				66,
				83,
				115,
				123,
				188,
				199,
				255,
				220,
			},
			ToneCurvePV2012Blue = {
				0,
				0,
				255,
				255,
			},
			ToneCurvePV2012Green = {
				0,
				0,
				255,
				255,
			},
			ToneCurvePV2012Red = {
				0,
				0,
				255,
				255,
			},
			VignetteAmount = 0,
			VignetteMidpoint = 50,
			WhiteBalance = "As Shot",
			Whites2012 = -12,
			orientation = "AB",
		},
		uuid = "29B8F4B7-5D24-4E72-9A53-4E637F2840B4",
	},
	version = 0,
}
