CM - Wedding Lightroom Presets Bundle HQ 323529/Presets Bundle/Film Lightroom Presets by BeArt/beart - Film Before Midnight.lrtemplate
s = {
	id = "2CC5847C-248C-4D3C-A09A-37A485EBE6D1",
	internalName = "beart - Film Before Midnight",
	title = "beart - Film Before Midnight",
	type = "Develop",
	value = {
		settings = {
			AutoLateralCA = 0,
			Blacks2012 = -14,
			BlueHue = 10,
			BlueSaturation = -15,
			CameraProfile = "Adobe Standard",
			ChromaticAberrationB = 0,
			ChromaticAberrationR = 0,
			Clarity2012 = 12,
			ColorNoiseReduction = 0,
			ColorNoiseReductionDetail = 50,
			ColorNoiseReductionSmoothness = 50,
			Contrast2012 = 10,
			ConvertToGrayscale = false,
			CropConstrainToWarp = 0,
			Defringe = 0,
			DefringeGreenAmount = 0,
			DefringeGreenHueHi = 60,
			DefringeGreenHueLo = 40,
			DefringePurpleAmount = 0,
			DefringePurpleHueHi = 70,
			DefringePurpleHueLo = 30,
			Dehaze = 0,
			EnableCalibration = true,
			EnableCircularGradientBasedCorrections = true,
			EnableColorAdjustments = true,
			EnableDetail = true,
			EnableEffects = true,
			EnableGradientBasedCorrections = true,
			EnableLensCorrections = true,
			EnableSplitToning = true,
			Exposure2012 = 0,
			GrainAmount = 17,
			GrainFrequency = 17,
			GrainSize = 18,
			GreenHue = 20,
			GreenSaturation = 15,
			Highlights2012 = -15,
			HueAdjustmentAqua = 0,
			HueAdjustmentBlue = 0,
			HueAdjustmentGreen = 0,
			HueAdjustmentMagenta = 0,
			HueAdjustmentOrange = 0,
			HueAdjustmentPurple = 0,
			HueAdjustmentRed = 0,
			HueAdjustmentYellow = 0,
			IncrementalTemperature = 2,
			IncrementalTint = 2,
			LensManualDistortionAmount = 0,
			LensProfileEnable = 0,
			LensProfileSetup = "LensDefaults",
			LuminanceAdjustmentAqua = 0,
			LuminanceAdjustmentBlue = 0,
			LuminanceAdjustmentGreen = 0,
			LuminanceAdjustmentMagenta = 0,
			LuminanceAdjustmentOrange = 0,
			LuminanceAdjustmentPurple = 0,
			LuminanceAdjustmentRed = 0,
			LuminanceAdjustmentYellow = 0,
			LuminanceNoiseReductionContrast = 0,
			LuminanceNoiseReductionDetail = 50,
			LuminanceSmoothing = 7,
			ParametricDarks = 0,
			ParametricHighlightSplit = 75,
			ParametricHighlights = 0,
			ParametricLights = 0,
			ParametricMidtoneSplit = 50,
			ParametricShadowSplit = 25,
			ParametricShadows = 0,
			PerspectiveAspect = 0,
			PerspectiveHorizontal = 0,
			PerspectiveRotate = 0,
			PerspectiveScale = 100,
			PerspectiveUpright = 0,
			PerspectiveVertical = 0,
			PostCropVignetteAmount = 0,
			PostCropVignetteFeather = 50,
			PostCropVignetteHighlightContrast = 0,
			PostCropVignetteMidpoint = 50,
			PostCropVignetteRoundness = 0,
			PostCropVignetteStyle = 1,
			ProcessVersion = "6.7",
			RedHue = 15,
			RedSaturation = 2,
			Saturation = -21,
			SaturationAdjustmentAqua = -4,
			SaturationAdjustmentBlue = 4,
			SaturationAdjustmentGreen = -7,
			SaturationAdjustmentMagenta = -4,
			SaturationAdjustmentOrange = 0,
			SaturationAdjustmentPurple = -2,
			SaturationAdjustmentRed = 4,
			SaturationAdjustmentYellow = -7,
			ShadowTint = 0,
			Shadows2012 = 20,
			SharpenDetail = 5,
			SharpenEdgeMasking = 0,
			SharpenRadius = 0.8,
			Sharpness = 32,
			SplitToningBalance = 0,
			SplitToningHighlightHue = 225,
			SplitToningHighlightSaturation = 5,
			SplitToningShadowHue = 225,
			SplitToningShadowSaturation = 5,
			ToneCurveName2012 = "Custom",
			ToneCurvePV2012 = {
				0,
				41,
				48,
				68,
				87,
				105,
				194,
				201,
				255,
				232,
			},
			ToneCurvePV2012Blue = {
				0,
				0,
				126,
				131,
				192,
				182,
				255,
				255,
			},
			ToneCurvePV2012Green = {
				0,
				0,
				125,
				129,
				185,
				196,
				255,
				255,
			},
			ToneCurvePV2012Red = {
				0,
				0,
				125,
				129,
				189,
				200,
				255,
				255,
			},
			Vibrance = -5,
			VignetteAmount = 0,
			VignetteMidpoint = 50,
			WhiteBalance = "Custom",
			Whites2012 = 10,
			orientation = "AB",
		},
		uuid = "8BB2CF82-65E8-45F2-8F9F-3CFAFFC95EBE",
	},
	version = 0,
}
