CM - Wedding Lightroom Presets Bundle HQ 323529/Presets Bundle/Film Lightroom Presets by BeArt/beart - Film Chinatown.lrtemplate
s = {
	id = "4B3AA487-816D-4CAD-910F-F498986C5D4F",
	internalName = "beart - Film Chinatown",
	title = "beart - Film Chinatown",
	type = "Develop",
	value = {
		settings = {
			AutoLateralCA = 0,
			Blacks2012 = 30,
			BlueHue = 0,
			BlueSaturation = 0,
			CameraProfile = "Adobe Standard",
			ChromaticAberrationB = 0,
			ChromaticAberrationR = 0,
			Clarity2012 = 0,
			ColorNoiseReduction = 0,
			ColorNoiseReductionDetail = 50,
			ColorNoiseReductionSmoothness = 50,
			Contrast2012 = 0,
			ConvertToGrayscale = false,
			CropConstrainToWarp = 0,
			Defringe = 0,
			DefringeGreenAmount = 0,
			DefringeGreenHueHi = 60,
			DefringeGreenHueLo = 40,
			DefringePurpleAmount = 0,
			DefringePurpleHueHi = 70,
			DefringePurpleHueLo = 30,
			Dehaze = 0,
			EnableCalibration = true,
			EnableCircularGradientBasedCorrections = true,
			EnableColorAdjustments = true,
			EnableDetail = true,
			EnableEffects = true,
			EnableGradientBasedCorrections = true,
			EnableLensCorrections = true,
			EnableSplitToning = true,
			Exposure2012 = 0,
			GrainAmount = 35,
			GrainFrequency = 45,
			GrainSize = 25,
			GreenHue = 15,
			GreenSaturation = -15,
			Highlights2012 = -20,
			HueAdjustmentAqua = 15,
			HueAdjustmentBlue = 5,
			HueAdjustmentGreen = 15,
			HueAdjustmentMagenta = 0,
			HueAdjustmentOrange = 2,
			HueAdjustmentPurple = 30,
			HueAdjustmentRed = 10,
			HueAdjustmentYellow = -8,
			LensManualDistortionAmount = 0,
			LensProfileEnable = 0,
			LensProfileSetup = "LensDefaults",
			LuminanceAdjustmentAqua = -10,
			LuminanceAdjustmentBlue = -25,
			LuminanceAdjustmentGreen = -10,
			LuminanceAdjustmentMagenta = -15,
			LuminanceAdjustmentOrange = -5,
			LuminanceAdjustmentPurple = 5,
			LuminanceAdjustmentRed = -25,
			LuminanceAdjustmentYellow = -20,
			LuminanceNoiseReductionContrast = 0,
			LuminanceNoiseReductionDetail = 50,
			LuminanceSmoothing = 0,
			ParametricDarks = 10,
			ParametricHighlightSplit = 75,
			ParametricHighlights = 0,
			ParametricLights = 10,
			ParametricMidtoneSplit = 50,
			ParametricShadowSplit = 20,
			ParametricShadows = -5,
			PerspectiveAspect = 0,
			PerspectiveHorizontal = 0,
			PerspectiveRotate = 0,
			PerspectiveScale = 100,
			PerspectiveUpright = 0,
			PerspectiveVertical = 0,
			PostCropVignetteAmount = 0,
			PostCropVignetteFeather = 50,
			PostCropVignetteHighlightContrast = 0,
			PostCropVignetteMidpoint = 50,
			PostCropVignetteRoundness = 0,
			PostCropVignetteStyle = 1,
			ProcessVersion = "6.7",
			RedHue = 20,
			RedSaturation = 5,
			Saturation = -5,
			SaturationAdjustmentAqua = -45,
			SaturationAdjustmentBlue = 10,
			SaturationAdjustmentGreen = -40,
			SaturationAdjustmentMagenta = -40,
			SaturationAdjustmentOrange = 5,
			SaturationAdjustmentPurple = -40,
			SaturationAdjustmentRed = -30,
			SaturationAdjustmentYellow = 0,
			ShadowTint = 0,
			Shadows2012 = 14,
			SharpenDetail = 25,
			SharpenEdgeMasking = 0,
			SharpenRadius = 1.2,
			Sharpness = 40,
			SplitToningBalance = 0,
			SplitToningHighlightHue = 0,
			SplitToningHighlightSaturation = 0,
			SplitToningShadowHue = 0,
			SplitToningShadowSaturation = 0,
			ToneCurveName2012 = "Custom",
			ToneCurvePV2012 = {
				0,
				54,
				78,
				87,
				122,
				122,
				193,
				195,
				255,
				255,
			},
			ToneCurvePV2012Blue = {
				0,
				0,
				44,
				20,
				116,
				124,
				179,
				200,
				226,
				235,
				255,
				255,
			},
			ToneCurvePV2012Green = {
				0,
				0,
				45,
				20,
				114,
				122,
				178,
				200,
				225,
				235,
				255,
				255,
			},
			ToneCurvePV2012Red = {
				0,
				0,
				47,
				16,
				114,
				123,
				179,
				200,
				255,
				255,
			},
			Vibrance = 0,
			VignetteAmount = 0,
			VignetteMidpoint = 50,
			WhiteBalance = "As Shot",
			Whites2012 = -10,
			orientation = "AB",
		},
		uuid = "788A9BA8-ECD8-4D59-831D-175ACAE669DA",
	},
	version = 0,
}
