Food Photography Lightroom Presets/Lightroom Presets - Food Lightroom Presets by BeArt/beart - Food Pomme Puree.lrtemplate
s = {
	id = "965605C1-657F-4C3E-9F82-7AA3F2A5DB44",
	internalName = "beart - Food Pomme Puree",
	title = "beart - Food Pomme Puree",
	type = "Develop",
	value = {
		settings = {
			AutoLateralCA = 0,
			Blacks2012 = 21,
			BlueHue = 0,
			BlueSaturation = 0,
			CameraProfile = "Adobe Standard",
			ChromaticAberrationB = 0,
			ChromaticAberrationR = 0,
			Clarity2012 = 76,
			ColorNoiseReduction = 29,
			ColorNoiseReductionDetail = 50,
			ColorNoiseReductionSmoothness = 50,
			Contrast2012 = 0,
			ConvertToGrayscale = false,
			CropConstrainToWarp = 0,
			Defringe = 0,
			DefringeGreenAmount = 0,
			DefringeGreenHueHi = 60,
			DefringeGreenHueLo = 40,
			DefringePurpleAmount = 0,
			DefringePurpleHueHi = 70,
			DefringePurpleHueLo = 30,
			Dehaze = 0,
			EnableCalibration = true,
			EnableCircularGradientBasedCorrections = true,
			EnableColorAdjustments = true,
			EnableDetail = true,
			EnableEffects = true,
			EnableGradientBasedCorrections = true,
			EnableLensCorrections = true,
			EnableSplitToning = true,
			Exposure2012 = 0,
			GrainAmount = 0,
			GrainFrequency = 50,
			GrainSize = 25,
			GreenHue = 0,
			GreenSaturation = 0,
			Highlights2012 = 24,
			HueAdjustmentAqua = 0,
			HueAdjustmentBlue = 0,
			HueAdjustmentGreen = 0,
			HueAdjustmentMagenta = 0,
			HueAdjustmentOrange = 0,
			HueAdjustmentPurple = 0,
			HueAdjustmentRed = 0,
			HueAdjustmentYellow = 0,
			IncrementalTemperature = 0,
			IncrementalTint = 5,
			LensManualDistortionAmount = 0,
			LensProfileEnable = 0,
			LensProfileSetup = "LensDefaults",
			LuminanceAdjustmentAqua = 4,
			LuminanceAdjustmentBlue = 0,
			LuminanceAdjustmentGreen = -2,
			LuminanceAdjustmentMagenta = 9,
			LuminanceAdjustmentOrange = 9,
			LuminanceAdjustmentPurple = 9,
			LuminanceAdjustmentRed = 0,
			LuminanceAdjustmentYellow = 2,
			LuminanceNoiseReductionContrast = 0,
			LuminanceNoiseReductionDetail = 50,
			LuminanceSmoothing = 15,
			ParametricDarks = 7,
			ParametricHighlightSplit = 75,
			ParametricHighlights = 0,
			ParametricLights = 25,
			ParametricMidtoneSplit = 50,
			ParametricShadowSplit = 25,
			ParametricShadows = -22,
			PerspectiveAspect = 0,
			PerspectiveHorizontal = 0,
			PerspectiveRotate = 0,
			PerspectiveScale = 100,
			PerspectiveUpright = 0,
			PerspectiveVertical = 0,
			PostCropVignetteAmount = -21,
			PostCropVignetteFeather = 50,
			PostCropVignetteHighlightContrast = 0,
			PostCropVignetteMidpoint = 50,
			PostCropVignetteRoundness = 0,
			PostCropVignetteStyle = 1,
			ProcessVersion = "6.7",
			RedHue = 0,
			RedSaturation = 0,
			Saturation = -24,
			SaturationAdjustmentAqua = 38,
			SaturationAdjustmentBlue = 49,
			SaturationAdjustmentGreen = 42,
			SaturationAdjustmentMagenta = 40,
			SaturationAdjustmentOrange = 40,
			SaturationAdjustmentPurple = 33,
			SaturationAdjustmentRed = 47,
			SaturationAdjustmentYellow = 27,
			ShadowTint = 0,
			Shadows2012 = 100,
			SharpenDetail = 13,
			SharpenEdgeMasking = 18,
			SharpenRadius = 1.5,
			Sharpness = 66,
			SplitToningBalance = 38,
			SplitToningHighlightHue = 65,
			SplitToningHighlightSaturation = 13,
			SplitToningShadowHue = 214,
			SplitToningShadowSaturation = 54,
			ToneCurveName2012 = "Custom",
			ToneCurvePV2012 = {
				0,
				50,
				80,
				94,
				255,
				249,
			},
			ToneCurvePV2012Blue = {
				0,
				0,
				255,
				255,
			},
			ToneCurvePV2012Green = {
				0,
				0,
				255,
				255,
			},
			ToneCurvePV2012Red = {
				0,
				0,
				255,
				255,
			},
			Vibrance = 31,
			VignetteAmount = 0,
			VignetteMidpoint = 50,
			WhiteBalance = "Custom",
			Whites2012 = 60,
			orientation = "AB",
		},
		uuid = "1AEF5F0F-5E21-491A-BEBE-496344B8F8D6",
	},
	version = 0,
}
