Food Photography Lightroom Presets/Lightroom Presets - Food Lightroom Presets by BeArt/beart - Food Roulade de Saumon.lrtemplate
s = {
	id = "F9C1D9E8-3395-4F13-9F45-0C0905907395",
	internalName = "beart - Food Roulade de Saumon",
	title = "beart - Food Roulade de Saumon",
	type = "Develop",
	value = {
		settings = {
			AutoLateralCA = 0,
			Blacks2012 = -74,
			BlueHue = 0,
			BlueSaturation = 0,
			CameraProfile = "Adobe Standard",
			ChromaticAberrationB = 0,
			ChromaticAberrationR = 0,
			Clarity2012 = 12,
			ColorNoiseReduction = 65,
			ColorNoiseReductionDetail = 50,
			ColorNoiseReductionSmoothness = 50,
			Contrast2012 = 24,
			ConvertToGrayscale = false,
			CropConstrainToWarp = 0,
			Defringe = 0,
			DefringeGreenAmount = 0,
			DefringeGreenHueHi = 60,
			DefringeGreenHueLo = 40,
			DefringePurpleAmount = 8,
			DefringePurpleHueHi = 70,
			DefringePurpleHueLo = 30,
			Dehaze = 0,
			EnableCalibration = true,
			EnableCircularGradientBasedCorrections = true,
			EnableColorAdjustments = true,
			EnableDetail = true,
			EnableEffects = true,
			EnableGradientBasedCorrections = true,
			EnableLensCorrections = true,
			EnableSplitToning = true,
			Exposure2012 = 0.48,
			GrainAmount = 0,
			GrainFrequency = 50,
			GrainSize = 25,
			GreenHue = 0,
			GreenSaturation = 2,
			Highlights2012 = -79,
			HueAdjustmentAqua = 16,
			HueAdjustmentBlue = 37,
			HueAdjustmentGreen = 18,
			HueAdjustmentMagenta = 0,
			HueAdjustmentOrange = 9,
			HueAdjustmentPurple = -42,
			HueAdjustmentRed = 9,
			HueAdjustmentYellow = 39,
			LensManualDistortionAmount = 0,
			LensProfileEnable = 0,
			LensProfileSetup = "LensDefaults",
			LuminanceAdjustmentAqua = 0,
			LuminanceAdjustmentBlue = 3,
			LuminanceAdjustmentGreen = -2,
			LuminanceAdjustmentMagenta = 0,
			LuminanceAdjustmentOrange = 5,
			LuminanceAdjustmentPurple = 0,
			LuminanceAdjustmentRed = -7,
			LuminanceAdjustmentYellow = 0,
			LuminanceNoiseReductionContrast = 27,
			LuminanceNoiseReductionDetail = 46,
			LuminanceSmoothing = 7,
			ParametricDarks = 3,
			ParametricHighlightSplit = 75,
			ParametricHighlights = 0,
			ParametricLights = -7,
			ParametricMidtoneSplit = 50,
			ParametricShadowSplit = 25,
			ParametricShadows = 0,
			PerspectiveAspect = 0,
			PerspectiveHorizontal = 0,
			PerspectiveRotate = 0,
			PerspectiveScale = 100,
			PerspectiveUpright = 0,
			PerspectiveVertical = 0,
			PostCropVignetteAmount = 0,
			PostCropVignetteFeather = 100,
			PostCropVignetteHighlightContrast = 0,
			PostCropVignetteMidpoint = 43,
			PostCropVignetteRoundness = 100,
			PostCropVignetteStyle = 1,
			ProcessVersion = "6.7",
			RedHue = 0,
			RedSaturation = 0,
			Saturation = -2,
			SaturationAdjustmentAqua = 0,
			SaturationAdjustmentBlue = 6,
			SaturationAdjustmentGreen = -14,
			SaturationAdjustmentMagenta = 0,
			SaturationAdjustmentOrange = -7,
			SaturationAdjustmentPurple = 0,
			SaturationAdjustmentRed = 0,
			SaturationAdjustmentYellow = -28,
			ShadowTint = 5,
			Shadows2012 = 88,
			SharpenDetail = 67,
			SharpenEdgeMasking = 68,
			SharpenRadius = 2.1,
			Sharpness = 100,
			SplitToningBalance = 5,
			SplitToningHighlightHue = 47,
			SplitToningHighlightSaturation = 12,
			SplitToningShadowHue = 241,
			SplitToningShadowSaturation = 23,
			ToneCurveName2012 = "Custom",
			ToneCurvePV2012 = {
				0,
				40,
				84,
				81,
				190,
				190,
				255,
				255,
			},
			ToneCurvePV2012Blue = {
				0,
				0,
				190,
				186,
				255,
				242,
			},
			ToneCurvePV2012Green = {
				0,
				0,
				255,
				255,
			},
			ToneCurvePV2012Red = {
				0,
				0,
				57,
				60,
				200,
				193,
				255,
				255,
			},
			Vibrance = 85,
			VignetteAmount = 0,
			VignetteMidpoint = 50,
			WhiteBalance = "As Shot",
			Whites2012 = 0,
			orientation = "AB",
		},
		uuid = "044C2340-3EF7-4F98-890F-A9C7F05F23F5",
	},
	version = 0,
}
