Food Photography Lightroom Presets/Lightroom Presets - Food Lightroom Presets by BeArt/beart - Food Choucroute Garnie.lrtemplate
s = {
	id = "9F4DEC5F-9C2E-420C-9230-C7813F01CE66",
	internalName = "beart - Food Choucroute Garnie",
	title = "beart - Food Choucroute Garnie",
	type = "Develop",
	value = {
		settings = {
			AutoLateralCA = 0,
			Blacks2012 = -10,
			BlueHue = 0,
			BlueSaturation = 0,
			CameraProfile = "Embedded",
			ChromaticAberrationB = 0,
			ChromaticAberrationR = 0,
			Clarity2012 = 14,
			ColorNoiseReduction = 35,
			ColorNoiseReductionDetail = 50,
			ColorNoiseReductionSmoothness = 23,
			Contrast2012 = 0,
			ConvertToGrayscale = false,
			CropConstrainToWarp = 0,
			Defringe = 0,
			DefringeGreenAmount = 0,
			DefringeGreenHueHi = 60,
			DefringeGreenHueLo = 40,
			DefringePurpleAmount = 0,
			DefringePurpleHueHi = 70,
			DefringePurpleHueLo = 30,
			EnableCalibration = true,
			EnableCircularGradientBasedCorrections = true,
			EnableColorAdjustments = true,
			EnableDetail = true,
			EnableEffects = true,
			EnableGradientBasedCorrections = true,
			EnableLensCorrections = true,
			EnableSplitToning = true,
			Exposure2012 = 0,
			GrainAmount = 0,
			GrainFrequency = 50,
			GrainSize = 25,
			GreenHue = 0,
			GreenSaturation = 0,
			Highlights2012 = -52,
			HueAdjustmentAqua = 0,
			HueAdjustmentBlue = 0,
			HueAdjustmentGreen = 0,
			HueAdjustmentMagenta = 0,
			HueAdjustmentOrange = 0,
			HueAdjustmentPurple = 0,
			HueAdjustmentRed = 0,
			HueAdjustmentYellow = 0,
			IncrementalTemperature = 0,
			IncrementalTint = 0,
			LensManualDistortionAmount = 0,
			LensProfileEnable = 0,
			LensProfileSetup = "LensDefaults",
			LuminanceAdjustmentAqua = -2,
			LuminanceAdjustmentBlue = -9,
			LuminanceAdjustmentGreen = 0,
			LuminanceAdjustmentMagenta = 0,
			LuminanceAdjustmentOrange = -4,
			LuminanceAdjustmentPurple = 0,
			LuminanceAdjustmentRed = -2,
			LuminanceAdjustmentYellow = -7,
			LuminanceNoiseReductionContrast = 17,
			LuminanceNoiseReductionDetail = 12,
			LuminanceSmoothing = 7,
			ParametricDarks = 27,
			ParametricHighlightSplit = 75,
			ParametricHighlights = 0,
			ParametricLights = 0,
			ParametricMidtoneSplit = 50,
			ParametricShadowSplit = 25,
			ParametricShadows = 0,
			PerspectiveAspect = 0,
			PerspectiveHorizontal = 0,
			PerspectiveRotate = 0,
			PerspectiveScale = 100,
			PerspectiveUpright = 0,
			PerspectiveVertical = 0,
			PostCropVignetteAmount = 0,
			PostCropVignetteFeather = 50,
			PostCropVignetteHighlightContrast = 0,
			PostCropVignetteMidpoint = 50,
			PostCropVignetteRoundness = 0,
			PostCropVignetteStyle = 1,
			ProcessVersion = "6.7",
			RedHue = 0,
			RedSaturation = 0,
			Saturation = 0,
			SaturationAdjustmentAqua = 0,
			SaturationAdjustmentBlue = 0,
			SaturationAdjustmentGreen = 0,
			SaturationAdjustmentMagenta = 0,
			SaturationAdjustmentOrange = 0,
			SaturationAdjustmentPurple = 0,
			SaturationAdjustmentRed = 0,
			SaturationAdjustmentYellow = 0,
			ShadowTint = 0,
			Shadows2012 = 55,
			SharpenDetail = 8,
			SharpenEdgeMasking = 0,
			SharpenRadius = 1,
			Sharpness = 52,
			SplitToningBalance = 21,
			SplitToningHighlightHue = 73,
			SplitToningHighlightSaturation = 15,
			SplitToningShadowHue = 270,
			SplitToningShadowSaturation = 5,
			ToneCurveName2012 = "Custom",
			ToneCurvePV2012 = {
				1,
				49,
				62,
				79,
				171,
				179,
				255,
				255,
			},
			ToneCurvePV2012Blue = {
				0,
				0,
				70,
				103,
				180,
				179,
				255,
				255,
			},
			ToneCurvePV2012Green = {
				0,
				0,
				67,
				53,
				186,
				203,
				255,
				255,
			},
			ToneCurvePV2012Red = {
				0,
				0,
				67,
				43,
				181,
				195,
				255,
				255,
			},
			Vibrance = 0,
			VignetteAmount = 0,
			VignetteMidpoint = 50,
			WhiteBalance = "Custom",
			Whites2012 = 19,
			orientation = "AB",
		},
		uuid = "6CC25DEE-AC41-4F32-906A-B1F7162DFB9D",
	},
	version = 0,
}
