Morgan Burks Immersion Lightroom Presets/Muted tone Presets for LR/MB Muted Tone Presets for LR/MB Muted Tone Presets for LR 1-3/MB MT - Rich Creamy Light.lrtemplate
s = {
	id = "32022848-3C8E-4CA1-95BE-F8F43676CFAC",
	internalName = "MB MT - Rich Creamy Light",
	title = "MB MT - Rich Creamy Light",
	type = "Develop",
	value = {
		settings = {
			ConvertToGrayscale = false,
			EnableSplitToning = true,
			ParametricDarks = 0,
			ParametricHighlightSplit = 75,
			ParametricHighlights = 0,
			ParametricLights = 0,
			ParametricMidtoneSplit = 50,
			ParametricShadowSplit = 25,
			ParametricShadows = 0,
			SplitToningBalance = 0,
			SplitToningHighlightHue = 34,
			SplitToningHighlightSaturation = 8,
			SplitToningShadowHue = 21,
			SplitToningShadowSaturation = 6,
			ToneCurve = {
				0,
				0,
				32,
				22,
				64,
				56,
				128,
				128,
				192,
				196,
				255,
				255,
			},
			ToneCurveName = "Medium Contrast",
		},
		uuid = "C307A7BC-71CF-4488-961E-702647832D69",
	},
	version = 0,
}
