Morgan Burks Immersion Lightroom Presets/Muted tone Presets for LR/MB Muted Tone Presets for LR/MB Muted Tone Presets for LR 1-3/MB MT - Simple Matte.lrtemplate
s = {
	id = "3A704D66-350F-4F96-BF9A-1F4EC176E279",
	internalName = "MB MT - Simple Matte",
	title = "MB MT - Simple Matte",
	type = "Develop",
	value = {
		settings = {
			ConvertToGrayscale = false,
			ParametricDarks = 0,
			ParametricHighlightSplit = 85,
			ParametricHighlights = -50,
			ParametricLights = 12,
			ParametricMidtoneSplit = 41,
			ParametricShadowSplit = 18,
			ParametricShadows = 100,
			ToneCurve = {
				0,
				0,
				32,
				22,
				64,
				56,
				128,
				128,
				192,
				196,
				255,
				255,
			},
			ToneCurveName = "Medium Contrast",
		},
		uuid = "40DE17B5-227B-42F9-92DE-F20AB83CDEEB",
	},
	version = 0,
}
