PhotoSerge Lightroom Presets Collection Vol. 1-8 Bundle (LR)_DiTim/08-Lightroom-Presets-Volume-1-Chic/08-Lightroom-Presets-Volume-1-Chic/PhotoSerge-Vol 1 Chic/B&W- Retro.lrtemplate
s = {
	id = "726EF452-5DD5-439D-AA1C-648F5774A2A9",
	internalName = "Retro black and white",
	title = "B&W: Retro",
	type = "Develop",
	value = {
		settings = {
			AutoLateralCA = 0,
			Blacks2012 = 100,
			BlueHue = 0,
			BlueSaturation = 0,
			CameraProfile = "Adobe Standard",
			ChromaticAberrationB = 0,
			ChromaticAberrationR = 0,
			Clarity2012 = 0,
			ColorNoiseReduction = 100,
			ColorNoiseReductionDetail = 50,
			Contrast2012 = 62,
			ConvertToGrayscale = true,
			CropConstrainToWarp = 0,
			Defringe = 0,
			DefringeGreenAmount = 0,
			DefringeGreenHueHi = 60,
			DefringeGreenHueLo = 40,
			DefringePurpleAmount = 0,
			DefringePurpleHueHi = 70,
			DefringePurpleHueLo = 30,
			EnableCalibration = true,
			EnableDetail = true,
			EnableEffects = true,
			EnableGradientBasedCorrections = true,
			EnableGrayscaleMix = true,
			EnableLensCorrections = true,
			EnableSplitToning = true,
			Exposure2012 = 0.2,
			GrainAmount = 39,
			GrainFrequency = 51,
			GrainSize = 32,
			GrayMixerAqua = -7,
			GrayMixerBlue = 12,
			GrayMixerGreen = -27,
			GrayMixerMagenta = 4,
			GrayMixerOrange = -24,
			GrayMixerPurple = 17,
			GrayMixerRed = 0,
			GrayMixerYellow = -37,
			GreenHue = 0,
			GreenSaturation = 0,
			Highlights2012 = -1,
			LensManualDistortionAmount = 0,
			LensProfileEnable = 0,
			LensProfileSetup = "LensDefaults",
			LuminanceNoiseReductionContrast = 100,
			LuminanceNoiseReductionDetail = 50,
			LuminanceSmoothing = 30,
			ParametricDarks = 2,
			ParametricHighlightSplit = 75,
			ParametricHighlights = -24,
			ParametricLights = 8,
			ParametricMidtoneSplit = 50,
			ParametricShadowSplit = 25,
			ParametricShadows = -11,
			PerspectiveHorizontal = 0,
			PerspectiveRotate = 0,
			PerspectiveScale = 100,
			PerspectiveVertical = 0,
			PostCropVignetteAmount = 0,
			PostCropVignetteFeather = 50,
			PostCropVignetteHighlightContrast = 0,
			PostCropVignetteMidpoint = 50,
			PostCropVignetteRoundness = 0,
			PostCropVignetteStyle = 1,
			ProcessVersion = "6.7",
			RedHue = 0,
			RedSaturation = 0,
			ShadowTint = 0,
			Shadows2012 = -100,
			SharpenDetail = 25,
			SharpenEdgeMasking = 0,
			SharpenRadius = 1,
			Sharpness = 45,
			SplitToningBalance = 0,
			SplitToningHighlightHue = 31,
			SplitToningHighlightSaturation = 0,
			SplitToningShadowHue = 0,
			SplitToningShadowSaturation = 0,
			ToneCurveName2012 = "Custom",
			ToneCurvePV2012 = {
				0,
				41,
				19,
				48,
				36,
				56,
				54,
				68,
				71,
				80,
				89,
				93,
				108,
				108,
				128,
				124,
				145,
				139,
				162,
				155,
				180,
				174,
				198,
				189,
				217,
				203,
				235,
				215,
				255,
				223,
			},
			ToneCurvePV2012Blue = {
				0,
				0,
				255,
				255,
			},
			ToneCurvePV2012Green = {
				0,
				0,
				255,
				255,
			},
			ToneCurvePV2012Red = {
				0,
				0,
				255,
				255,
			},
			VignetteAmount = 0,
			VignetteMidpoint = 50,
			WhiteBalance = "As Shot",
			Whites2012 = -57,
			orientation = "AB",
		},
		uuid = "DAB33E4D-7ACE-482A-9EA7-762A0ECB4D28",
	},
	version = 0,
}
