CM - Wedding Lightroom Presets Bundle HQ 323529/Presets Bundle/Matte Lightroom Presets by BeArt/beart-Matte Red Heart.lrtemplate
s = {
	id = "18B7C1EE-4787-40B9-A5E0-E11D3FE4071E",
	internalName = "13",
	title = "beart-Matte Red Heart",
	type = "Develop",
	value = {
		settings = {
			AutoLateralCA = 0,
			Blacks2012 = -14,
			BlueHue = -4,
			BlueSaturation = 38,
			CameraProfile = "Adobe Standard",
			ChromaticAberrationB = 0,
			ChromaticAberrationR = 0,
			Clarity2012 = 2,
			ColorNoiseReduction = 25,
			ColorNoiseReductionDetail = 50,
			ColorNoiseReductionSmoothness = 50,
			Contrast2012 = 0,
			ConvertToGrayscale = false,
			Defringe = 0,
			DefringeGreenAmount = 0,
			DefringeGreenHueHi = 60,
			DefringeGreenHueLo = 40,
			DefringePurpleAmount = 0,
			DefringePurpleHueHi = 70,
			DefringePurpleHueLo = 30,
			EnableCalibration = true,
			EnableColorAdjustments = true,
			EnableDetail = true,
			EnableEffects = true,
			EnableLensCorrections = false,
			EnableSplitToning = true,
			Exposure2012 = 0,
			GrainAmount = 0,
			GrainFrequency = 50,
			GrainSize = 25,
			GreenHue = 0,
			GreenSaturation = 0,
			Highlights2012 = 0,
			HueAdjustmentAqua = 0,
			HueAdjustmentBlue = 5,
			HueAdjustmentGreen = 0,
			HueAdjustmentMagenta = 0,
			HueAdjustmentOrange = 0,
			HueAdjustmentPurple = 0,
			HueAdjustmentRed = 0,
			HueAdjustmentYellow = 0,
			LuminanceAdjustmentAqua = 3,
			LuminanceAdjustmentBlue = 0,
			LuminanceAdjustmentGreen = 0,
			LuminanceAdjustmentMagenta = 0,
			LuminanceAdjustmentOrange = -1,
			LuminanceAdjustmentPurple = 0,
			LuminanceAdjustmentRed = 0,
			LuminanceAdjustmentYellow = -3,
			LuminanceNoiseReductionContrast = 0,
			LuminanceNoiseReductionDetail = 50,
			LuminanceSmoothing = 2,
			ParametricDarks = -45,
			ParametricHighlightSplit = 75,
			ParametricHighlights = 12,
			ParametricLights = 22,
			ParametricMidtoneSplit = 50,
			ParametricShadowSplit = 25,
			ParametricShadows = 0,
			PostCropVignetteAmount = -11,
			PostCropVignetteFeather = 50,
			PostCropVignetteHighlightContrast = 0,
			PostCropVignetteMidpoint = 47,
			PostCropVignetteRoundness = 32,
			PostCropVignetteStyle = 1,
			ProcessVersion = "6.7",
			RedHue = 0,
			RedSaturation = 0,
			Saturation = -43,
			SaturationAdjustmentAqua = 0,
			SaturationAdjustmentBlue = 0,
			SaturationAdjustmentGreen = 0,
			SaturationAdjustmentMagenta = 0,
			SaturationAdjustmentOrange = 0,
			SaturationAdjustmentPurple = 0,
			SaturationAdjustmentRed = 0,
			SaturationAdjustmentYellow = 1,
			ShadowTint = 0,
			Shadows2012 = 14,
			SharpenDetail = 8,
			SharpenEdgeMasking = 0,
			SharpenRadius = 0.8,
			Sharpness = 25,
			SplitToningBalance = 59,
			SplitToningHighlightHue = 73,
			SplitToningHighlightSaturation = 15,
			SplitToningShadowHue = 10,
			SplitToningShadowSaturation = 7,
			ToneCurveName2012 = "Custom",
			ToneCurvePV2012 = {
				0,
				55,
				57,
				81,
				95,
				117,
				137,
				158,
				197,
				203,
				255,
				246,
			},
			ToneCurvePV2012Blue = {
				0,
				25,
				255,
				238,
			},
			ToneCurvePV2012Green = {
				0,
				3,
				255,
				240,
			},
			ToneCurvePV2012Red = {
				0,
				26,
				110,
				115,
				255,
				247,
			},
			Vibrance = 7,
			VignetteAmount = 0,
			VignetteMidpoint = 50,
			WhiteBalance = "As Shot",
			Whites2012 = 7,
		},
		uuid = "941CE8AB-8F65-45EC-A1F7-9A9442DBB1D2",
	},
	version = 0,
}
