CM - Wedding Lightroom Presets Bundle HQ 323529/Presets Bundle/Matte Lightroom Presets by BeArt/beart-Matte For Vintage.lrtemplate
s = {
	id = "6DFE7D17-32A9-49D4-B6C9-76CBD4415999",
	internalName = "5",
	title = "beart-Matte For Vintage",
	type = "Develop",
	value = {
		settings = {
			AutoLateralCA = 0,
			AutoWhiteVersion = 134348800,
			Blacks2012 = 10,
			BlueHue = -7,
			BlueSaturation = 31,
			CameraProfile = "Adobe Standard",
			ChromaticAberrationB = 0,
			ChromaticAberrationR = 0,
			Clarity2012 = 10,
			ColorNoiseReduction = 25,
			ColorNoiseReductionDetail = 50,
			ColorNoiseReductionSmoothness = 50,
			Contrast2012 = 26,
			ConvertToGrayscale = false,
			Defringe = 0,
			DefringeGreenAmount = 0,
			DefringeGreenHueHi = 60,
			DefringeGreenHueLo = 40,
			DefringePurpleAmount = 0,
			DefringePurpleHueHi = 70,
			DefringePurpleHueLo = 30,
			EnableCalibration = true,
			EnableColorAdjustments = true,
			EnableDetail = true,
			EnableEffects = true,
			EnableLensCorrections = false,
			EnableSplitToning = true,
			Exposure2012 = -0.12,
			GrainAmount = 0,
			GrainFrequency = 50,
			GrainSize = 25,
			GreenHue = 0,
			GreenSaturation = 0,
			Highlights2012 = 0,
			HueAdjustmentAqua = 0,
			HueAdjustmentBlue = -10,
			HueAdjustmentGreen = 0,
			HueAdjustmentMagenta = 0,
			HueAdjustmentOrange = 0,
			HueAdjustmentPurple = 0,
			HueAdjustmentRed = 0,
			HueAdjustmentYellow = 0,
			LuminanceAdjustmentAqua = -5,
			LuminanceAdjustmentBlue = 0,
			LuminanceAdjustmentGreen = 0,
			LuminanceAdjustmentMagenta = 0,
			LuminanceAdjustmentOrange = 15,
			LuminanceAdjustmentPurple = 0,
			LuminanceAdjustmentRed = 20,
			LuminanceAdjustmentYellow = -5,
			LuminanceNoiseReductionContrast = 0,
			LuminanceNoiseReductionDetail = 50,
			LuminanceSmoothing = 5,
			ParametricDarks = -20,
			ParametricHighlightSplit = 75,
			ParametricHighlights = 12,
			ParametricLights = 7,
			ParametricMidtoneSplit = 50,
			ParametricShadowSplit = 25,
			ParametricShadows = 0,
			PostCropVignetteAmount = -2,
			PostCropVignetteFeather = 50,
			PostCropVignetteHighlightContrast = 0,
			PostCropVignetteMidpoint = 47,
			PostCropVignetteRoundness = 32,
			PostCropVignetteStyle = 1,
			ProcessVersion = "6.7",
			RedHue = 0,
			RedSaturation = 0,
			Saturation = -31,
			SaturationAdjustmentAqua = 0,
			SaturationAdjustmentBlue = 0,
			SaturationAdjustmentGreen = 0,
			SaturationAdjustmentMagenta = 0,
			SaturationAdjustmentOrange = -15,
			SaturationAdjustmentPurple = 0,
			SaturationAdjustmentRed = -10,
			SaturationAdjustmentYellow = 5,
			ShadowTint = 0,
			Shadows2012 = 12,
			SharpenDetail = 6,
			SharpenEdgeMasking = 0,
			SharpenRadius = 0.8,
			Sharpness = 25,
			SplitToningBalance = 71,
			SplitToningHighlightHue = 45,
			SplitToningHighlightSaturation = 30,
			SplitToningShadowHue = 221,
			SplitToningShadowSaturation = 32,
			ToneCurveName2012 = "Custom",
			ToneCurvePV2012 = {
				0,
				53,
				25,
				60,
				59,
				77,
				124,
				131,
				128,
				134,
				132,
				137,
				192,
				181,
				227,
				204,
				255,
				219,
			},
			ToneCurvePV2012Blue = {
				0,
				25,
				255,
				238,
			},
			ToneCurvePV2012Green = {
				0,
				3,
				255,
				240,
			},
			ToneCurvePV2012Red = {
				51,
				68,
				123,
				121,
				255,
				255,
			},
			Vibrance = 12,
			VignetteAmount = 0,
			VignetteMidpoint = 50,
			WhiteBalance = "Auto",
			Whites2012 = 0,
		},
		uuid = "AA51315F-60A8-449A-94CC-E76325BCE60D",
	},
	version = 0,
}
