CM - 50 Summer Wedding Lightroom Workflow 316671/50/50 .Irtemplate Presets/Summer Wedding-Preset-29_aestheticartz.com.lrtemplate
s = {
	id = "C89DA5DE-E4CB-430C-8850-D4C73F42F153",
	internalName = "Summer Wedding-Preset-29_aestheticartz.com",
	title = "Summer Wedding-Preset-29_aestheticartz.com",
	type = "Develop",
	value = {
		settings = {
			AutoLateralCA = 0,
			Blacks2012 = -14,
			BlueHue = 0,
			BlueSaturation = 0,
			CameraProfile = "Embedded",
			ChromaticAberrationB = 0,
			ChromaticAberrationR = 0,
			Clarity2012 = -3,
			ColorNoiseReduction = 0,
			ColorNoiseReductionDetail = 50,
			ColorNoiseReductionSmoothness = 50,
			Contrast2012 = 18,
			ConvertToGrayscale = false,
			CropConstrainToWarp = 0,
			Defringe = 0,
			DefringeGreenAmount = 0,
			DefringeGreenHueHi = 60,
			DefringeGreenHueLo = 40,
			DefringePurpleAmount = 0,
			DefringePurpleHueHi = 70,
			DefringePurpleHueLo = 30,
			EnableCalibration = true,
			EnableColorAdjustments = true,
			EnableDetail = true,
			EnableEffects = true,
			EnableGradientBasedCorrections = true,
			EnableLensCorrections = true,
			EnableSplitToning = true,
			Exposure2012 = 0.23,
			GrainAmount = 0,
			GrainFrequency = 50,
			GrainSize = 25,
			GreenHue = 0,
			GreenSaturation = 0,
			Highlights2012 = -40,
			HueAdjustmentAqua = 0,
			HueAdjustmentBlue = 0,
			HueAdjustmentGreen = 0,
			HueAdjustmentMagenta = 0,
			HueAdjustmentOrange = 0,
			HueAdjustmentPurple = 0,
			HueAdjustmentRed = 0,
			HueAdjustmentYellow = 0,
			IncrementalTemperature = 19,
			IncrementalTint = -2,
			LensManualDistortionAmount = 0,
			LensProfileChromaticAberrationScale = 100,
			LensProfileDigest = "9D9772AF875877A4DB82BBF5025FF082",
			LensProfileDistortionScale = 100,
			LensProfileEnable = 0,
			LensProfileFilename = "DSLR-A900 (Sony 50mm f1.4) - RAW.lcp",
			LensProfileName = "Adobe (Sony 50mm F1.4)",
			LensProfileSetup = "Custom",
			LensProfileVignettingScale = 100,
			LuminanceAdjustmentAqua = -8,
			LuminanceAdjustmentBlue = -9,
			LuminanceAdjustmentGreen = -5,
			LuminanceAdjustmentMagenta = -10,
			LuminanceAdjustmentOrange = 0,
			LuminanceAdjustmentPurple = -10,
			LuminanceAdjustmentRed = 5,
			LuminanceAdjustmentYellow = -9,
			LuminanceNoiseReductionContrast = 0,
			LuminanceNoiseReductionDetail = 50,
			LuminanceSmoothing = 21,
			ParametricDarks = 2,
			ParametricHighlightSplit = 76,
			ParametricHighlights = 36,
			ParametricLights = 17,
			ParametricMidtoneSplit = 50,
			ParametricShadowSplit = 25,
			ParametricShadows = -33,
			PerspectiveAspect = 0,
			PerspectiveHorizontal = 0,
			PerspectiveRotate = 0,
			PerspectiveScale = 100,
			PerspectiveVertical = 0,
			PostCropVignetteAmount = 0,
			PostCropVignetteFeather = 50,
			PostCropVignetteHighlightContrast = 0,
			PostCropVignetteMidpoint = 50,
			PostCropVignetteRoundness = 0,
			PostCropVignetteStyle = 1,
			ProcessVersion = "6.7",
			RedHue = 0,
			RedSaturation = 0,
			Saturation = 5,
			SaturationAdjustmentAqua = -54,
			SaturationAdjustmentBlue = -69,
			SaturationAdjustmentGreen = -55,
			SaturationAdjustmentMagenta = -60,
			SaturationAdjustmentOrange = -47,
			SaturationAdjustmentPurple = -54,
			SaturationAdjustmentRed = -45,
			SaturationAdjustmentYellow = -55,
			ShadowTint = 0,
			Shadows2012 = 32,
			SharpenDetail = 25,
			SharpenEdgeMasking = 0,
			SharpenRadius = 0.9,
			Sharpness = 64,
			SplitToningBalance = 42,
			SplitToningHighlightHue = 251,
			SplitToningHighlightSaturation = 25,
			SplitToningShadowHue = 19,
			SplitToningShadowSaturation = 25,
			ToneCurveName2012 = "Custom",
			ToneCurvePV2012 = {
				1,
				30,
				67,
				55,
				134,
				112,
				180,
				165,
				229,
				222,
				255,
				242,
			},
			ToneCurvePV2012Blue = {
				0,
				0,
				37,
				35,
				85,
				84,
				197,
				192,
				255,
				255,
			},
			ToneCurvePV2012Green = {
				0,
				0,
				255,
				255,
			},
			ToneCurvePV2012Red = {
				0,
				0,
				70,
				72,
				194,
				197,
				255,
				255,
			},
			Vibrance = 76,
			VignetteAmount = -100,
			VignetteMidpoint = 7,
			WhiteBalance = "Custom",
			Whites2012 = 27,
			orientation = "AB",
		},
		uuid = "FAC72E56-32B2-4DA4-9819-D5D3BBB6C673",
	},
	version = 0,
}
