CM - Wedding Pro 10 Lightroom Presets 317766/CP - LR - WEDDING PRO/WEDDING PRO 4 B&W -.lrtemplate
s = {
	id = "28F08072-8688-4516-83A0-8EACEBEB15BA",
	internalName = "WEDDING PRO 4 B&W -",
	title = "WEDDING PRO 4 B&W -",
	type = "Develop",
	value = {
		settings = {
			AutoLateralCA = 0,
			Blacks2012 = 0,
			BlueHue = -30,
			BlueSaturation = -40,
			CameraProfile = "Adobe Standard",
			ChromaticAberrationB = 0,
			ChromaticAberrationR = 0,
			Clarity2012 = 0,
			ColorNoiseReduction = 0,
			ColorNoiseReductionDetail = 50,
			ColorNoiseReductionSmoothness = 50,
			Contrast2012 = 0,
			ConvertToGrayscale = true,
			Defringe = 0,
			DefringeGreenAmount = 0,
			DefringeGreenHueHi = 60,
			DefringeGreenHueLo = 40,
			DefringePurpleAmount = 0,
			DefringePurpleHueHi = 70,
			DefringePurpleHueLo = 30,
			EnableCalibration = true,
			EnableDetail = true,
			EnableEffects = true,
			EnableGrayscaleMix = true,
			EnableLensCorrections = true,
			EnableSplitToning = true,
			Exposure2012 = 0,
			GrainAmount = 35,
			GrainFrequency = 60,
			GrainSize = 15,
			GrayMixerAqua = -15,
			GrayMixerBlue = -15,
			GrayMixerGreen = -20,
			GrayMixerMagenta = 0,
			GrayMixerOrange = 10,
			GrayMixerPurple = 0,
			GrayMixerRed = -5,
			GrayMixerYellow = -10,
			GreenHue = -10,
			GreenSaturation = -40,
			Highlights2012 = -35,
			LuminanceNoiseReductionContrast = 0,
			LuminanceNoiseReductionDetail = 50,
			LuminanceSmoothing = 0,
			ParametricDarks = -25,
			ParametricHighlightSplit = 75,
			ParametricHighlights = 25,
			ParametricLights = 15,
			ParametricMidtoneSplit = 40,
			ParametricShadowSplit = 25,
			ParametricShadows = 0,
			PostCropVignetteAmount = 0,
			PostCropVignetteFeather = 50,
			PostCropVignetteHighlightContrast = 0,
			PostCropVignetteMidpoint = 50,
			PostCropVignetteRoundness = 0,
			PostCropVignetteStyle = 1,
			ProcessVersion = "6.7",
			RedHue = 25,
			RedSaturation = 50,
			ShadowTint = 0,
			Shadows2012 = 15,
			SharpenDetail = 25,
			SharpenEdgeMasking = 0,
			SharpenRadius = 1,
			Sharpness = 15,
			SplitToningBalance = 0,
			SplitToningHighlightHue = 0,
			SplitToningHighlightSaturation = 0,
			SplitToningShadowHue = 0,
			SplitToningShadowSaturation = 0,
			ToneCurveName2012 = "Linear",
			ToneCurvePV2012 = {
				0,
				0,
				255,
				255,
			},
			ToneCurvePV2012Blue = {
				0,
				0,
				255,
				255,
			},
			ToneCurvePV2012Green = {
				0,
				0,
				255,
				255,
			},
			ToneCurvePV2012Red = {
				0,
				0,
				255,
				255,
			},
			VignetteAmount = 0,
			VignetteMidpoint = 50,
			WhiteBalance = "As Shot",
			Whites2012 = -10,
		},
		uuid = "129C2A97-1E45-4599-9652-FE02C7D652A2",
	},
	version = 0,
}
