CM - Wedding Pro 10 Lightroom Presets 317766/CP - LR - WEDDING PRO/WEDDING PRO 8.lrtemplate
s = {
	id = "1A227713-F8E4-4A39-A964-821C47924E77",
	internalName = "WEDDING PRO 8",
	title = "WEDDING PRO 8",
	type = "Develop",
	value = {
		settings = {
			AutoLateralCA = 0,
			Blacks2012 = 0,
			BlueHue = -5,
			BlueSaturation = -15,
			CameraProfile = "Adobe Standard",
			ChromaticAberrationB = 0,
			ChromaticAberrationR = 0,
			Clarity2012 = -10,
			ColorNoiseReduction = 0,
			ColorNoiseReductionDetail = 50,
			ColorNoiseReductionSmoothness = 50,
			Contrast2012 = 0,
			ConvertToGrayscale = false,
			Defringe = 0,
			DefringeGreenAmount = 0,
			DefringeGreenHueHi = 60,
			DefringeGreenHueLo = 40,
			DefringePurpleAmount = 0,
			DefringePurpleHueHi = 70,
			DefringePurpleHueLo = 30,
			EnableCalibration = true,
			EnableColorAdjustments = true,
			EnableDetail = true,
			EnableEffects = true,
			EnableLensCorrections = true,
			EnableSplitToning = true,
			Exposure2012 = 0,
			GrainAmount = 40,
			GrainFrequency = 85,
			GrainSize = 35,
			GreenHue = 50,
			GreenSaturation = -15,
			Highlights2012 = -40,
			HueAdjustmentAqua = 10,
			HueAdjustmentBlue = -5,
			HueAdjustmentGreen = 5,
			HueAdjustmentMagenta = 30,
			HueAdjustmentOrange = 0,
			HueAdjustmentPurple = 20,
			HueAdjustmentRed = 25,
			HueAdjustmentYellow = 0,
			LuminanceAdjustmentAqua = 15,
			LuminanceAdjustmentBlue = -25,
			LuminanceAdjustmentGreen = 20,
			LuminanceAdjustmentMagenta = 0,
			LuminanceAdjustmentOrange = -5,
			LuminanceAdjustmentPurple = -15,
			LuminanceAdjustmentRed = -20,
			LuminanceAdjustmentYellow = 10,
			LuminanceNoiseReductionContrast = 0,
			LuminanceNoiseReductionDetail = 50,
			LuminanceSmoothing = 0,
			ParametricDarks = 20,
			ParametricHighlightSplit = 78,
			ParametricHighlights = 15,
			ParametricLights = 3,
			ParametricMidtoneSplit = 50,
			ParametricShadowSplit = 20,
			ParametricShadows = 0,
			PostCropVignetteAmount = 0,
			PostCropVignetteFeather = 50,
			PostCropVignetteHighlightContrast = 0,
			PostCropVignetteMidpoint = 50,
			PostCropVignetteRoundness = 0,
			PostCropVignetteStyle = 1,
			ProcessVersion = "6.7",
			RedHue = 25,
			RedSaturation = 35,
			Saturation = 0,
			SaturationAdjustmentAqua = -35,
			SaturationAdjustmentBlue = -25,
			SaturationAdjustmentGreen = -30,
			SaturationAdjustmentMagenta = -30,
			SaturationAdjustmentOrange = -15,
			SaturationAdjustmentPurple = -45,
			SaturationAdjustmentRed = 0,
			SaturationAdjustmentYellow = -5,
			ShadowTint = -4,
			Shadows2012 = 20,
			SharpenDetail = 25,
			SharpenEdgeMasking = 0,
			SharpenRadius = 1,
			Sharpness = 0,
			SplitToningBalance = 0,
			SplitToningHighlightHue = 0,
			SplitToningHighlightSaturation = 0,
			SplitToningShadowHue = 0,
			SplitToningShadowSaturation = 0,
			ToneCurveName2012 = "Custom",
			ToneCurvePV2012 = {
				0,
				46,
				72,
				72,
				128,
				130,
				188,
				189,
				255,
				245,
			},
			ToneCurvePV2012Blue = {
				0,
				14,
				46,
				51,
				107,
				120,
				174,
				187,
				255,
				255,
			},
			ToneCurvePV2012Green = {
				0,
				0,
				33,
				12,
				79,
				58,
				114,
				120,
				177,
				202,
				255,
				255,
			},
			ToneCurvePV2012Red = {
				0,
				0,
				36,
				10,
				82,
				62,
				114,
				121,
				175,
				196,
				255,
				255,
			},
			Vibrance = 0,
			VignetteAmount = 0,
			VignetteMidpoint = 50,
			WhiteBalance = "As Shot",
			Whites2012 = -20,
		},
		uuid = "0734D865-2E6F-4B43-9509-D459F42F1E67",
	},
	version = 0,
}
