HQLightroomPresets 505 V.3.4/HQLightroomPresets 505 V.3.4/HQLightroomPresets Lr2-Lr3 RAW/BW Classy ~ HQLightroomPresets _.lrtemplate
s = {
	id = "59A97B3C-80B3-407C-9ED8-A679CDC1000E",
	internalName = "Copyrights © 2012 ~ HQLighroomPresets.com",
	title = "BW Classy ~ HQLightroomPresets  ",
	type = "Develop",
	value = {
		settings = {
			AutoBrightness = false,
			AutoContrast = false,
			AutoExposure = false,
			AutoShadows = false,
			BlueHue = 0,
			BlueSaturation = 0,
			Brightness = 50,
			CameraProfile = "Embedded",
			ChromaticAberrationB = 0,
			ChromaticAberrationR = 0,
			Clarity = 53,
			ColorNoiseReductionDetail = 50,
			Contrast = -17,
			ConvertToGrayscale = true,
			Defringe = 0,
			EnableCalibration = true,
			EnableDetail = true,
			EnableEffects = true,
			EnableGrayscaleMix = true,
			EnableLensCorrections = true,
			EnableSplitToning = true,
			Exposure = 0.78,
			FillLight = 3,
			GrainAmount = 0,
			GrainFrequency = 50,
			GrainSize = 25,
			GrayMixerAqua = -12,
			GrayMixerBlue = 4,
			GrayMixerGreen = -9,
			GrayMixerMagenta = -1,
			GrayMixerOrange = -10,
			GrayMixerPurple = 9,
			GrayMixerRed = -1,
			GrayMixerYellow = -5,
			GreenHue = 0,
			GreenSaturation = 0,
			HighlightRecovery = 7,
			LuminanceNoiseReductionContrast = 0,
			LuminanceNoiseReductionDetail = 50,
			LuminanceSmoothing = 7,
			ParametricDarks = 0,
			ParametricHighlightSplit = 75,
			ParametricHighlights = 0,
			ParametricLights = -2,
			ParametricMidtoneSplit = 50,
			ParametricShadowSplit = 25,
			ParametricShadows = 0,
			PostCropVignetteAmount = -29,
			PostCropVignetteFeather = 69,
			PostCropVignetteHighlightContrast = 0,
			PostCropVignetteMidpoint = 36,
			PostCropVignetteRoundness = 0,
			PostCropVignetteStyle = 1,
			ProcessVersion = "5.7",
			RedHue = 0,
			RedSaturation = 0,
			ShadowTint = 0,
			Shadows = 18,
			SharpenDetail = 25,
			SharpenEdgeMasking = 0,
			SharpenRadius = 1,
			Sharpness = 57,
			SplitToningBalance = 53,
			SplitToningHighlightHue = 28,
			SplitToningHighlightSaturation = 5,
			SplitToningShadowHue = 245,
			SplitToningShadowSaturation = 0,
			Temperature = 8954,
			Tint = -28,
			ToneCurve = {
				0,
				36,
				65,
				58,
				121,
				128,
				181,
				186,
				255,
				229,
			},
			ToneCurveName = "Custom",
			VignetteAmount = -1,
			VignetteMidpoint = 20,
			WhiteBalance = "Custom",
		},
		uuid = "1B6D0B0F-751A-4A09-B261-F20AE4B44472",
	},
	version = 0,
}
