HQLightroomPresets 505 V.3.4/HQLightroomPresets 505 V.3.4/HQLightroomPresets Lr2-Lr3 RAW/BW Lasso The Moon ~ HQLightroomPresets _.lrtemplate
s = {
	id = "77F47F4B-1318-4E59-9234-68C1F056EC45",
	internalName = "Copyrights © 2012 ~ HQLighroomPresets.com",
	title = "BW Lasso The Moon ~ HQLightroomPresets  ",
	type = "Develop",
	value = {
		settings = {
			AutoBrightness = false,
			AutoContrast = false,
			AutoExposure = false,
			AutoShadows = false,
			BlueHue = 0,
			BlueSaturation = -48,
			Brightness = 98,
			CameraProfile = "Embedded",
			ChromaticAberrationB = 0,
			ChromaticAberrationR = 0,
			Clarity = 37,
			ColorNoiseReductionDetail = 50,
			Contrast = 29,
			ConvertToGrayscale = true,
			Defringe = 0,
			EnableCalibration = true,
			EnableDetail = true,
			EnableEffects = true,
			EnableGrayscaleMix = true,
			EnableLensCorrections = true,
			EnableSplitToning = true,
			Exposure = 0.78,
			FillLight = 22,
			GrainAmount = 0,
			GrainFrequency = 50,
			GrainSize = 25,
			GrayMixerAqua = -20,
			GrayMixerBlue = 4,
			GrayMixerGreen = -22,
			GrayMixerMagenta = 4,
			GrayMixerOrange = -12,
			GrayMixerPurple = 11,
			GrayMixerRed = -4,
			GrayMixerYellow = -15,
			GreenHue = 0,
			GreenSaturation = -55,
			HighlightRecovery = 46,
			LuminanceNoiseReductionContrast = 0,
			LuminanceNoiseReductionDetail = 50,
			LuminanceSmoothing = 7,
			ParametricDarks = 0,
			ParametricHighlightSplit = 75,
			ParametricHighlights = 0,
			ParametricLights = -2,
			ParametricMidtoneSplit = 50,
			ParametricShadowSplit = 25,
			ParametricShadows = 0,
			PostCropVignetteAmount = -34,
			PostCropVignetteFeather = 70,
			PostCropVignetteHighlightContrast = 0,
			PostCropVignetteMidpoint = 29,
			PostCropVignetteRoundness = 78,
			PostCropVignetteStyle = 1,
			ProcessVersion = "5.7",
			RedHue = 0,
			RedSaturation = -58,
			ShadowTint = 0,
			Shadows = 18,
			SharpenDetail = 25,
			SharpenEdgeMasking = 0,
			SharpenRadius = 1,
			Sharpness = 57,
			SplitToningBalance = 53,
			SplitToningHighlightHue = 25,
			SplitToningHighlightSaturation = 0,
			SplitToningShadowHue = 217,
			SplitToningShadowSaturation = 26,
			Temperature = 4168,
			Tint = 10,
			ToneCurve = {
				0,
				22,
				62,
				55,
				128,
				128,
				187,
				180,
				255,
				229,
			},
			ToneCurveName = "Custom",
			VignetteAmount = -34,
			VignetteMidpoint = 20,
			WhiteBalance = "Custom",
		},
		uuid = "447998AA-5702-41D6-AB76-A30E79BC1C1F",
	},
	version = 0,
}
