HQLightroomPresets 505 V.3.4/HQLightroomPresets 505 V.3.4/HQLightroomPresets Lr2-Lr3 RAW/Clean & Clear - Innoncent ~ HQLightroomPresets _.lrtemplate
s = {
	id = "EE38FD5B-5C27-4621-A8A3-8BA24BED461A",
	internalName = "Copyrights © 2012 ~ HQLighroomPresets.com",
	title = "Clean & Clear : Innoncent ~ HQLightroomPresets  ",
	type = "Develop",
	value = {
		settings = {
			AutoBrightness = false,
			AutoContrast = false,
			AutoExposure = false,
			AutoShadows = false,
			BlueHue = -14,
			BlueSaturation = 28,
			Brightness = 50,
			CameraProfile = "Embedded",
			ChromaticAberrationB = 0,
			ChromaticAberrationR = 0,
			Clarity = 13,
			ColorNoiseReduction = 0,
			ColorNoiseReductionDetail = 50,
			Contrast = 59,
			ConvertToGrayscale = false,
			Defringe = 0,
			EnableCalibration = true,
			EnableColorAdjustments = true,
			EnableDetail = true,
			EnableEffects = true,
			EnableLensCorrections = true,
			EnableSplitToning = true,
			Exposure = 0.32,
			FillLight = 0,
			GrainAmount = 0,
			GrainFrequency = 50,
			GrainSize = 50,
			GreenHue = 27,
			GreenSaturation = 17,
			HighlightRecovery = 16,
			HueAdjustmentAqua = -49,
			HueAdjustmentBlue = 0,
			HueAdjustmentGreen = -94,
			HueAdjustmentMagenta = 0,
			HueAdjustmentOrange = 0,
			HueAdjustmentPurple = 0,
			HueAdjustmentRed = 0,
			HueAdjustmentYellow = -38,
			LuminanceAdjustmentAqua = 0,
			LuminanceAdjustmentBlue = 0,
			LuminanceAdjustmentGreen = 0,
			LuminanceAdjustmentMagenta = 0,
			LuminanceAdjustmentOrange = -5,
			LuminanceAdjustmentPurple = 0,
			LuminanceAdjustmentRed = -10,
			LuminanceAdjustmentYellow = 0,
			LuminanceNoiseReductionContrast = 0,
			LuminanceNoiseReductionDetail = 50,
			LuminanceSmoothing = 9,
			ParametricDarks = 52,
			ParametricHighlightSplit = 90,
			ParametricHighlights = 0,
			ParametricLights = 0,
			ParametricMidtoneSplit = 59,
			ParametricShadowSplit = 10,
			ParametricShadows = 0,
			PostCropVignetteAmount = -8,
			PostCropVignetteFeather = 50,
			PostCropVignetteHighlightContrast = 0,
			PostCropVignetteMidpoint = 35,
			PostCropVignetteRoundness = 0,
			PostCropVignetteStyle = 1,
			ProcessVersion = "5.7",
			RedHue = 23,
			RedSaturation = 2,
			Saturation = -5,
			SaturationAdjustmentAqua = -49,
			SaturationAdjustmentBlue = -47,
			SaturationAdjustmentGreen = -49,
			SaturationAdjustmentMagenta = 0,
			SaturationAdjustmentOrange = 0,
			SaturationAdjustmentPurple = 0,
			SaturationAdjustmentRed = 4,
			SaturationAdjustmentYellow = 0,
			ShadowTint = 0,
			Shadows = 15,
			SharpenDetail = 25,
			SharpenEdgeMasking = 0,
			SharpenRadius = 1,
			Sharpness = 51,
			SplitToningBalance = 52,
			SplitToningHighlightHue = 180,
			SplitToningHighlightSaturation = 24,
			SplitToningShadowHue = 228,
			SplitToningShadowSaturation = 80,
			Temperature = 7273,
			Tint = 62,
			ToneCurve = {
				0,
				0,
				255,
				255,
			},
			ToneCurveName = "Linear",
			Vibrance = -17,
			VignetteAmount = -16,
			VignetteMidpoint = 50,
			WhiteBalance = "Custom",
		},
		uuid = "CBF694EA-0CCB-453F-971A-03043EA0A6A5",
	},
	version = 0,
}
