HQLightroomPresets 505 V.3.4/HQLightroomPresets 505 V.3.4/HQLightroomPresets Lr2-Lr3 RAW/Dramatic - VintageVille ~ HQLightroomPresets _.lrtemplate
s = {
	id = "9CCCF03A-4887-4AAA-8E8B-93473675D067",
	internalName = "Copyrights © 2012 ~ HQLighroomPresets.com",
	title = "Dramatic : VintageVille ~ HQLightroomPresets  ",
	type = "Develop",
	value = {
		settings = {
			AutoBrightness = false,
			AutoContrast = false,
			AutoExposure = false,
			AutoShadows = false,
			BlueHue = 0,
			BlueSaturation = 0,
			Brightness = 50,
			CameraProfile = "ACR 2.4",
			ChromaticAberrationB = 0,
			ChromaticAberrationR = 0,
			Clarity = 28,
			ColorNoiseReduction = 28,
			ColorNoiseReductionDetail = 50,
			Contrast = 36,
			ConvertToGrayscale = false,
			Defringe = 0,
			EnableCalibration = true,
			EnableColorAdjustments = true,
			EnableDetail = true,
			EnableEffects = true,
			EnableLensCorrections = true,
			EnableSplitToning = true,
			Exposure = 0.41,
			FillLight = 10,
			GrainAmount = 0,
			GrainFrequency = 50,
			GrainSize = 25,
			GreenHue = 0,
			GreenSaturation = 0,
			HighlightRecovery = 25,
			HueAdjustmentAqua = 12,
			HueAdjustmentBlue = 15,
			HueAdjustmentGreen = 4,
			HueAdjustmentMagenta = -10,
			HueAdjustmentOrange = 12,
			HueAdjustmentPurple = 0,
			HueAdjustmentRed = -19,
			HueAdjustmentYellow = -5,
			LuminanceAdjustmentAqua = -10,
			LuminanceAdjustmentBlue = -15,
			LuminanceAdjustmentGreen = -7,
			LuminanceAdjustmentMagenta = -2,
			LuminanceAdjustmentOrange = -10,
			LuminanceAdjustmentPurple = -24,
			LuminanceAdjustmentRed = 0,
			LuminanceAdjustmentYellow = -9,
			LuminanceNoiseReductionContrast = 0,
			LuminanceNoiseReductionDetail = 50,
			LuminanceSmoothing = 13,
			ParametricDarks = -12,
			ParametricHighlightSplit = 75,
			ParametricHighlights = -30,
			ParametricLights = 17,
			ParametricMidtoneSplit = 50,
			ParametricShadowSplit = 25,
			ParametricShadows = 0,
			PostCropVignetteAmount = -22,
			PostCropVignetteFeather = 100,
			PostCropVignetteHighlightContrast = 0,
			PostCropVignetteMidpoint = 0,
			PostCropVignetteRoundness = -33,
			PostCropVignetteStyle = 1,
			ProcessVersion = "5.7",
			RedHue = 0,
			RedSaturation = 0,
			Saturation = -53,
			SaturationAdjustmentAqua = -77,
			SaturationAdjustmentBlue = -75,
			SaturationAdjustmentGreen = -89,
			SaturationAdjustmentMagenta = -39,
			SaturationAdjustmentOrange = 15,
			SaturationAdjustmentPurple = -52,
			SaturationAdjustmentRed = -2,
			SaturationAdjustmentYellow = 18,
			ShadowTint = 0,
			Shadows = 23,
			SharpenDetail = 50,
			SharpenEdgeMasking = 0,
			SharpenRadius = 1,
			Sharpness = 53,
			SplitToningBalance = 85,
			SplitToningHighlightHue = 0,
			SplitToningHighlightSaturation = 0,
			SplitToningShadowHue = 299,
			SplitToningShadowSaturation = 82,
			Temperature = 5185,
			Tint = -20,
			ToneCurve = {
				0,
				0,
				255,
				255,
			},
			ToneCurveName = "Linear",
			Vibrance = 6,
			VignetteAmount = 0,
			VignetteMidpoint = 47,
			WhiteBalance = "Custom",
		},
		uuid = "F4ED21C2-B181-45E9-8D35-183B44805C49",
	},
	version = 0,
}
