HQLightroomPresets 505 V.3.4/HQLightroomPresets 505 V.3.4/HQLightroomPresets Lr2-Lr3 RAW/Dramatic - Passive Agressive ~ HQLightroomPresets _.lrtemplate
s = {
	id = "7F1B423A-0603-41A0-8CDA-5536ED5836D6",
	internalName = "Copyrights © 2012 ~ HQLighroomPresets.com",
	title = "Dramatic : Passive Agressive ~ HQLightroomPresets  ",
	type = "Develop",
	value = {
		settings = {
			AutoBrightness = false,
			AutoContrast = false,
			AutoExposure = false,
			AutoShadows = false,
			BlueHue = 0,
			BlueSaturation = 0,
			Brightness = 50,
			CameraProfile = "ACR 2.4",
			ChromaticAberrationB = 0,
			ChromaticAberrationR = 0,
			Clarity = 11,
			ColorNoiseReduction = 28,
			ColorNoiseReductionDetail = 50,
			Contrast = 25,
			ConvertToGrayscale = false,
			Defringe = 0,
			EnableCalibration = true,
			EnableColorAdjustments = true,
			EnableDetail = true,
			EnableEffects = true,
			EnableLensCorrections = true,
			EnableSplitToning = true,
			Exposure = 0.6,
			FillLight = 6,
			GrainAmount = 0,
			GrainFrequency = 50,
			GrainSize = 25,
			GreenHue = 0,
			GreenSaturation = 0,
			HighlightRecovery = 25,
			HueAdjustmentAqua = 7,
			HueAdjustmentBlue = 23,
			HueAdjustmentGreen = 0,
			HueAdjustmentMagenta = -15,
			HueAdjustmentOrange = 32,
			HueAdjustmentPurple = -9,
			HueAdjustmentRed = -23,
			HueAdjustmentYellow = -26,
			LuminanceAdjustmentAqua = -60,
			LuminanceAdjustmentBlue = -55,
			LuminanceAdjustmentGreen = -7,
			LuminanceAdjustmentMagenta = -13,
			LuminanceAdjustmentOrange = -13,
			LuminanceAdjustmentPurple = -28,
			LuminanceAdjustmentRed = -2,
			LuminanceAdjustmentYellow = -13,
			LuminanceNoiseReductionContrast = 0,
			LuminanceNoiseReductionDetail = 50,
			LuminanceSmoothing = 10,
			ParametricDarks = -27,
			ParametricHighlightSplit = 75,
			ParametricHighlights = -30,
			ParametricLights = 17,
			ParametricMidtoneSplit = 50,
			ParametricShadowSplit = 25,
			ParametricShadows = 0,
			PostCropVignetteAmount = -17,
			PostCropVignetteFeather = 100,
			PostCropVignetteHighlightContrast = 0,
			PostCropVignetteMidpoint = 0,
			PostCropVignetteRoundness = -33,
			PostCropVignetteStyle = 1,
			ProcessVersion = "5.7",
			RedHue = 0,
			RedSaturation = 0,
			Saturation = -55,
			SaturationAdjustmentAqua = 69,
			SaturationAdjustmentBlue = -41,
			SaturationAdjustmentGreen = -55,
			SaturationAdjustmentMagenta = 15,
			SaturationAdjustmentOrange = 38,
			SaturationAdjustmentPurple = 32,
			SaturationAdjustmentRed = -2,
			SaturationAdjustmentYellow = 26,
			ShadowTint = 0,
			Shadows = 14,
			SharpenDetail = 50,
			SharpenEdgeMasking = 0,
			SharpenRadius = 1,
			Sharpness = 29,
			SplitToningBalance = 85,
			SplitToningHighlightHue = 0,
			SplitToningHighlightSaturation = 0,
			SplitToningShadowHue = 360,
			SplitToningShadowSaturation = 67,
			Temperature = 4213,
			Tint = -28,
			ToneCurve = {
				0,
				0,
				255,
				255,
			},
			ToneCurveName = "Linear",
			Vibrance = 6,
			VignetteAmount = -4,
			VignetteMidpoint = 20,
			WhiteBalance = "Custom",
		},
		uuid = "736A6A05-FEDF-4BBF-8086-E5E2A958B527",
	},
	version = 0,
}
