HQLightroomPresets 505 V.3.4/HQLightroomPresets 505 V.3.4/HQLightroomPresets Lr2-Lr3 RAW/False Color II - 66 Burning Down ~ HQLightroomPresets _.lrtemplate
s = {
	id = "2BF27DA6-ACA2-4EB4-A96E-320D3CB52F95",
	internalName = "Copyrights © 2012 ~ HQLighroomPresets.com",
	title = "False Color II : 66 Burning Down ~ HQLightroomPresets  ",
	type = "Develop",
	value = {
		settings = {
			AutoBrightness = false,
			AutoContrast = false,
			AutoExposure = false,
			AutoShadows = false,
			BlueHue = -98,
			BlueSaturation = -68,
			Brightness = 50,
			CameraProfile = "ACR 4.4",
			ChromaticAberrationB = 0,
			ChromaticAberrationR = 0,
			Clarity = -22,
			ColorNoiseReduction = 28,
			ColorNoiseReductionDetail = 50,
			Contrast = -12,
			ConvertToGrayscale = false,
			Defringe = 0,
			EnableCalibration = true,
			EnableColorAdjustments = true,
			EnableDetail = true,
			EnableEffects = true,
			EnableLensCorrections = true,
			EnableSplitToning = true,
			Exposure = 0.97,
			FillLight = 40,
			GrainAmount = 0,
			GrainFrequency = 50,
			GrainSize = 25,
			GreenHue = -15,
			GreenSaturation = -45,
			HighlightRecovery = 0,
			HueAdjustmentAqua = -18,
			HueAdjustmentBlue = 34,
			HueAdjustmentGreen = -82,
			HueAdjustmentMagenta = -52,
			HueAdjustmentOrange = -42,
			HueAdjustmentPurple = -48,
			HueAdjustmentRed = -58,
			HueAdjustmentYellow = -53,
			LuminanceAdjustmentAqua = -18,
			LuminanceAdjustmentBlue = -49,
			LuminanceAdjustmentGreen = 0,
			LuminanceAdjustmentMagenta = 41,
			LuminanceAdjustmentOrange = 49,
			LuminanceAdjustmentPurple = 36,
			LuminanceAdjustmentRed = 25,
			LuminanceAdjustmentYellow = 0,
			LuminanceNoiseReductionContrast = 0,
			LuminanceNoiseReductionDetail = 50,
			LuminanceSmoothing = 5,
			ParametricDarks = 0,
			ParametricHighlightSplit = 75,
			ParametricHighlights = 0,
			ParametricLights = 0,
			ParametricMidtoneSplit = 50,
			ParametricShadowSplit = 25,
			ParametricShadows = 0,
			PostCropVignetteAmount = -15,
			PostCropVignetteFeather = 75,
			PostCropVignetteHighlightContrast = 0,
			PostCropVignetteMidpoint = 0,
			PostCropVignetteRoundness = -33,
			PostCropVignetteStyle = 1,
			ProcessVersion = "5.7",
			RedHue = -3,
			RedSaturation = 33,
			Saturation = 3,
			SaturationAdjustmentAqua = -39,
			SaturationAdjustmentBlue = -44,
			SaturationAdjustmentGreen = 37,
			SaturationAdjustmentMagenta = 0,
			SaturationAdjustmentOrange = -50,
			SaturationAdjustmentPurple = -2,
			SaturationAdjustmentRed = -67,
			SaturationAdjustmentYellow = -3,
			ShadowTint = 0,
			Shadows = 17,
			SharpenDetail = 50,
			SharpenEdgeMasking = 0,
			SharpenRadius = 1,
			Sharpness = 45,
			SplitToningBalance = 0,
			SplitToningHighlightHue = 52,
			SplitToningHighlightSaturation = 21,
			SplitToningShadowHue = 0,
			SplitToningShadowSaturation = 0,
			Temperature = 4825,
			Tint = 12,
			ToneCurve = {
				0,
				0,
				77,
				65,
				131,
				139,
				187,
				195,
				255,
				233,
			},
			ToneCurveName = "Custom",
			Vibrance = 59,
			VignetteAmount = -100,
			VignetteMidpoint = 20,
			WhiteBalance = "Custom",
		},
		uuid = "B72A6D4B-493B-493A-9482-C6CD638BEFB6",
	},
	version = 0,
}
