HQLightroomPresets 505 V.3.4/HQLightroomPresets 505 V.3.4/HQLightroomPresets Lr2-Lr3 RAW/False Color II - 74 Beauty Infra Red ~ HQLightroomPresets _.lrtemplate
s = {
	id = "5C698012-EC80-46B2-9E14-03AF684FE2D4",
	internalName = "Copyrights © 2012 ~ HQLighroomPresets.com",
	title = "False Color II : 74 Beauty Infra Red ~ HQLightroomPresets  ",
	type = "Develop",
	value = {
		settings = {
			AutoBrightness = false,
			AutoContrast = false,
			AutoExposure = false,
			AutoShadows = false,
			BlueHue = -63,
			BlueSaturation = -70,
			Brightness = 40,
			CameraProfile = "Embedded",
			ChromaticAberrationB = 0,
			ChromaticAberrationR = 0,
			Clarity = 3,
			ColorNoiseReduction = 18,
			ColorNoiseReductionDetail = 12,
			Contrast = 9,
			ConvertToGrayscale = false,
			Defringe = 0,
			EnableCalibration = true,
			EnableColorAdjustments = true,
			EnableDetail = true,
			EnableEffects = true,
			EnableLensCorrections = true,
			EnableSplitToning = true,
			Exposure = -0.87,
			FillLight = 9,
			GrainAmount = 0,
			GrainFrequency = 50,
			GrainSize = 25,
			GreenHue = 98,
			GreenSaturation = 100,
			HighlightRecovery = 0,
			HueAdjustmentAqua = 48,
			HueAdjustmentBlue = -2,
			HueAdjustmentGreen = -45,
			HueAdjustmentMagenta = 0,
			HueAdjustmentOrange = 0,
			HueAdjustmentPurple = 0,
			HueAdjustmentRed = 32,
			HueAdjustmentYellow = 0,
			LuminanceAdjustmentAqua = 61,
			LuminanceAdjustmentBlue = 57,
			LuminanceAdjustmentGreen = 100,
			LuminanceAdjustmentMagenta = 64,
			LuminanceAdjustmentOrange = 100,
			LuminanceAdjustmentPurple = 57,
			LuminanceAdjustmentRed = 93,
			LuminanceAdjustmentYellow = 100,
			LuminanceNoiseReductionContrast = 0,
			LuminanceNoiseReductionDetail = 50,
			LuminanceSmoothing = 15,
			ParametricDarks = 52,
			ParametricHighlightSplit = 90,
			ParametricHighlights = 0,
			ParametricLights = 0,
			ParametricMidtoneSplit = 59,
			ParametricShadowSplit = 10,
			ParametricShadows = 0,
			PostCropVignetteAmount = -10,
			PostCropVignetteFeather = 54,
			PostCropVignetteHighlightContrast = 0,
			PostCropVignetteMidpoint = 10,
			PostCropVignetteRoundness = 52,
			PostCropVignetteStyle = 1,
			ProcessVersion = "5.7",
			RedHue = -33,
			RedSaturation = -77,
			Saturation = 82,
			SaturationAdjustmentAqua = -63,
			SaturationAdjustmentBlue = 0,
			SaturationAdjustmentGreen = -95,
			SaturationAdjustmentMagenta = 0,
			SaturationAdjustmentOrange = -66,
			SaturationAdjustmentPurple = 0,
			SaturationAdjustmentRed = -14,
			SaturationAdjustmentYellow = -75,
			ShadowTint = 36,
			Shadows = 16,
			SharpenDetail = 28,
			SharpenEdgeMasking = 0,
			SharpenRadius = 1.5,
			Sharpness = 67,
			SplitToningBalance = -52,
			SplitToningHighlightHue = 252,
			SplitToningHighlightSaturation = 20,
			SplitToningShadowHue = 281,
			SplitToningShadowSaturation = 0,
			Temperature = 7612,
			Tint = -40,
			ToneCurve = {
				10,
				26,
				107,
				151,
				255,
				255,
			},
			ToneCurveName = "Custom",
			Vibrance = -77,
			VignetteAmount = -18,
			VignetteMidpoint = 50,
			WhiteBalance = "Custom",
		},
		uuid = "6E1A982C-C267-46DA-8AFD-8F7714DA3644",
	},
	version = 0,
}
