HQLightroomPresets 505 V.3.4/HQLightroomPresets 505 V.3.4/HQLightroomPresets Lr2-Lr3 RAW/False Color II - 80 Strong Bisque ~ HQLightroomPresets _.lrtemplate
s = {
	id = "0EE20865-4EA9-4474-8B95-A8CE17B77FB8",
	internalName = "Copyrights © 2012 ~ HQLighroomPresets.com",
	title = "False Color II : 80 Strong Bisque ~ HQLightroomPresets  ",
	type = "Develop",
	value = {
		settings = {
			AutoBrightness = false,
			AutoContrast = false,
			AutoExposure = false,
			AutoShadows = false,
			BlueHue = -100,
			BlueSaturation = 31,
			Brightness = 50,
			CameraProfile = "Embedded",
			ChromaticAberrationB = 0,
			ChromaticAberrationR = 0,
			Clarity = 11,
			ColorNoiseReduction = 28,
			ColorNoiseReductionDetail = 50,
			Contrast = 12,
			ConvertToGrayscale = false,
			Defringe = 0,
			EnableCalibration = true,
			EnableColorAdjustments = true,
			EnableDetail = true,
			EnableEffects = true,
			EnableLensCorrections = true,
			EnableSplitToning = true,
			Exposure = 0.05,
			FillLight = 5,
			GrainAmount = 0,
			GrainFrequency = 50,
			GrainSize = 25,
			GreenHue = 100,
			GreenSaturation = -43,
			HighlightRecovery = 66,
			HueAdjustmentAqua = 15,
			HueAdjustmentBlue = 18,
			HueAdjustmentGreen = 0,
			HueAdjustmentMagenta = -10,
			HueAdjustmentOrange = 100,
			HueAdjustmentPurple = -2,
			HueAdjustmentRed = 66,
			HueAdjustmentYellow = -7,
			LuminanceAdjustmentAqua = -44,
			LuminanceAdjustmentBlue = -38,
			LuminanceAdjustmentGreen = -2,
			LuminanceAdjustmentMagenta = -7,
			LuminanceAdjustmentOrange = 53,
			LuminanceAdjustmentPurple = -24,
			LuminanceAdjustmentRed = 45,
			LuminanceAdjustmentYellow = 23,
			LuminanceNoiseReductionContrast = 0,
			LuminanceNoiseReductionDetail = 50,
			LuminanceSmoothing = 17,
			ParametricDarks = -12,
			ParametricHighlightSplit = 75,
			ParametricHighlights = -30,
			ParametricLights = 17,
			ParametricMidtoneSplit = 50,
			ParametricShadowSplit = 25,
			ParametricShadows = 0,
			PostCropVignetteAmount = -13,
			PostCropVignetteFeather = 89,
			PostCropVignetteHighlightContrast = 0,
			PostCropVignetteMidpoint = 0,
			PostCropVignetteRoundness = 31,
			PostCropVignetteStyle = 1,
			ProcessVersion = "5.7",
			RedHue = 61,
			RedSaturation = 56,
			Saturation = 5,
			SaturationAdjustmentAqua = 22,
			SaturationAdjustmentBlue = -19,
			SaturationAdjustmentGreen = -60,
			SaturationAdjustmentMagenta = 10,
			SaturationAdjustmentOrange = -77,
			SaturationAdjustmentPurple = 26,
			SaturationAdjustmentRed = -64,
			SaturationAdjustmentYellow = -43,
			ShadowTint = 0,
			Shadows = 6,
			SharpenDetail = 50,
			SharpenEdgeMasking = 0,
			SharpenRadius = 1,
			Sharpness = 57,
			SplitToningBalance = 38,
			SplitToningHighlightHue = 41,
			SplitToningHighlightSaturation = 0,
			SplitToningShadowHue = 319,
			SplitToningShadowSaturation = 38,
			Temperature = 5001,
			Tint = 10,
			ToneCurve = {
				0,
				11,
				104,
				145,
				231,
				255,
			},
			ToneCurveName = "Custom",
			Vibrance = 68,
			VignetteAmount = 0,
			VignetteMidpoint = 20,
			WhiteBalance = "Custom",
		},
		uuid = "D693C851-8E3D-42F1-94DE-8CD6E77123CE",
	},
	version = 0,
}
