HQLightroomPresets 505 V.3.4/HQLightroomPresets 505 V.3.4/HQLightroomPresets Lr2-Lr3 RAW/False Color II - 43 Caramel Chocolate ~ HQLightroomPresets _.lrtemplate
s = {
	id = "5CABA399-AF61-4473-97E6-9571545F0C06",
	internalName = "Copyrights © 2012 ~ HQLighroomPresets.com",
	title = "False Color II : 43 Caramel Chocolate ~ HQLightroomPresets  ",
	type = "Develop",
	value = {
		settings = {
			AutoBrightness = false,
			AutoContrast = false,
			AutoExposure = false,
			AutoShadows = false,
			BlueHue = -20,
			BlueSaturation = -100,
			Brightness = 50,
			CameraProfile = "Embedded",
			ChromaticAberrationB = 0,
			ChromaticAberrationR = 0,
			Clarity = 23,
			ColorNoiseReduction = 18,
			ColorNoiseReductionDetail = 12,
			Contrast = 2,
			ConvertToGrayscale = false,
			Defringe = 0,
			EnableCalibration = true,
			EnableColorAdjustments = true,
			EnableDetail = true,
			EnableEffects = true,
			EnableLensCorrections = true,
			EnableSplitToning = true,
			Exposure = -0.41,
			FillLight = 29,
			GrainAmount = 0,
			GrainFrequency = 50,
			GrainSize = 25,
			GreenHue = 10,
			GreenSaturation = 70,
			HighlightRecovery = 0,
			HueAdjustmentAqua = 48,
			HueAdjustmentBlue = -2,
			HueAdjustmentGreen = -45,
			HueAdjustmentMagenta = 0,
			HueAdjustmentOrange = 0,
			HueAdjustmentPurple = 0,
			HueAdjustmentRed = 32,
			HueAdjustmentYellow = 0,
			LuminanceAdjustmentAqua = 61,
			LuminanceAdjustmentBlue = 57,
			LuminanceAdjustmentGreen = 100,
			LuminanceAdjustmentMagenta = 64,
			LuminanceAdjustmentOrange = 86,
			LuminanceAdjustmentPurple = 57,
			LuminanceAdjustmentRed = -82,
			LuminanceAdjustmentYellow = 91,
			LuminanceNoiseReductionContrast = 0,
			LuminanceNoiseReductionDetail = 50,
			LuminanceSmoothing = 15,
			ParametricDarks = 52,
			ParametricHighlightSplit = 90,
			ParametricHighlights = 0,
			ParametricLights = 0,
			ParametricMidtoneSplit = 59,
			ParametricShadowSplit = 10,
			ParametricShadows = 0,
			PostCropVignetteAmount = -43,
			PostCropVignetteFeather = 87,
			PostCropVignetteHighlightContrast = 0,
			PostCropVignetteMidpoint = 10,
			PostCropVignetteRoundness = -27,
			PostCropVignetteStyle = 1,
			ProcessVersion = "5.7",
			RedHue = -29,
			RedSaturation = -33,
			Saturation = 36,
			SaturationAdjustmentAqua = -63,
			SaturationAdjustmentBlue = 0,
			SaturationAdjustmentGreen = -95,
			SaturationAdjustmentMagenta = 0,
			SaturationAdjustmentOrange = 7,
			SaturationAdjustmentPurple = 0,
			SaturationAdjustmentRed = 9,
			SaturationAdjustmentYellow = -20,
			ShadowTint = 36,
			Shadows = 18,
			SharpenDetail = 28,
			SharpenEdgeMasking = 0,
			SharpenRadius = 1.5,
			Sharpness = 67,
			SplitToningBalance = 49,
			SplitToningHighlightHue = 360,
			SplitToningHighlightSaturation = 11,
			SplitToningShadowHue = 360,
			SplitToningShadowSaturation = 74,
			Temperature = 2288,
			Tint = -93,
			ToneCurve = {
				4,
				2,
				113,
				157,
				255,
				255,
			},
			ToneCurveName = "Custom",
			Vibrance = 33,
			VignetteAmount = -18,
			VignetteMidpoint = 50,
			WhiteBalance = "Custom",
		},
		uuid = "5C738593-109A-4D8A-91ED-1119907EAC61",
	},
	version = 0,
}
