HQLightroomPresets 505 V.3.4/HQLightroomPresets 505 V.3.4/HQLightroomPresets Lr2-Lr3 RAW/False Color II - 72 Glow Magenta ~ HQLightroomPresets _.lrtemplate
s = {
	id = "E2EF1379-EF1F-439D-915F-40A1B0968FDD",
	internalName = "Copyrights © 2012 ~ HQLighroomPresets.com",
	title = "False Color II : 72 Glow Magenta ~ HQLightroomPresets  ",
	type = "Develop",
	value = {
		settings = {
			AutoBrightness = false,
			AutoContrast = false,
			AutoExposure = false,
			AutoShadows = false,
			BlueHue = -63,
			BlueSaturation = -70,
			Brightness = 50,
			CameraProfile = "Embedded",
			ChromaticAberrationB = 0,
			ChromaticAberrationR = 0,
			Clarity = 29,
			ColorNoiseReduction = 18,
			ColorNoiseReductionDetail = 12,
			Contrast = 9,
			ConvertToGrayscale = false,
			Defringe = 0,
			EnableCalibration = true,
			EnableColorAdjustments = true,
			EnableDetail = true,
			EnableEffects = true,
			EnableLensCorrections = true,
			EnableSplitToning = true,
			Exposure = -1.24,
			FillLight = 16,
			GrainAmount = 0,
			GrainFrequency = 50,
			GrainSize = 25,
			GreenHue = 98,
			GreenSaturation = 100,
			HighlightRecovery = 0,
			HueAdjustmentAqua = 48,
			HueAdjustmentBlue = -2,
			HueAdjustmentGreen = -45,
			HueAdjustmentMagenta = 0,
			HueAdjustmentOrange = 0,
			HueAdjustmentPurple = 0,
			HueAdjustmentRed = 32,
			HueAdjustmentYellow = 0,
			LuminanceAdjustmentAqua = 61,
			LuminanceAdjustmentBlue = 57,
			LuminanceAdjustmentGreen = 100,
			LuminanceAdjustmentMagenta = 64,
			LuminanceAdjustmentOrange = 100,
			LuminanceAdjustmentPurple = 57,
			LuminanceAdjustmentRed = 93,
			LuminanceAdjustmentYellow = 100,
			LuminanceNoiseReductionContrast = 0,
			LuminanceNoiseReductionDetail = 50,
			LuminanceSmoothing = 15,
			ParametricDarks = 52,
			ParametricHighlightSplit = 90,
			ParametricHighlights = 0,
			ParametricLights = 0,
			ParametricMidtoneSplit = 59,
			ParametricShadowSplit = 10,
			ParametricShadows = 0,
			PostCropVignetteAmount = -8,
			PostCropVignetteFeather = 79,
			PostCropVignetteHighlightContrast = 0,
			PostCropVignetteMidpoint = 10,
			PostCropVignetteRoundness = 77,
			PostCropVignetteStyle = 1,
			ProcessVersion = "5.7",
			RedHue = -33,
			RedSaturation = -77,
			Saturation = 82,
			SaturationAdjustmentAqua = -63,
			SaturationAdjustmentBlue = 0,
			SaturationAdjustmentGreen = -95,
			SaturationAdjustmentMagenta = 0,
			SaturationAdjustmentOrange = -66,
			SaturationAdjustmentPurple = 0,
			SaturationAdjustmentRed = -14,
			SaturationAdjustmentYellow = -75,
			ShadowTint = 36,
			Shadows = 20,
			SharpenDetail = 28,
			SharpenEdgeMasking = 0,
			SharpenRadius = 1.5,
			Sharpness = 67,
			SplitToningBalance = 49,
			SplitToningHighlightHue = 360,
			SplitToningHighlightSaturation = 16,
			SplitToningShadowHue = 257,
			SplitToningShadowSaturation = 100,
			Temperature = 7612,
			Tint = -40,
			ToneCurve = {
				10,
				26,
				110,
				150,
				206,
				239,
			},
			ToneCurveName = "Custom",
			Vibrance = -77,
			VignetteAmount = -18,
			VignetteMidpoint = 50,
			WhiteBalance = "Custom",
		},
		uuid = "455C7D76-83C1-4854-B321-56095D8C9296",
	},
	version = 0,
}
