HQLightroomPresets 505 V.3.4/HQLightroomPresets 505 V.3.4/HQLightroomPresets Lr2-Lr3 RAW/False Color II - 98 Cloudy Oceanic ~ HQLightroomPresets _.lrtemplate
s = {
	id = "D3BAC17D-C5FE-4E80-B0B5-BDC24BF67BD9",
	internalName = "Copyrights © 2012 ~ HQLighroomPresets.com",
	title = "False Color II : 98 Cloudy Oceanic ~ HQLightroomPresets  ",
	type = "Develop",
	value = {
		settings = {
			AutoBrightness = false,
			AutoContrast = false,
			AutoExposure = false,
			AutoShadows = false,
			BlueHue = -100,
			BlueSaturation = -33,
			Brightness = 50,
			CameraProfile = "Embedded",
			ChromaticAberrationB = 0,
			ChromaticAberrationR = 0,
			Clarity = 23,
			ColorNoiseReduction = 18,
			ColorNoiseReductionDetail = 12,
			Contrast = 10,
			ConvertToGrayscale = false,
			Defringe = 0,
			EnableCalibration = true,
			EnableColorAdjustments = true,
			EnableDetail = true,
			EnableEffects = true,
			EnableLensCorrections = true,
			EnableSplitToning = true,
			Exposure = -0.41,
			FillLight = 8,
			GrainAmount = 0,
			GrainFrequency = 50,
			GrainSize = 25,
			GreenHue = 100,
			GreenSaturation = 56,
			HighlightRecovery = 0,
			HueAdjustmentAqua = 11,
			HueAdjustmentBlue = 11,
			HueAdjustmentGreen = -100,
			HueAdjustmentMagenta = 0,
			HueAdjustmentOrange = 0,
			HueAdjustmentPurple = 0,
			HueAdjustmentRed = 0,
			HueAdjustmentYellow = 0,
			LuminanceAdjustmentAqua = 95,
			LuminanceAdjustmentBlue = 98,
			LuminanceAdjustmentGreen = 100,
			LuminanceAdjustmentMagenta = 64,
			LuminanceAdjustmentOrange = 9,
			LuminanceAdjustmentPurple = 49,
			LuminanceAdjustmentRed = 89,
			LuminanceAdjustmentYellow = 100,
			LuminanceNoiseReductionContrast = 0,
			LuminanceNoiseReductionDetail = 50,
			LuminanceSmoothing = 15,
			ParametricDarks = 52,
			ParametricHighlightSplit = 90,
			ParametricHighlights = 0,
			ParametricLights = 0,
			ParametricMidtoneSplit = 59,
			ParametricShadowSplit = 10,
			ParametricShadows = 0,
			PostCropVignetteAmount = -10,
			PostCropVignetteFeather = 93,
			PostCropVignetteHighlightContrast = 0,
			PostCropVignetteMidpoint = 10,
			PostCropVignetteRoundness = 33,
			PostCropVignetteStyle = 1,
			ProcessVersion = "5.7",
			RedHue = 100,
			RedSaturation = -82,
			Saturation = 100,
			SaturationAdjustmentAqua = -47,
			SaturationAdjustmentBlue = 3,
			SaturationAdjustmentGreen = -95,
			SaturationAdjustmentMagenta = 0,
			SaturationAdjustmentOrange = -68,
			SaturationAdjustmentPurple = 44,
			SaturationAdjustmentRed = 55,
			SaturationAdjustmentYellow = -70,
			ShadowTint = 43,
			Shadows = 20,
			SharpenDetail = 28,
			SharpenEdgeMasking = 0,
			SharpenRadius = 1.5,
			Sharpness = 67,
			SplitToningBalance = 49,
			SplitToningHighlightHue = 360,
			SplitToningHighlightSaturation = 5,
			SplitToningShadowHue = 360,
			SplitToningShadowSaturation = 62,
			Temperature = 3753,
			Tint = -3,
			ToneCurve = {
				0,
				0,
				116,
				166,
				255,
				255,
			},
			ToneCurveName = "Custom",
			Vibrance = -33,
			VignetteAmount = -18,
			VignetteMidpoint = 50,
			WhiteBalance = "Custom",
		},
		uuid = "DACA9BB8-861F-4F96-936A-A55A568B486C",
	},
	version = 0,
}
