HQLightroomPresets 505 V.3.4/HQLightroomPresets 505 V.3.4/HQLightroomPresets Lr2-Lr3 RAW/False Color II - 22 Pinky Sky ~ HQLightroomPresets _.lrtemplate
s = {
	id = "AC3BA050-A038-4B30-AD0A-20CFDC93D026",
	internalName = "Copyrights © 2012 ~ HQLighroomPresets.com",
	title = "False Color II : 22 Pinky Sky ~ HQLightroomPresets  ",
	type = "Develop",
	value = {
		settings = {
			AutoBrightness = false,
			AutoContrast = false,
			AutoExposure = false,
			AutoShadows = false,
			BlueHue = 100,
			BlueSaturation = -29,
			Brightness = 33,
			CameraProfile = "Embedded",
			ChromaticAberrationB = 0,
			ChromaticAberrationR = 0,
			Clarity = 23,
			ColorNoiseReduction = 18,
			ColorNoiseReductionDetail = 12,
			Contrast = 16,
			ConvertToGrayscale = false,
			Defringe = 0,
			EnableCalibration = true,
			EnableColorAdjustments = true,
			EnableDetail = true,
			EnableEffects = true,
			EnableLensCorrections = true,
			EnableSplitToning = true,
			Exposure = -0.14,
			FillLight = 31,
			GrainAmount = 0,
			GrainFrequency = 50,
			GrainSize = 25,
			GreenHue = 100,
			GreenSaturation = 100,
			HighlightRecovery = 6,
			HueAdjustmentAqua = 93,
			HueAdjustmentBlue = 2,
			HueAdjustmentGreen = 30,
			HueAdjustmentMagenta = 0,
			HueAdjustmentOrange = 0,
			HueAdjustmentPurple = 23,
			HueAdjustmentRed = 0,
			HueAdjustmentYellow = 0,
			LuminanceAdjustmentAqua = 34,
			LuminanceAdjustmentBlue = 64,
			LuminanceAdjustmentGreen = 100,
			LuminanceAdjustmentMagenta = -9,
			LuminanceAdjustmentOrange = 100,
			LuminanceAdjustmentPurple = -32,
			LuminanceAdjustmentRed = 100,
			LuminanceAdjustmentYellow = 100,
			LuminanceNoiseReductionContrast = 0,
			LuminanceNoiseReductionDetail = 50,
			LuminanceSmoothing = 15,
			ParametricDarks = 52,
			ParametricHighlightSplit = 90,
			ParametricHighlights = 0,
			ParametricLights = 0,
			ParametricMidtoneSplit = 59,
			ParametricShadowSplit = 10,
			ParametricShadows = 0,
			PostCropVignetteAmount = -13,
			PostCropVignetteFeather = 50,
			PostCropVignetteHighlightContrast = 0,
			PostCropVignetteMidpoint = 10,
			PostCropVignetteRoundness = -27,
			PostCropVignetteStyle = 1,
			ProcessVersion = "5.7",
			RedHue = 15,
			RedSaturation = -82,
			Saturation = 22,
			SaturationAdjustmentAqua = -47,
			SaturationAdjustmentBlue = -2,
			SaturationAdjustmentGreen = -100,
			SaturationAdjustmentMagenta = -2,
			SaturationAdjustmentOrange = -20,
			SaturationAdjustmentPurple = 20,
			SaturationAdjustmentRed = -2,
			SaturationAdjustmentYellow = -57,
			ShadowTint = -54,
			Shadows = 15,
			SharpenDetail = 28,
			SharpenEdgeMasking = 0,
			SharpenRadius = 1.5,
			Sharpness = 67,
			SplitToningBalance = 49,
			SplitToningHighlightHue = 236,
			SplitToningHighlightSaturation = 18,
			SplitToningShadowHue = 62,
			SplitToningShadowSaturation = 53,
			Temperature = 4306,
			Tint = 21,
			ToneCurve = {
				0,
				9,
				119,
				142,
				255,
				255,
			},
			ToneCurveName = "Custom",
			Vibrance = -8,
			VignetteAmount = -18,
			VignetteMidpoint = 50,
			WhiteBalance = "Custom",
		},
		uuid = "E2A27238-62E3-415C-809D-39572992B90D",
	},
	version = 0,
}
