HQLightroomPresets 505 V.3.4/HQLightroomPresets 505 V.3.4/HQLightroomPresets Lr2-Lr3 RAW/False Color II - 46 Hot & Fried ~ HQLightroomPresets _.lrtemplate
s = {
	id = "09D0FF72-C186-4627-BCFA-D5F4B3155E9C",
	internalName = "Copyrights © 2012 ~ HQLighroomPresets.com",
	title = "False Color II : 46 Hot & Fried ~ HQLightroomPresets  ",
	type = "Develop",
	value = {
		settings = {
			AutoBrightness = false,
			AutoContrast = false,
			AutoExposure = false,
			AutoShadows = false,
			BlueHue = -20,
			BlueSaturation = -100,
			Brightness = 50,
			CameraProfile = "Embedded",
			ChromaticAberrationB = 0,
			ChromaticAberrationR = 0,
			Clarity = 23,
			ColorNoiseReduction = 18,
			ColorNoiseReductionDetail = 12,
			Contrast = 25,
			ConvertToGrayscale = false,
			Defringe = 0,
			EnableCalibration = true,
			EnableColorAdjustments = true,
			EnableDetail = true,
			EnableEffects = true,
			EnableLensCorrections = true,
			EnableSplitToning = true,
			Exposure = -1.24,
			FillLight = 16,
			GrainAmount = 0,
			GrainFrequency = 50,
			GrainSize = 25,
			GreenHue = -54,
			GreenSaturation = 100,
			HighlightRecovery = 0,
			HueAdjustmentAqua = 48,
			HueAdjustmentBlue = -2,
			HueAdjustmentGreen = -45,
			HueAdjustmentMagenta = 0,
			HueAdjustmentOrange = 0,
			HueAdjustmentPurple = 0,
			HueAdjustmentRed = 32,
			HueAdjustmentYellow = 0,
			LuminanceAdjustmentAqua = 16,
			LuminanceAdjustmentBlue = 57,
			LuminanceAdjustmentGreen = 73,
			LuminanceAdjustmentMagenta = 64,
			LuminanceAdjustmentOrange = 50,
			LuminanceAdjustmentPurple = 57,
			LuminanceAdjustmentRed = 23,
			LuminanceAdjustmentYellow = 52,
			LuminanceNoiseReductionContrast = 0,
			LuminanceNoiseReductionDetail = 50,
			LuminanceSmoothing = 15,
			ParametricDarks = 52,
			ParametricHighlightSplit = 90,
			ParametricHighlights = 0,
			ParametricLights = 0,
			ParametricMidtoneSplit = 59,
			ParametricShadowSplit = 10,
			ParametricShadows = 0,
			PostCropVignetteAmount = -20,
			PostCropVignetteFeather = 87,
			PostCropVignetteHighlightContrast = 0,
			PostCropVignetteMidpoint = 10,
			PostCropVignetteRoundness = 6,
			PostCropVignetteStyle = 1,
			ProcessVersion = "5.7",
			RedHue = -77,
			RedSaturation = 26,
			Saturation = 86,
			SaturationAdjustmentAqua = -63,
			SaturationAdjustmentBlue = 0,
			SaturationAdjustmentGreen = -95,
			SaturationAdjustmentMagenta = 0,
			SaturationAdjustmentOrange = 7,
			SaturationAdjustmentPurple = 0,
			SaturationAdjustmentRed = 9,
			SaturationAdjustmentYellow = -20,
			ShadowTint = 36,
			Shadows = 14,
			SharpenDetail = 28,
			SharpenEdgeMasking = 0,
			SharpenRadius = 1.5,
			Sharpness = 67,
			SplitToningBalance = 49,
			SplitToningHighlightHue = 360,
			SplitToningHighlightSaturation = 11,
			SplitToningShadowHue = 360,
			SplitToningShadowSaturation = 74,
			Temperature = 2218,
			Tint = -24,
			ToneCurve = {
				0,
				0,
				125,
				130,
				255,
				255,
			},
			ToneCurveName = "Custom",
			Vibrance = -56,
			VignetteAmount = -18,
			VignetteMidpoint = 50,
			WhiteBalance = "Custom",
		},
		uuid = "2AA5F724-D59A-4DC9-8155-A8235487DF23",
	},
	version = 0,
}
