HQLightroomPresets 505 V.3.4/HQLightroomPresets 505 V.3.4/HQLightroomPresets Lr2-Lr3 RAW/False Color II - 30 Dark Cyan ~ HQLightroomPresets _.lrtemplate
s = {
	id = "42AD80B5-EF32-425B-AEA9-CEA44D01C59B",
	internalName = "Copyrights © 2012 ~ HQLighroomPresets.com",
	title = "False Color II : 30 Dark Cyan ~ HQLightroomPresets  ",
	type = "Develop",
	value = {
		settings = {
			AutoBrightness = false,
			AutoContrast = false,
			AutoExposure = false,
			AutoShadows = false,
			BlueHue = -20,
			BlueSaturation = 6,
			Brightness = 50,
			CameraProfile = "Embedded",
			ChromaticAberrationB = 0,
			ChromaticAberrationR = 0,
			Clarity = 23,
			ColorNoiseReduction = 18,
			ColorNoiseReductionDetail = 12,
			Contrast = -24,
			ConvertToGrayscale = false,
			Defringe = 0,
			EnableCalibration = true,
			EnableColorAdjustments = true,
			EnableDetail = true,
			EnableEffects = true,
			EnableLensCorrections = true,
			EnableSplitToning = true,
			Exposure = -0.6,
			FillLight = 29,
			GrainAmount = 0,
			GrainFrequency = 50,
			GrainSize = 25,
			GreenHue = 100,
			GreenSaturation = -43,
			HighlightRecovery = 0,
			HueAdjustmentAqua = 9,
			HueAdjustmentBlue = -9,
			HueAdjustmentGreen = -100,
			HueAdjustmentMagenta = 0,
			HueAdjustmentOrange = 0,
			HueAdjustmentPurple = 0,
			HueAdjustmentRed = 0,
			HueAdjustmentYellow = 0,
			LuminanceAdjustmentAqua = -48,
			LuminanceAdjustmentBlue = -25,
			LuminanceAdjustmentGreen = 66,
			LuminanceAdjustmentMagenta = 64,
			LuminanceAdjustmentOrange = 82,
			LuminanceAdjustmentPurple = 56,
			LuminanceAdjustmentRed = 89,
			LuminanceAdjustmentYellow = 82,
			LuminanceNoiseReductionContrast = 0,
			LuminanceNoiseReductionDetail = 50,
			LuminanceSmoothing = 15,
			ParametricDarks = 52,
			ParametricHighlightSplit = 90,
			ParametricHighlights = 0,
			ParametricLights = 0,
			ParametricMidtoneSplit = 59,
			ParametricShadowSplit = 10,
			ParametricShadows = 0,
			PostCropVignetteAmount = -17,
			PostCropVignetteFeather = 50,
			PostCropVignetteHighlightContrast = 0,
			PostCropVignetteMidpoint = 10,
			PostCropVignetteRoundness = -27,
			PostCropVignetteStyle = 1,
			ProcessVersion = "5.7",
			RedHue = 100,
			RedSaturation = -98,
			Saturation = -1,
			SaturationAdjustmentAqua = -47,
			SaturationAdjustmentBlue = 30,
			SaturationAdjustmentGreen = -89,
			SaturationAdjustmentMagenta = 0,
			SaturationAdjustmentOrange = -16,
			SaturationAdjustmentPurple = 0,
			SaturationAdjustmentRed = -2,
			SaturationAdjustmentYellow = -41,
			ShadowTint = 93,
			Shadows = 14,
			SharpenDetail = 28,
			SharpenEdgeMasking = 0,
			SharpenRadius = 1.5,
			Sharpness = 59,
			SplitToningBalance = 49,
			SplitToningHighlightHue = 46,
			SplitToningHighlightSaturation = 78,
			SplitToningShadowHue = 294,
			SplitToningShadowSaturation = 62,
			Temperature = 2288,
			Tint = -15,
			ToneCurve = {
				0,
				0,
				106,
				166,
				255,
				255,
			},
			ToneCurveName = "Custom",
			Vibrance = -6,
			VignetteAmount = -18,
			VignetteMidpoint = 50,
			WhiteBalance = "Custom",
		},
		uuid = "535020AD-41AE-49E9-BE23-F688F8FC6CA2",
	},
	version = 0,
}
