HQLightroomPresets 505 V.3.4/HQLightroomPresets 505 V.3.4/HQLightroomPresets Lr2-Lr3 RAW/False Color II - 17 Yellow River ~ HQLightroomPresets _.lrtemplate
s = {
	id = "00CF48DA-BDEE-45EC-A66F-437435C94C34",
	internalName = "Copyrights © 2012 ~ HQLighroomPresets.com",
	title = "False Color II : 17 Yellow River ~ HQLightroomPresets  ",
	type = "Develop",
	value = {
		settings = {
			AutoBrightness = false,
			AutoContrast = false,
			AutoExposure = false,
			AutoShadows = false,
			BlueHue = -54,
			BlueSaturation = -10,
			Brightness = 50,
			CameraProfile = "Embedded",
			ChromaticAberrationB = 0,
			ChromaticAberrationR = 0,
			Clarity = 10,
			ColorNoiseReduction = 18,
			ColorNoiseReductionDetail = 12,
			Contrast = -5,
			ConvertToGrayscale = false,
			Defringe = 0,
			EnableCalibration = true,
			EnableColorAdjustments = true,
			EnableDetail = true,
			EnableEffects = true,
			EnableLensCorrections = true,
			EnableSplitToning = true,
			Exposure = -1.24,
			FillLight = 34,
			GrainAmount = 0,
			GrainFrequency = 50,
			GrainSize = 25,
			GreenHue = 8,
			GreenSaturation = 89,
			HighlightRecovery = 0,
			HueAdjustmentAqua = 11,
			HueAdjustmentBlue = 2,
			HueAdjustmentGreen = -100,
			HueAdjustmentMagenta = 0,
			HueAdjustmentOrange = 0,
			HueAdjustmentPurple = 0,
			HueAdjustmentRed = 0,
			HueAdjustmentYellow = 0,
			LuminanceAdjustmentAqua = 77,
			LuminanceAdjustmentBlue = 90,
			LuminanceAdjustmentGreen = 61,
			LuminanceAdjustmentMagenta = -36,
			LuminanceAdjustmentOrange = 77,
			LuminanceAdjustmentPurple = -41,
			LuminanceAdjustmentRed = 61,
			LuminanceAdjustmentYellow = 64,
			LuminanceNoiseReductionContrast = 0,
			LuminanceNoiseReductionDetail = 50,
			LuminanceSmoothing = 15,
			ParametricDarks = 52,
			ParametricHighlightSplit = 90,
			ParametricHighlights = 0,
			ParametricLights = 0,
			ParametricMidtoneSplit = 59,
			ParametricShadowSplit = 10,
			ParametricShadows = 0,
			PostCropVignetteAmount = 1,
			PostCropVignetteFeather = 50,
			PostCropVignetteHighlightContrast = 0,
			PostCropVignetteMidpoint = 10,
			PostCropVignetteRoundness = -27,
			PostCropVignetteStyle = 1,
			ProcessVersion = "5.7",
			RedHue = 100,
			RedSaturation = 38,
			Saturation = -43,
			SaturationAdjustmentAqua = 14,
			SaturationAdjustmentBlue = 23,
			SaturationAdjustmentGreen = -9,
			SaturationAdjustmentMagenta = 0,
			SaturationAdjustmentOrange = -20,
			SaturationAdjustmentPurple = 0,
			SaturationAdjustmentRed = -2,
			SaturationAdjustmentYellow = -57,
			ShadowTint = 45,
			Shadows = 14,
			SharpenDetail = 28,
			SharpenEdgeMasking = 0,
			SharpenRadius = 1.5,
			Sharpness = 67,
			SplitToningBalance = 49,
			SplitToningHighlightHue = 277,
			SplitToningHighlightSaturation = 0,
			SplitToningShadowHue = 240,
			SplitToningShadowSaturation = 67,
			Temperature = 17151,
			Tint = -128,
			ToneCurve = {
				0,
				0,
				137,
				115,
				255,
				255,
			},
			ToneCurveName = "Custom",
			Vibrance = 36,
			VignetteAmount = -18,
			VignetteMidpoint = 50,
			WhiteBalance = "Custom",
		},
		uuid = "68795E7D-EF5E-42F6-A610-27AACAA2E877",
	},
	version = 0,
}
