HQLightroomPresets 505 V.3.4/HQLightroomPresets 505 V.3.4/HQLightroomPresets Lr2-Lr3 RAW/Glow & Smooth - Spicy Love ~ HQLightroomPresets.lrtemplate
s = {
	id = "3B98C408-26E2-43D2-BF05-DDEF155A6A62",
	internalName = "Glow & Smooth : Spicy Love ~ HQLightroomPresets.com 2",
	title = "Glow & Smooth : Spicy Love ~ HQLightroomPresets",
	type = "Develop",
	value = {
		settings = {
			AutoBrightness = false,
			AutoContrast = false,
			AutoExposure = false,
			AutoShadows = false,
			BlueHue = -13,
			BlueSaturation = -17,
			Brightness = 29,
			CameraProfile = "Embedded",
			ChromaticAberrationB = 0,
			ChromaticAberrationR = 0,
			Clarity = -13,
			ColorNoiseReduction = 28,
			ColorNoiseReductionDetail = 50,
			Contrast = 7,
			ConvertToGrayscale = false,
			CropConstrainToWarp = 0,
			Defringe = 0,
			EnableCalibration = true,
			EnableColorAdjustments = true,
			EnableDetail = true,
			EnableEffects = true,
			EnableLensCorrections = true,
			EnableSplitToning = true,
			Exposure = 1.43,
			FillLight = 6,
			GrainAmount = 0,
			GrainFrequency = 50,
			GrainSize = 25,
			GreenHue = 0,
			GreenSaturation = 43,
			HighlightRecovery = 25,
			HueAdjustmentAqua = 0,
			HueAdjustmentBlue = 0,
			HueAdjustmentGreen = 0,
			HueAdjustmentMagenta = -15,
			HueAdjustmentOrange = 0,
			HueAdjustmentPurple = -9,
			HueAdjustmentRed = 0,
			HueAdjustmentYellow = 0,
			LensManualDistortionAmount = 0,
			LensProfileEnable = 0,
			LensProfileSetup = "LensDefaults",
			LuminanceAdjustmentAqua = 0,
			LuminanceAdjustmentBlue = 0,
			LuminanceAdjustmentGreen = -7,
			LuminanceAdjustmentMagenta = 0,
			LuminanceAdjustmentOrange = 0,
			LuminanceAdjustmentPurple = 0,
			LuminanceAdjustmentRed = -2,
			LuminanceAdjustmentYellow = 0,
			LuminanceNoiseReductionContrast = 23,
			LuminanceNoiseReductionDetail = 79,
			LuminanceSmoothing = 78,
			ParametricDarks = 68,
			ParametricHighlightSplit = 75,
			ParametricHighlights = -30,
			ParametricLights = 5,
			ParametricMidtoneSplit = 50,
			ParametricShadowSplit = 25,
			ParametricShadows = 0,
			PerspectiveHorizontal = 0,
			PerspectiveRotate = 0,
			PerspectiveScale = 100,
			PerspectiveVertical = 0,
			PostCropVignetteAmount = -18,
			PostCropVignetteFeather = 100,
			PostCropVignetteHighlightContrast = 0,
			PostCropVignetteMidpoint = 0,
			PostCropVignetteRoundness = -33,
			PostCropVignetteStyle = 1,
			ProcessVersion = "5.7",
			RedHue = 0,
			RedSaturation = 47,
			Saturation = -22,
			SaturationAdjustmentAqua = 0,
			SaturationAdjustmentBlue = 0,
			SaturationAdjustmentGreen = 0,
			SaturationAdjustmentMagenta = 0,
			SaturationAdjustmentOrange = 0,
			SaturationAdjustmentPurple = 0,
			SaturationAdjustmentRed = -2,
			SaturationAdjustmentYellow = 0,
			ShadowTint = 0,
			Shadows = 12,
			SharpenDetail = 50,
			SharpenEdgeMasking = 0,
			SharpenRadius = 1,
			Sharpness = 55,
			SplitToningBalance = 85,
			SplitToningHighlightHue = 37,
			SplitToningHighlightSaturation = 15,
			SplitToningShadowHue = 45,
			SplitToningShadowSaturation = 91,
			Temperature = 4503,
			Tint = 10,
			ToneCurve = {
				22,
				18,
				130,
				117,
				255,
				246,
			},
			ToneCurveName = "Custom",
			Vibrance = 56,
			VignetteAmount = 0,
			VignetteMidpoint = 20,
			WhiteBalance = "Custom",
			orientation = "AB",
		},
		uuid = "E7247196-8E4C-4586-A1B8-9A9296F7D8D2",
	},
	version = 0,
}
