HQLightroomPresets 505 V.3.4/HQLightroomPresets 505 V.3.4/HQLightroomPresets Lr2-Lr3 RAW/Glow & Smooth - Sofie ~ HQLightroomPresets.lrtemplate
s = {
	id = "10979C8A-1891-4967-9998-2B00CC5DAD84",
	internalName = "Glow & Smooth : Sofie ~ HQLightroomPresets.com 2",
	title = "Glow & Smooth : Sofie ~ HQLightroomPresets",
	type = "Develop",
	value = {
		settings = {
			AutoBrightness = false,
			AutoContrast = false,
			AutoExposure = false,
			AutoShadows = false,
			BlueHue = 0,
			BlueSaturation = 0,
			Brightness = 12,
			CameraProfile = "Embedded",
			ChromaticAberrationB = 0,
			ChromaticAberrationR = 0,
			Clarity = -13,
			ColorNoiseReduction = 28,
			ColorNoiseReductionDetail = 50,
			Contrast = 0,
			ConvertToGrayscale = false,
			CropConstrainToWarp = 0,
			Defringe = 0,
			EnableCalibration = true,
			EnableColorAdjustments = true,
			EnableDetail = true,
			EnableEffects = true,
			EnableLensCorrections = true,
			EnableSplitToning = true,
			Exposure = 1.33,
			FillLight = 28,
			GrainAmount = 0,
			GrainFrequency = 50,
			GrainSize = 25,
			GreenHue = 0,
			GreenSaturation = 0,
			HighlightRecovery = 0,
			HueAdjustmentAqua = 1,
			HueAdjustmentBlue = -2,
			HueAdjustmentGreen = -5,
			HueAdjustmentMagenta = -9,
			HueAdjustmentOrange = 15,
			HueAdjustmentPurple = -2,
			HueAdjustmentRed = 0,
			HueAdjustmentYellow = -16,
			LensManualDistortionAmount = 0,
			LensProfileEnable = 0,
			LensProfileSetup = "LensDefaults",
			LuminanceAdjustmentAqua = -30,
			LuminanceAdjustmentBlue = -36,
			LuminanceAdjustmentGreen = -4,
			LuminanceAdjustmentMagenta = -9,
			LuminanceAdjustmentOrange = -9,
			LuminanceAdjustmentPurple = -13,
			LuminanceAdjustmentRed = -2,
			LuminanceAdjustmentYellow = -5,
			LuminanceNoiseReductionContrast = 0,
			LuminanceNoiseReductionDetail = 50,
			LuminanceSmoothing = 33,
			ParametricDarks = -12,
			ParametricHighlightSplit = 75,
			ParametricHighlights = -30,
			ParametricLights = 17,
			ParametricMidtoneSplit = 50,
			ParametricShadowSplit = 25,
			ParametricShadows = 0,
			PerspectiveHorizontal = 0,
			PerspectiveRotate = 0,
			PerspectiveScale = 100,
			PerspectiveVertical = 0,
			PostCropVignetteAmount = -23,
			PostCropVignetteFeather = 100,
			PostCropVignetteHighlightContrast = 0,
			PostCropVignetteMidpoint = 10,
			PostCropVignetteRoundness = -33,
			PostCropVignetteStyle = 1,
			ProcessVersion = "5.7",
			RedHue = 0,
			RedSaturation = 0,
			Saturation = 0,
			SaturationAdjustmentAqua = 55,
			SaturationAdjustmentBlue = -33,
			SaturationAdjustmentGreen = -38,
			SaturationAdjustmentMagenta = 1,
			SaturationAdjustmentOrange = 30,
			SaturationAdjustmentPurple = 18,
			SaturationAdjustmentRed = -4,
			SaturationAdjustmentYellow = 19,
			ShadowTint = 0,
			Shadows = 13,
			SharpenDetail = 50,
			SharpenEdgeMasking = 0,
			SharpenRadius = 1,
			Sharpness = 45,
			SplitToningBalance = 85,
			SplitToningHighlightHue = 0,
			SplitToningHighlightSaturation = 2,
			SplitToningShadowHue = 253,
			SplitToningShadowSaturation = 41,
			Temperature = 4213,
			Tint = -4,
			ToneCurve = {
				0,
				32,
				163,
				148,
				231,
				234,
				255,
				255,
			},
			ToneCurveName = "Custom",
			Vibrance = 0,
			VignetteAmount = -4,
			VignetteMidpoint = 47,
			WhiteBalance = "Custom",
			orientation = "AB",
		},
		uuid = "A8C62B4D-3905-492D-AF25-E33E3A25DB60",
	},
	version = 0,
}
