HQLightroomPresets 505 V.3.4/HQLightroomPresets 505 V.3.4/HQLightroomPresets Lr2-Lr3 RAW/High Contrast - Homesick ~ HQLightroomPresets _.lrtemplate
s = {
	id = "B6E07648-093E-4287-871D-4A3A581F051B",
	internalName = "Copyrights © 2012 ~ HQLighroomPresets.com",
	title = "High Contrast : Homesick ~ HQLightroomPresets  ",
	type = "Develop",
	value = {
		settings = {
			AutoBrightness = false,
			AutoContrast = false,
			AutoExposure = false,
			AutoShadows = false,
			BlueHue = -58,
			BlueSaturation = -25,
			Brightness = 50,
			CameraProfile = "ACR 2.4",
			ChromaticAberrationB = 0,
			ChromaticAberrationR = 0,
			Clarity = 20,
			ColorNoiseReduction = 28,
			ColorNoiseReductionDetail = 50,
			Contrast = 5,
			ConvertToGrayscale = false,
			Defringe = 0,
			EnableCalibration = true,
			EnableColorAdjustments = true,
			EnableDetail = true,
			EnableEffects = true,
			EnableLensCorrections = true,
			EnableSplitToning = true,
			Exposure = 0.32,
			FillLight = 33,
			GrainAmount = 0,
			GrainFrequency = 90,
			GrainSize = 25,
			GreenHue = 0,
			GreenSaturation = -52,
			HighlightRecovery = 68,
			HueAdjustmentAqua = 33,
			HueAdjustmentBlue = 29,
			HueAdjustmentGreen = 33,
			HueAdjustmentMagenta = 2,
			HueAdjustmentOrange = 26,
			HueAdjustmentPurple = 15,
			HueAdjustmentRed = 9,
			HueAdjustmentYellow = 33,
			LuminanceAdjustmentAqua = -12,
			LuminanceAdjustmentBlue = -9,
			LuminanceAdjustmentGreen = -7,
			LuminanceAdjustmentMagenta = -4,
			LuminanceAdjustmentOrange = -9,
			LuminanceAdjustmentPurple = -7,
			LuminanceAdjustmentRed = -9,
			LuminanceAdjustmentYellow = -12,
			LuminanceNoiseReductionContrast = 0,
			LuminanceNoiseReductionDetail = 50,
			LuminanceSmoothing = 8,
			ParametricDarks = 31,
			ParametricHighlightSplit = 75,
			ParametricHighlights = -40,
			ParametricLights = 39,
			ParametricMidtoneSplit = 39,
			ParametricShadowSplit = 25,
			ParametricShadows = 13,
			PostCropVignetteAmount = -17,
			PostCropVignetteFeather = 100,
			PostCropVignetteHighlightContrast = 0,
			PostCropVignetteMidpoint = 23,
			PostCropVignetteRoundness = -39,
			PostCropVignetteStyle = 1,
			ProcessVersion = "5.7",
			RedHue = 0,
			RedSaturation = -25,
			Saturation = -26,
			SaturationAdjustmentAqua = -24,
			SaturationAdjustmentBlue = -21,
			SaturationAdjustmentGreen = -30,
			SaturationAdjustmentMagenta = 10,
			SaturationAdjustmentOrange = -13,
			SaturationAdjustmentPurple = -10,
			SaturationAdjustmentRed = 7,
			SaturationAdjustmentYellow = -24,
			ShadowTint = 56,
			Shadows = 14,
			SharpenDetail = 50,
			SharpenEdgeMasking = 0,
			SharpenRadius = 1,
			Sharpness = 49,
			SplitToningBalance = 85,
			SplitToningHighlightHue = 323,
			SplitToningHighlightSaturation = 0,
			SplitToningShadowHue = 254,
			SplitToningShadowSaturation = 80,
			Temperature = 4659,
			Tint = -11,
			ToneCurve = {
				0,
				0,
				114,
				78,
				168,
				176,
				255,
				255,
			},
			ToneCurveName = "Custom",
			Vibrance = -3,
			VignetteAmount = -81,
			VignetteMidpoint = 48,
			WhiteBalance = "Custom",
		},
		uuid = "C2B273FE-07AC-4F13-A6BE-3AD8D8712AF6",
	},
	version = 0,
}
