HQLightroomPresets 505 V.3.4/HQLightroomPresets 505 V.3.4/HQLightroomPresets Lr2-Lr3 RAW/Strong Color - Cold Red ~ HQLightroomPresets _.lrtemplate
s = {
	id = "D28CBC2D-549D-4468-BC28-DC39804C805C",
	internalName = "Copyrights © 2012 ~ HQLighroomPresets.com",
	title = "Strong Color : Cold Red ~ HQLightroomPresets  ",
	type = "Develop",
	value = {
		settings = {
			AutoBrightness = false,
			AutoContrast = false,
			AutoExposure = false,
			AutoShadows = false,
			BlueHue = 0,
			BlueSaturation = 0,
			Brightness = 50,
			CameraProfile = "Embedded",
			ChromaticAberrationB = 0,
			ChromaticAberrationR = 0,
			Clarity = 40,
			ColorNoiseReduction = 28,
			ColorNoiseReductionDetail = 50,
			Contrast = -5,
			ConvertToGrayscale = false,
			Defringe = 0,
			EnableCalibration = true,
			EnableColorAdjustments = true,
			EnableDetail = true,
			EnableEffects = true,
			EnableLensCorrections = true,
			EnableSplitToning = true,
			Exposure = 1.06,
			FillLight = 20,
			GrainAmount = 0,
			GrainFrequency = 50,
			GrainSize = 25,
			GreenHue = 0,
			GreenSaturation = 0,
			HighlightRecovery = 0,
			HueAdjustmentAqua = 0,
			HueAdjustmentBlue = 0,
			HueAdjustmentGreen = 29,
			HueAdjustmentMagenta = 0,
			HueAdjustmentOrange = 35,
			HueAdjustmentPurple = 0,
			HueAdjustmentRed = -35,
			HueAdjustmentYellow = -29,
			LuminanceAdjustmentAqua = -30,
			LuminanceAdjustmentBlue = -26,
			LuminanceAdjustmentGreen = -24,
			LuminanceAdjustmentMagenta = 0,
			LuminanceAdjustmentOrange = -13,
			LuminanceAdjustmentPurple = -13,
			LuminanceAdjustmentRed = -2,
			LuminanceAdjustmentYellow = -16,
			LuminanceNoiseReductionContrast = 0,
			LuminanceNoiseReductionDetail = 50,
			LuminanceSmoothing = 15,
			ParametricDarks = -23,
			ParametricHighlightSplit = 75,
			ParametricHighlights = -30,
			ParametricLights = 6,
			ParametricMidtoneSplit = 50,
			ParametricShadowSplit = 25,
			ParametricShadows = 0,
			PostCropVignetteAmount = -18,
			PostCropVignetteFeather = 90,
			PostCropVignetteHighlightContrast = 0,
			PostCropVignetteMidpoint = 77,
			PostCropVignetteRoundness = 64,
			PostCropVignetteStyle = 1,
			ProcessVersion = "5.7",
			RedHue = 0,
			RedSaturation = 0,
			Saturation = 20,
			SaturationAdjustmentAqua = 22,
			SaturationAdjustmentBlue = 18,
			SaturationAdjustmentGreen = -43,
			SaturationAdjustmentMagenta = 10,
			SaturationAdjustmentOrange = 24,
			SaturationAdjustmentPurple = 12,
			SaturationAdjustmentRed = 35,
			SaturationAdjustmentYellow = 16,
			ShadowTint = 0,
			Shadows = 5,
			SharpenDetail = 50,
			SharpenEdgeMasking = 0,
			SharpenRadius = 1,
			Sharpness = 50,
			SplitToningBalance = 85,
			SplitToningHighlightHue = 106,
			SplitToningHighlightSaturation = 9,
			SplitToningShadowHue = 289,
			SplitToningShadowSaturation = 62,
			Temperature = 5122,
			Tint = 40,
			ToneCurve = {
				0,
				0,
				255,
				255,
			},
			ToneCurveName = "Linear",
			Vibrance = -22,
			VignetteAmount = -21,
			VignetteMidpoint = 20,
			WhiteBalance = "Custom",
		},
		uuid = "925EA5FF-7AD2-4084-A8D1-8C3329431E12",
	},
	version = 0,
}
