HQLightroomPresets 505 V.3.4/HQLightroomPresets 505 V.3.4/HQLightroomPresets Lr2-Lr3 RAW/Strong Color - Cocktail ~ HQLightroomPresets _.lrtemplate
s = {
	id = "B8617F79-0748-452F-8E8F-9AC52E7A20BB",
	internalName = "Copyrights © 2012 ~ HQLighroomPresets.com",
	title = "Strong Color : Cocktail ~ HQLightroomPresets  ",
	type = "Develop",
	value = {
		settings = {
			AutoBrightness = false,
			AutoContrast = false,
			AutoExposure = false,
			AutoShadows = false,
			BlueHue = 0,
			BlueSaturation = 0,
			Brightness = 50,
			CameraProfile = "ACR 2.4",
			ChromaticAberrationB = 0,
			ChromaticAberrationR = 0,
			Clarity = 11,
			ColorNoiseReduction = 28,
			ColorNoiseReductionDetail = 50,
			Contrast = 5,
			ConvertToGrayscale = false,
			Defringe = 0,
			EnableCalibration = true,
			EnableColorAdjustments = true,
			EnableDetail = true,
			EnableEffects = true,
			EnableLensCorrections = true,
			EnableSplitToning = true,
			Exposure = 1.33,
			FillLight = 11,
			GrainAmount = 0,
			GrainFrequency = 50,
			GrainSize = 25,
			GreenHue = 0,
			GreenSaturation = 0,
			HighlightRecovery = 25,
			HueAdjustmentAqua = 7,
			HueAdjustmentBlue = 4,
			HueAdjustmentGreen = 0,
			HueAdjustmentMagenta = 0,
			HueAdjustmentOrange = 0,
			HueAdjustmentPurple = 0,
			HueAdjustmentRed = 0,
			HueAdjustmentYellow = 0,
			LuminanceAdjustmentAqua = -17,
			LuminanceAdjustmentBlue = -26,
			LuminanceAdjustmentGreen = -7,
			LuminanceAdjustmentMagenta = -13,
			LuminanceAdjustmentOrange = -13,
			LuminanceAdjustmentPurple = -28,
			LuminanceAdjustmentRed = -2,
			LuminanceAdjustmentYellow = -13,
			LuminanceNoiseReductionContrast = 0,
			LuminanceNoiseReductionDetail = 50,
			LuminanceSmoothing = 10,
			ParametricDarks = -27,
			ParametricHighlightSplit = 75,
			ParametricHighlights = -30,
			ParametricLights = 17,
			ParametricMidtoneSplit = 50,
			ParametricShadowSplit = 25,
			ParametricShadows = 0,
			PostCropVignetteAmount = -17,
			PostCropVignetteFeather = 100,
			PostCropVignetteHighlightContrast = 0,
			PostCropVignetteMidpoint = 0,
			PostCropVignetteRoundness = -33,
			PostCropVignetteStyle = 1,
			ProcessVersion = "5.7",
			RedHue = 0,
			RedSaturation = 0,
			Saturation = -13,
			SaturationAdjustmentAqua = -45,
			SaturationAdjustmentBlue = -27,
			SaturationAdjustmentGreen = -31,
			SaturationAdjustmentMagenta = 15,
			SaturationAdjustmentOrange = -1,
			SaturationAdjustmentPurple = 32,
			SaturationAdjustmentRed = 0,
			SaturationAdjustmentYellow = -10,
			ShadowTint = 0,
			Shadows = 5,
			SharpenDetail = 50,
			SharpenEdgeMasking = 0,
			SharpenRadius = 1,
			Sharpness = 29,
			SplitToningBalance = 43,
			SplitToningHighlightHue = 251,
			SplitToningHighlightSaturation = 23,
			SplitToningShadowHue = 331,
			SplitToningShadowSaturation = 42,
			Temperature = 4079,
			Tint = -30,
			ToneCurve = {
				0,
				0,
				255,
				255,
			},
			ToneCurveName = "Linear",
			Vibrance = 66,
			VignetteAmount = -4,
			VignetteMidpoint = 20,
			WhiteBalance = "Custom",
		},
		uuid = "5066B16D-0C5D-4C1E-BF76-D2F66704359D",
	},
	version = 0,
}
