HQLightroomPresets 505 V.3.4/HQLightroomPresets 505 V.3.4/HQLightroomPresets Lr2-Lr3 RAW/Update #1 - Grape Topping ~ HQLightroomPresets _.lrtemplate
s = {
	id = "C6A00B43-B5A1-4738-897E-AEE8E8339AE8",
	internalName = "Copyrights © 2012 ~ HQLighroomPresets.com",
	title = "Update #1 : Grape Topping ~ HQLightroomPresets  ",
	type = "Develop",
	value = {
		settings = {
			AutoBrightness = false,
			AutoContrast = false,
			AutoExposure = false,
			AutoShadows = false,
			BlueHue = 13,
			BlueSaturation = -84,
			Brightness = 50,
			CameraProfile = "ACR 2.4",
			ChromaticAberrationB = 0,
			ChromaticAberrationR = 0,
			Clarity = 12,
			ColorNoiseReduction = 28,
			ColorNoiseReductionDetail = 50,
			Contrast = 25,
			ConvertToGrayscale = false,
			Defringe = 0,
			EnableCalibration = true,
			EnableColorAdjustments = true,
			EnableDetail = true,
			EnableEffects = true,
			EnableLensCorrections = true,
			EnableSplitToning = true,
			Exposure = -0.14,
			FillLight = 5,
			GrainAmount = 0,
			GrainFrequency = 50,
			GrainSize = 25,
			GreenHue = 38,
			GreenSaturation = -1,
			HighlightRecovery = 57,
			HueAdjustmentAqua = 0,
			HueAdjustmentBlue = 0,
			HueAdjustmentGreen = 95,
			HueAdjustmentMagenta = 0,
			HueAdjustmentOrange = -13,
			HueAdjustmentPurple = 0,
			HueAdjustmentRed = 0,
			HueAdjustmentYellow = 4,
			LuminanceAdjustmentAqua = -5,
			LuminanceAdjustmentBlue = 0,
			LuminanceAdjustmentGreen = -2,
			LuminanceAdjustmentMagenta = 0,
			LuminanceAdjustmentOrange = 11,
			LuminanceAdjustmentPurple = 0,
			LuminanceAdjustmentRed = 7,
			LuminanceAdjustmentYellow = 27,
			LuminanceNoiseReductionContrast = 0,
			LuminanceNoiseReductionDetail = 50,
			LuminanceSmoothing = 11,
			ParametricDarks = 62,
			ParametricHighlightSplit = 75,
			ParametricHighlights = -30,
			ParametricLights = 19,
			ParametricMidtoneSplit = 50,
			ParametricShadowSplit = 25,
			ParametricShadows = -6,
			PostCropVignetteAmount = -22,
			PostCropVignetteFeather = 100,
			PostCropVignetteHighlightContrast = 0,
			PostCropVignetteMidpoint = 23,
			PostCropVignetteRoundness = 75,
			PostCropVignetteStyle = 1,
			ProcessVersion = "5.7",
			RedHue = -10,
			RedSaturation = -3,
			Saturation = -25,
			SaturationAdjustmentAqua = 0,
			SaturationAdjustmentBlue = 0,
			SaturationAdjustmentGreen = -66,
			SaturationAdjustmentMagenta = 0,
			SaturationAdjustmentOrange = 0,
			SaturationAdjustmentPurple = 0,
			SaturationAdjustmentRed = -6,
			SaturationAdjustmentYellow = 1,
			ShadowTint = -38,
			Shadows = 2,
			SharpenDetail = 50,
			SharpenEdgeMasking = 0,
			SharpenRadius = 1,
			Sharpness = 60,
			SplitToningBalance = 85,
			SplitToningHighlightHue = 0,
			SplitToningHighlightSaturation = 2,
			SplitToningShadowHue = 290,
			SplitToningShadowSaturation = 72,
			Temperature = 5000,
			Tint = 12,
			ToneCurve = {
				0,
				0,
				121,
				134,
				255,
				255,
			},
			ToneCurveName = "Custom",
			Vibrance = 35,
			VignetteAmount = -3,
			VignetteMidpoint = 20,
			WhiteBalance = "Custom",
		},
		uuid = "C8BDDC3C-2708-46D7-A287-C687672F20D6",
	},
	version = 0,
}
