HQLightroomPresets 505 V.3.4/HQLightroomPresets 505 V.3.4/HQLightroomPresets Lr2-Lr3 RAW/Update #2 - Fringing Purple ~ HQLightroomPresets.lrtemplate
s = {
	id = "38B40C4A-B68F-41EC-AB29-EF9782F20201",
	internalName = "Copyrights © 2014 ~ HQLighroomPresets.com",
	title = "Update #2 : Fringing Purple ~ HQLightroomPresets",
	type = "Develop",
	value = {
		settings = {
			AutoBrightness = false,
			AutoContrast = false,
			AutoExposure = false,
			AutoShadows = false,
			BlueHue = 0,
			BlueSaturation = 0,
			Brightness = 84,
			CameraProfile = "Embedded",
			ChromaticAberrationB = 0,
			ChromaticAberrationR = 0,
			Clarity = -17,
			ColorNoiseReduction = 0,
			ColorNoiseReductionDetail = 50,
			Contrast = 14,
			ConvertToGrayscale = false,
			CropConstrainToWarp = 0,
			Defringe = 0,
			EnableCalibration = true,
			EnableColorAdjustments = true,
			EnableDetail = true,
			EnableEffects = true,
			EnableLensCorrections = true,
			EnableSplitToning = true,
			Exposure = 0,
			FillLight = 51,
			GrainAmount = 0,
			GrainFrequency = 0,
			GrainSize = 0,
			GreenHue = 0,
			GreenSaturation = 0,
			HighlightRecovery = 17,
			HueAdjustmentAqua = -5,
			HueAdjustmentBlue = 0,
			HueAdjustmentGreen = -38,
			HueAdjustmentMagenta = 0,
			HueAdjustmentOrange = -22,
			HueAdjustmentPurple = 0,
			HueAdjustmentRed = 4,
			HueAdjustmentYellow = 5,
			LensManualDistortionAmount = 0,
			LensProfileEnable = 0,
			LensProfileSetup = "LensDefaults",
			LuminanceAdjustmentAqua = 0,
			LuminanceAdjustmentBlue = 0,
			LuminanceAdjustmentGreen = 0,
			LuminanceAdjustmentMagenta = 0,
			LuminanceAdjustmentOrange = 0,
			LuminanceAdjustmentPurple = 0,
			LuminanceAdjustmentRed = 0,
			LuminanceAdjustmentYellow = 0,
			LuminanceNoiseReductionContrast = 0,
			LuminanceNoiseReductionDetail = 100,
			LuminanceSmoothing = 51,
			ParametricDarks = -12,
			ParametricHighlightSplit = 75,
			ParametricHighlights = 0,
			ParametricLights = 17,
			ParametricMidtoneSplit = 50,
			ParametricShadowSplit = 25,
			ParametricShadows = 0,
			PerspectiveHorizontal = 0,
			PerspectiveRotate = 0,
			PerspectiveScale = 100,
			PerspectiveVertical = 0,
			PostCropVignetteAmount = -22,
			PostCropVignetteFeather = 94,
			PostCropVignetteHighlightContrast = 100,
			PostCropVignetteMidpoint = 14,
			PostCropVignetteRoundness = 54,
			PostCropVignetteStyle = 1,
			ProcessVersion = "5.7",
			RedHue = 59,
			RedSaturation = 0,
			Saturation = 24,
			SaturationAdjustmentAqua = -50,
			SaturationAdjustmentBlue = -50,
			SaturationAdjustmentGreen = -49,
			SaturationAdjustmentMagenta = -50,
			SaturationAdjustmentOrange = -52,
			SaturationAdjustmentPurple = -50,
			SaturationAdjustmentRed = -69,
			SaturationAdjustmentYellow = -36,
			ShadowTint = 0,
			Shadows = 11,
			SharpenDetail = 25,
			SharpenEdgeMasking = 0,
			SharpenRadius = 1,
			Sharpness = 49,
			SplitToningBalance = 0,
			SplitToningHighlightHue = 65,
			SplitToningHighlightSaturation = 11,
			SplitToningShadowHue = 257,
			SplitToningShadowSaturation = 64,
			Temperature = 5000,
			Tint = 5,
			ToneCurve = {
				0,
				38,
				111,
				92,
				200,
				195,
				255,
				252,
			},
			ToneCurveName = "Custom",
			Vibrance = 54,
			VignetteAmount = 0,
			VignetteMidpoint = 50,
			WhiteBalance = "Custom",
			orientation = "DA",
		},
		uuid = "37C909E4-3515-4E79-A2F1-1DD63601E795",
	},
	version = 0,
}
