HQLightroomPresets 505 V.3.4/HQLightroomPresets 505 V.3.4/HQLightroomPresets Lr2-Lr3 RAW/Update #1 - Whity Black ~ HQLightroomPresets _.lrtemplate
s = {
	id = "17631E52-9884-4747-A448-77F9C7FE5434",
	internalName = "Copyrights © 2012 ~ HQLighroomPresets.com",
	title = "Update #1 : Whity Black ~ HQLightroomPresets  ",
	type = "Develop",
	value = {
		settings = {
			AutoBrightness = false,
			AutoContrast = false,
			AutoExposure = false,
			AutoShadows = false,
			BlueHue = 100,
			BlueSaturation = 100,
			Brightness = 50,
			CameraProfile = "ACR 4.4",
			ChromaticAberrationB = 0,
			ChromaticAberrationR = 0,
			Clarity = 24,
			ColorNoiseReduction = 0,
			ColorNoiseReductionDetail = 50,
			Contrast = 25,
			ConvertToGrayscale = false,
			Defringe = 0,
			EnableCalibration = true,
			EnableColorAdjustments = true,
			EnableDetail = true,
			EnableEffects = true,
			EnableLensCorrections = true,
			EnableSplitToning = true,
			Exposure = 0,
			FillLight = 13,
			GrainAmount = 0,
			GrainFrequency = 50,
			GrainSize = 50,
			GreenHue = -100,
			GreenSaturation = 100,
			HighlightRecovery = 0,
			HueAdjustmentAqua = 100,
			HueAdjustmentBlue = -9,
			HueAdjustmentGreen = -100,
			HueAdjustmentMagenta = 0,
			HueAdjustmentOrange = 0,
			HueAdjustmentPurple = 0,
			HueAdjustmentRed = 100,
			HueAdjustmentYellow = 0,
			LuminanceAdjustmentAqua = 100,
			LuminanceAdjustmentBlue = 100,
			LuminanceAdjustmentGreen = 100,
			LuminanceAdjustmentMagenta = 0,
			LuminanceAdjustmentOrange = 73,
			LuminanceAdjustmentPurple = 0,
			LuminanceAdjustmentRed = 100,
			LuminanceAdjustmentYellow = 36,
			LuminanceNoiseReductionContrast = 0,
			LuminanceNoiseReductionDetail = 50,
			LuminanceSmoothing = 13,
			ParametricDarks = 52,
			ParametricHighlightSplit = 90,
			ParametricHighlights = 0,
			ParametricLights = 0,
			ParametricMidtoneSplit = 59,
			ParametricShadowSplit = 10,
			ParametricShadows = 0,
			PostCropVignetteAmount = -21,
			PostCropVignetteFeather = 50,
			PostCropVignetteHighlightContrast = 0,
			PostCropVignetteMidpoint = 50,
			PostCropVignetteRoundness = 0,
			PostCropVignetteStyle = 1,
			ProcessVersion = "5.7",
			RedHue = 100,
			RedSaturation = 100,
			Saturation = 22,
			SaturationAdjustmentAqua = -100,
			SaturationAdjustmentBlue = -7,
			SaturationAdjustmentGreen = -100,
			SaturationAdjustmentMagenta = -14,
			SaturationAdjustmentOrange = -18,
			SaturationAdjustmentPurple = -14,
			SaturationAdjustmentRed = 14,
			SaturationAdjustmentYellow = -20,
			ShadowTint = 0,
			Shadows = 6,
			SharpenDetail = 25,
			SharpenEdgeMasking = 0,
			SharpenRadius = 1,
			Sharpness = 50,
			SplitToningBalance = 91,
			SplitToningHighlightHue = 0,
			SplitToningHighlightSaturation = 0,
			SplitToningShadowHue = 310,
			SplitToningShadowSaturation = 43,
			Temperature = 5519,
			Tint = -83,
			ToneCurve = {
				0,
				0,
				98,
				93,
				154,
				138,
				255,
				255,
			},
			ToneCurveName = "Custom",
			Vibrance = -95,
			VignetteAmount = 0,
			VignetteMidpoint = 50,
			WhiteBalance = "Custom",
		},
		uuid = "1E57A9E0-63BF-4E62-ACB6-C33B0950D51C",
	},
	version = 0,
}
