HQLightroomPresets 505 V.3.4/HQLightroomPresets 505 V.3.4/HQLightroomPresets Lr2-Lr3 RAW/Yellow Warm - Bloom ~ HQLightroomPresets _.lrtemplate
s = {
	id = "39616F6B-4AF4-4866-9BCA-A3ECF65EDB63",
	internalName = "Copyrights © 2012 ~ HQLighroomPresets.com",
	title = "Yellow Warm : Bloom ~ HQLightroomPresets  ",
	type = "Develop",
	value = {
		settings = {
			AutoBrightness = false,
			AutoContrast = false,
			AutoExposure = false,
			AutoShadows = false,
			BlueHue = 0,
			BlueSaturation = 0,
			Brightness = 50,
			CameraProfile = "Embedded",
			ChromaticAberrationB = 0,
			ChromaticAberrationR = 0,
			Clarity = 40,
			ColorNoiseReduction = 28,
			ColorNoiseReductionDetail = 50,
			Contrast = 14,
			ConvertToGrayscale = false,
			Defringe = 0,
			EnableCalibration = true,
			EnableColorAdjustments = true,
			EnableDetail = true,
			EnableEffects = true,
			EnableLensCorrections = true,
			EnableSplitToning = true,
			Exposure = 0.97,
			FillLight = 20,
			GrainAmount = 0,
			GrainFrequency = 50,
			GrainSize = 25,
			GreenHue = 0,
			GreenSaturation = 0,
			HighlightRecovery = 25,
			HueAdjustmentAqua = 10,
			HueAdjustmentBlue = 19,
			HueAdjustmentGreen = 0,
			HueAdjustmentMagenta = -13,
			HueAdjustmentOrange = 10,
			HueAdjustmentPurple = -5,
			HueAdjustmentRed = 5,
			HueAdjustmentYellow = 4,
			LuminanceAdjustmentAqua = -33,
			LuminanceAdjustmentBlue = -35,
			LuminanceAdjustmentGreen = -2,
			LuminanceAdjustmentMagenta = -13,
			LuminanceAdjustmentOrange = -9,
			LuminanceAdjustmentPurple = -28,
			LuminanceAdjustmentRed = -1,
			LuminanceAdjustmentYellow = -10,
			LuminanceNoiseReductionContrast = 0,
			LuminanceNoiseReductionDetail = 50,
			LuminanceSmoothing = 17,
			ParametricDarks = 24,
			ParametricHighlightSplit = 75,
			ParametricHighlights = -30,
			ParametricLights = 17,
			ParametricMidtoneSplit = 50,
			ParametricShadowSplit = 25,
			ParametricShadows = -29,
			PostCropVignetteAmount = -34,
			PostCropVignetteFeather = 100,
			PostCropVignetteHighlightContrast = 0,
			PostCropVignetteMidpoint = 17,
			PostCropVignetteRoundness = -33,
			PostCropVignetteStyle = 1,
			ProcessVersion = "5.7",
			RedHue = 0,
			RedSaturation = 0,
			Saturation = -5,
			SaturationAdjustmentAqua = 16,
			SaturationAdjustmentBlue = 18,
			SaturationAdjustmentGreen = -42,
			SaturationAdjustmentMagenta = 19,
			SaturationAdjustmentOrange = 24,
			SaturationAdjustmentPurple = 27,
			SaturationAdjustmentRed = 13,
			SaturationAdjustmentYellow = 9,
			ShadowTint = 0,
			Shadows = 6,
			SharpenDetail = 50,
			SharpenEdgeMasking = 0,
			SharpenRadius = 1,
			Sharpness = 57,
			SplitToningBalance = -3,
			SplitToningHighlightHue = 49,
			SplitToningHighlightSaturation = 17,
			SplitToningShadowHue = 61,
			SplitToningShadowSaturation = 21,
			Temperature = 4259,
			Tint = 8,
			ToneCurve = {
				0,
				0,
				255,
				255,
			},
			ToneCurveName = "Linear",
			Vibrance = 9,
			VignetteAmount = 0,
			VignetteMidpoint = 20,
			WhiteBalance = "Custom",
		},
		uuid = "9D9C4B28-A234-4503-98EE-BBB9EFCB669F",
	},
	version = 0,
}
