HQLightroomPresets 505 V.3.4/HQLightroomPresets 505 V.3.4/HQLightroomPresets Lr2-Lr3 RAW/Yellow Warm - Pale Oranges ~ HQLightroomPresets _.lrtemplate
s = {
	id = "DDEDFB96-5C43-44C0-B0CF-274B0DC2E950",
	internalName = "Copyrights © 2012 ~ HQLighroomPresets.com",
	title = "Yellow Warm : Pale Oranges ~ HQLightroomPresets  ",
	type = "Develop",
	value = {
		settings = {
			AutoBrightness = false,
			AutoContrast = false,
			AutoExposure = false,
			AutoShadows = false,
			BlueHue = -58,
			BlueSaturation = -25,
			Brightness = 50,
			CameraProfile = "ACR 2.4",
			ChromaticAberrationB = 0,
			ChromaticAberrationR = 0,
			Clarity = 20,
			ColorNoiseReduction = 28,
			ColorNoiseReductionDetail = 50,
			Contrast = 25,
			ConvertToGrayscale = false,
			Defringe = 0,
			EnableCalibration = true,
			EnableColorAdjustments = true,
			EnableDetail = true,
			EnableEffects = true,
			EnableLensCorrections = true,
			EnableSplitToning = true,
			Exposure = 1.79,
			FillLight = 13,
			GrainAmount = 0,
			GrainFrequency = 50,
			GrainSize = 25,
			GreenHue = 0,
			GreenSaturation = -45,
			HighlightRecovery = 25,
			HueAdjustmentAqua = 24,
			HueAdjustmentBlue = 21,
			HueAdjustmentGreen = 26,
			HueAdjustmentMagenta = 2,
			HueAdjustmentOrange = 21,
			HueAdjustmentPurple = 15,
			HueAdjustmentRed = 9,
			HueAdjustmentYellow = 27,
			LuminanceAdjustmentAqua = -12,
			LuminanceAdjustmentBlue = -9,
			LuminanceAdjustmentGreen = -32,
			LuminanceAdjustmentMagenta = -4,
			LuminanceAdjustmentOrange = -9,
			LuminanceAdjustmentPurple = -7,
			LuminanceAdjustmentRed = -9,
			LuminanceAdjustmentYellow = -12,
			LuminanceNoiseReductionContrast = 0,
			LuminanceNoiseReductionDetail = 50,
			LuminanceSmoothing = 8,
			ParametricDarks = -55,
			ParametricHighlightSplit = 75,
			ParametricHighlights = -30,
			ParametricLights = -34,
			ParametricMidtoneSplit = 50,
			ParametricShadowSplit = 25,
			ParametricShadows = 0,
			PostCropVignetteAmount = -11,
			PostCropVignetteFeather = 100,
			PostCropVignetteHighlightContrast = 0,
			PostCropVignetteMidpoint = 23,
			PostCropVignetteRoundness = -39,
			PostCropVignetteStyle = 1,
			ProcessVersion = "5.7",
			RedHue = 0,
			RedSaturation = -25,
			Saturation = -16,
			SaturationAdjustmentAqua = -24,
			SaturationAdjustmentBlue = -21,
			SaturationAdjustmentGreen = -30,
			SaturationAdjustmentMagenta = 10,
			SaturationAdjustmentOrange = 30,
			SaturationAdjustmentPurple = -10,
			SaturationAdjustmentRed = 83,
			SaturationAdjustmentYellow = 0,
			ShadowTint = 0,
			Shadows = 8,
			SharpenDetail = 50,
			SharpenEdgeMasking = 0,
			SharpenRadius = 1,
			Sharpness = 49,
			SplitToningBalance = 85,
			SplitToningHighlightHue = 0,
			SplitToningHighlightSaturation = 0,
			SplitToningShadowHue = 256,
			SplitToningShadowSaturation = 54,
			Temperature = 7273,
			Tint = -2,
			ToneCurve = {
				0,
				0,
				255,
				255,
			},
			ToneCurveName = "Linear",
			Vibrance = -13,
			VignetteAmount = 0,
			VignetteMidpoint = 20,
			WhiteBalance = "Custom",
		},
		uuid = "2575B489-8A8A-4BC9-BBAC-45BD02FF6F8B",
	},
	version = 0,
}
