CM 200+ All Seasons presets 181273/Pastel Presets Winter Presets Collection Set/Winter Sun.lrtemplate
s = {
	id = "52300AA9-C71E-4502-8DC9-2DCE70AF1FFD",
	internalName = "Winter Sun",
	title = "Winter Sun",
	type = "Develop",
	value = {
		settings = {
			ParametricDarks = 0,
			ParametricHighlightSplit = 75,
			ParametricHighlights = 0,
			ParametricLights = 0,
			ParametricMidtoneSplit = 50,
			ParametricShadowSplit = 25,
			ParametricShadows = 0,
			ProcessVersion = "6.7",
			ToneCurveName2012 = "Custom",
			ToneCurvePV2012 = {
				0,
				0,
				34,
				33,
				63,
				63,
				79,
				86,
				130,
				130,
				190,
				190,
				255,
				255,
			},
			ToneCurvePV2012Blue = {
				0,
				0,
				255,
				255,
			},
			ToneCurvePV2012Green = {
				0,
				0,
				255,
				255,
			},
			ToneCurvePV2012Red = {
				0,
				0,
				255,
				255,
			},
		},
		uuid = "C019D100-A59B-4BD0-8A26-F93C8C27B896",
	},
	version = 0,
}
