Matte Film Lightroom Presets/29 .Irtemplates/Workflow_07_Matte Film_aestheticartz.com--.lrtemplate
s = {
	id = "98A3248F-5DFE-4DE8-958B-94B42BF483A9",
	internalName = "Workflow_07_Matte Film_aestheticartz.com--",
	title = "Workflow_07_Matte Film_aestheticartz.com--",
	type = "Develop",
	value = {
		settings = {
			AutoLateralCA = 0,
			Blacks2012 = 1,
			ChromaticAberrationB = 0,
			ChromaticAberrationR = 0,
			Clarity2012 = 20,
			Contrast2012 = 30,
			ConvertToGrayscale = false,
			CropConstrainToWarp = 0,
			Defringe = 0,
			DefringeGreenAmount = 0,
			DefringeGreenHueHi = 60,
			DefringeGreenHueLo = 40,
			DefringePurpleAmount = 0,
			DefringePurpleHueHi = 70,
			DefringePurpleHueLo = 30,
			EnableColorAdjustments = true,
			EnableLensCorrections = true,
			Exposure2012 = 0.06,
			Highlights2012 = -51,
			HueAdjustmentAqua = -7,
			HueAdjustmentBlue = -2,
			HueAdjustmentGreen = -64,
			HueAdjustmentMagenta = 2,
			HueAdjustmentOrange = 13,
			HueAdjustmentPurple = 0,
			HueAdjustmentRed = 0,
			HueAdjustmentYellow = 38,
			IncrementalTemperature = 9,
			IncrementalTint = 0,
			LensManualDistortionAmount = 0,
			LensProfileEnable = 0,
			LensProfileSetup = "LensDefaults",
			LuminanceAdjustmentAqua = 0,
			LuminanceAdjustmentBlue = 0,
			LuminanceAdjustmentGreen = 0,
			LuminanceAdjustmentMagenta = 0,
			LuminanceAdjustmentOrange = 0,
			LuminanceAdjustmentPurple = 0,
			LuminanceAdjustmentRed = 0,
			LuminanceAdjustmentYellow = 2,
			PerspectiveAspect = 0,
			PerspectiveHorizontal = 0,
			PerspectiveRotate = 0,
			PerspectiveScale = 100,
			PerspectiveUpright = 0,
			PerspectiveVertical = 0,
			Saturation = 0,
			SaturationAdjustmentAqua = 13,
			SaturationAdjustmentBlue = 0,
			SaturationAdjustmentGreen = 0,
			SaturationAdjustmentMagenta = 0,
			SaturationAdjustmentOrange = 22,
			SaturationAdjustmentPurple = 0,
			SaturationAdjustmentRed = 0,
			SaturationAdjustmentYellow = 7,
			Shadows2012 = 2,
			Vibrance = -5,
			VignetteAmount = 0,
			VignetteMidpoint = 50,
			WhiteBalance = "Custom",
			Whites2012 = 32,
			orientation = "AB",
		},
		uuid = "82F78B52-DD07-40E1-A55F-3A3C2C957E56",
	},
	version = 0,
}
