Matte Film Lightroom Presets/29 .Irtemplates/Workflow_04_Matte Film_aestheticartz.com-.lrtemplate
s = {
	id = "4CB007FE-EFFC-48F2-A931-0E44A2DED877",
	internalName = "Workflow_04_Matte Film_aestheticartz.com-",
	title = "Workflow_04_Matte Film_aestheticartz.com-",
	type = "Develop",
	value = {
		settings = {
			AutoLateralCA = 0,
			Blacks2012 = -29,
			BlueHue = 0,
			BlueSaturation = 0,
			CameraProfile = "Adobe Standard",
			ChromaticAberrationB = 0,
			ChromaticAberrationR = 0,
			Clarity2012 = 21,
			ColorNoiseReduction = 25,
			ColorNoiseReductionDetail = 50,
			ColorNoiseReductionSmoothness = 50,
			Contrast2012 = 30,
			ConvertToGrayscale = true,
			Defringe = 0,
			DefringeGreenAmount = 0,
			DefringeGreenHueHi = 60,
			DefringeGreenHueLo = 40,
			DefringePurpleAmount = 0,
			DefringePurpleHueHi = 70,
			DefringePurpleHueLo = 30,
			EnableCalibration = true,
			EnableDetail = true,
			EnableEffects = true,
			EnableGrayscaleMix = true,
			EnableLensCorrections = true,
			EnableSplitToning = true,
			Exposure2012 = -0.18,
			GrainAmount = 5,
			GrainFrequency = 19,
			GrainSize = 4,
			GrayMixerAqua = 24,
			GrayMixerBlue = -24,
			GrayMixerGreen = 53,
			GrayMixerMagenta = 16,
			GrayMixerOrange = 9,
			GrayMixerPurple = -51,
			GrayMixerRed = -36,
			GrayMixerYellow = 64,
			GreenHue = 0,
			GreenSaturation = 0,
			Highlights2012 = -31,
			IncrementalTemperature = -14,
			IncrementalTint = -53,
			LuminanceNoiseReductionContrast = 0,
			LuminanceNoiseReductionDetail = 50,
			LuminanceSmoothing = 0,
			ParametricDarks = 0,
			ParametricHighlightSplit = 75,
			ParametricHighlights = 0,
			ParametricLights = 0,
			ParametricMidtoneSplit = 50,
			ParametricShadowSplit = 25,
			ParametricShadows = 0,
			PostCropVignetteAmount = -12,
			PostCropVignetteFeather = 86,
			PostCropVignetteHighlightContrast = 0,
			PostCropVignetteMidpoint = 81,
			PostCropVignetteRoundness = 21,
			PostCropVignetteStyle = 2,
			ProcessVersion = "6.7",
			RedHue = 0,
			RedSaturation = 0,
			ShadowTint = 0,
			Shadows2012 = -18,
			SharpenDetail = 0,
			SharpenEdgeMasking = 0,
			SharpenRadius = 0.6,
			Sharpness = 26,
			SplitToningBalance = 0,
			SplitToningHighlightHue = 0,
			SplitToningHighlightSaturation = 0,
			SplitToningShadowHue = 171,
			SplitToningShadowSaturation = 1,
			ToneCurveName2012 = "Custom",
			ToneCurvePV2012 = {
				0,
				37,
				83,
				68,
				189,
				179,
				255,
				228,
			},
			ToneCurvePV2012Blue = {
				0,
				0,
				255,
				255,
			},
			ToneCurvePV2012Green = {
				0,
				0,
				255,
				255,
			},
			ToneCurvePV2012Red = {
				0,
				0,
				255,
				255,
			},
			VignetteAmount = 0,
			VignetteMidpoint = 50,
			WhiteBalance = "Custom",
			Whites2012 = 0,
		},
		uuid = "7EA38166-6C50-4D6B-B66D-FAAE2E7C6BA4",
	},
	version = 0,
}
