PhotoSerge Lightroom Presets Collection Vol. 1-8 Bundle (LR)_DiTim/08-Lightroom-Presets-Volume-6-Summer/08-Lightroom-Presets-Volume-6-Summer/PhotoSerge-Vol 6 Summer/Tone- Hot.lrtemplate
s = {
	id = "87D0011F-FB45-4B30-8B88-8BE5B3B4E39F",
	internalName = "6Hot summer",
	title = "Tone: Hot",
	type = "Develop",
	value = {
		settings = {
			AutoLateralCA = 1,
			AutoWhiteVersion = 134348800,
			Blacks2012 = -46,
			BlueHue = 0,
			BlueSaturation = 0,
			CameraProfile = "Adobe Standard",
			ChromaticAberrationB = 0,
			ChromaticAberrationR = 0,
			Clarity2012 = 51,
			ColorNoiseReduction = 60,
			ColorNoiseReductionDetail = 50,
			ColorNoiseReductionSmoothness = 50,
			Contrast2012 = 60,
			ConvertToGrayscale = false,
			CropConstrainToWarp = 0,
			Defringe = 0,
			DefringeGreenAmount = 0,
			DefringeGreenHueHi = 60,
			DefringeGreenHueLo = 40,
			DefringePurpleAmount = 0,
			DefringePurpleHueHi = 70,
			DefringePurpleHueLo = 30,
			EnableCalibration = true,
			EnableCircularGradientBasedCorrections = true,
			EnableColorAdjustments = true,
			EnableDetail = true,
			EnableEffects = true,
			EnableGradientBasedCorrections = true,
			EnableLensCorrections = true,
			EnableSplitToning = true,
			Exposure2012 = 0.4,
			GradientBasedCorrections = {
				{
					CorrectionActive = true,
					CorrectionAmount = 1,
					CorrectionID = "125CA3B8-1A16-40AD-A5B5-3907C77517A3",
					CorrectionMasks = {
						{
							FullX = 0.39607,
							FullY = 0.200933,
							MaskID = "8202C82F-4609-498F-BDE2-2D7EC358B135",
							MaskValue = 1,
							What = "Mask/Gradient",
							ZeroX = 0.400165,
							ZeroY = 0.823067,
						},
					},
					CorrectionReferenceX = 0.398118,
					CorrectionReferenceY = 0.512,
					LocalBrightness = 0,
					LocalClarity = 0,
					LocalClarity2012 = 0,
					LocalContrast = -0.22114,
					LocalContrast2012 = -0.22114,
					LocalExposure = 0,
					LocalExposure2012 = 0,
					LocalHighlights2012 = 0,
					LocalLuminanceNoise = 0,
					LocalMoire = 0,
					LocalSaturation = 0,
					LocalShadows2012 = 0,
					LocalSharpness = 0,
					LocalTemperature = 0,
					LocalTint = 0,
					LocalToningHue = 12,
					LocalToningSaturation = 0.30577,
					What = "Correction",
				},
			},
			GrainAmount = 0,
			GrainFrequency = 39,
			GrainSize = 33,
			GreenHue = 0,
			GreenSaturation = 0,
			Highlights2012 = -100,
			HueAdjustmentAqua = 43,
			HueAdjustmentBlue = -24,
			HueAdjustmentGreen = 58,
			HueAdjustmentMagenta = 43,
			HueAdjustmentOrange = 0,
			HueAdjustmentPurple = -35,
			HueAdjustmentRed = 0,
			HueAdjustmentYellow = 42,
			LensManualDistortionAmount = 0,
			LensProfileChromaticAberrationScale = 100,
			LensProfileDigest = "F59965C057650927AFD8E60143A071CA",
			LensProfileDistortionScale = 0,
			LensProfileEnable = 1,
			LensProfileFilename = "Canon EOS-1Ds Mark III (Canon EF 24-105mm f4 L IS USM) - RAW.lcp",
			LensProfileName = "Adobe (Canon EF 24-105mm f/4 L IS USM)",
			LensProfileSetup = "Custom",
			LensProfileVignettingScale = 100,
			LuminanceAdjustmentAqua = -35,
			LuminanceAdjustmentBlue = -68,
			LuminanceAdjustmentGreen = 0,
			LuminanceAdjustmentMagenta = 0,
			LuminanceAdjustmentOrange = 73,
			LuminanceAdjustmentPurple = 0,
			LuminanceAdjustmentRed = 0,
			LuminanceAdjustmentYellow = 25,
			LuminanceNoiseReductionContrast = 45,
			LuminanceNoiseReductionDetail = 50,
			LuminanceSmoothing = 21,
			ParametricDarks = 0,
			ParametricHighlightSplit = 75,
			ParametricHighlights = 0,
			ParametricLights = 3,
			ParametricMidtoneSplit = 50,
			ParametricShadowSplit = 25,
			ParametricShadows = 0,
			PerspectiveAspect = 0,
			PerspectiveHorizontal = 0,
			PerspectiveRotate = 0,
			PerspectiveScale = 100,
			PerspectiveUpright = 0,
			PerspectiveVertical = 0,
			PostCropVignetteAmount = 0,
			PostCropVignetteFeather = 50,
			PostCropVignetteHighlightContrast = 0,
			PostCropVignetteMidpoint = 50,
			PostCropVignetteRoundness = 0,
			PostCropVignetteStyle = 1,
			ProcessVersion = "6.7",
			RedHue = 0,
			RedSaturation = 0,
			Saturation = -32,
			SaturationAdjustmentAqua = 0,
			SaturationAdjustmentBlue = 0,
			SaturationAdjustmentGreen = 0,
			SaturationAdjustmentMagenta = 0,
			SaturationAdjustmentOrange = 5,
			SaturationAdjustmentPurple = 0,
			SaturationAdjustmentRed = 10,
			SaturationAdjustmentYellow = 7,
			ShadowTint = 0,
			Shadows2012 = 100,
			SharpenDetail = 35,
			SharpenEdgeMasking = 0,
			SharpenRadius = 0.8,
			Sharpness = 73,
			SplitToningBalance = 3,
			SplitToningHighlightHue = 36,
			SplitToningHighlightSaturation = 83,
			SplitToningShadowHue = 216,
			SplitToningShadowSaturation = 26,
			ToneCurveName2012 = "Linear",
			ToneCurvePV2012 = {
				0,
				0,
				255,
				255,
			},
			ToneCurvePV2012Blue = {
				0,
				0,
				255,
				255,
			},
			ToneCurvePV2012Green = {
				0,
				0,
				255,
				255,
			},
			ToneCurvePV2012Red = {
				0,
				0,
				255,
				255,
			},
			Vibrance = 32,
			VignetteAmount = 0,
			VignetteMidpoint = 50,
			WhiteBalance = "Auto",
			Whites2012 = 18,
			orientation = "AB",
		},
		uuid = "BAADD50D-BB74-4E47-B140-AF9617D23B7A",
	},
	version = 0,
}
