1100 Lightroom Presets/CM 1100+ Lightroom Presets 320973/20 Pinhole Pro Lightroom Presets/Effect 19.lrtemplate
s = {
	id = "83201928-C730-4C0D-B302-47C0D39E9131",
	internalName = "Effect 19",
	title = "Effect 19",
	type = "Develop",
	value = {
		settings = {
			AutoLateralCA = 0,
			Blacks2012 = -71,
			BlueHue = 0,
			BlueSaturation = 0,
			CameraProfile = "Embedded",
			ChromaticAberrationB = 0,
			ChromaticAberrationR = 0,
			Clarity2012 = -24,
			ColorNoiseReduction = 0,
			ColorNoiseReductionDetail = 50,
			Contrast2012 = 46,
			ConvertToGrayscale = true,
			CropConstrainToWarp = 0,
			Defringe = 0,
			EnableCalibration = true,
			EnableDetail = true,
			EnableEffects = true,
			EnableGradientBasedCorrections = true,
			EnableGrayscaleMix = true,
			EnableLensCorrections = true,
			EnableSplitToning = true,
			Exposure2012 = -0.24,
			GradientBasedCorrections = {
				{
					CorrectionActive = true,
					CorrectionAmount = 1,
					CorrectionID = "7E6DFC20-EA59-4AA3-83AE-F5E78F99B0D3",
					CorrectionMasks = {
						{
							FullX = 0.465854,
							FullY = -0.022764,
							MaskID = "C2BEA4D8-3FF8-4AB2-82B7-96DE8DA455E9",
							MaskValue = 1,
							What = "Mask/Gradient",
							ZeroX = 0.465854,
							ZeroY = 0.019512,
						},
					},
					CorrectionReferenceX = 0.465854,
					CorrectionReferenceY = -0.001626,
					LocalBrightness = 0,
					LocalClarity = 0,
					LocalClarity2012 = 0,
					LocalContrast = 0,
					LocalContrast2012 = 0,
					LocalExposure = 0,
					LocalExposure2012 = 0,
					LocalHighlights2012 = 0,
					LocalLuminanceNoise = 0,
					LocalMoire = 0,
					LocalSaturation = 0.01149,
					LocalShadows2012 = 0,
					LocalSharpness = 0,
					LocalTemperature = 0,
					LocalTint = 0,
					LocalToningHue = 53.0769,
					LocalToningSaturation = 0.722222,
					What = "Correction",
				},
				{
					CorrectionActive = true,
					CorrectionAmount = 1,
					CorrectionID = "54D75D84-53A2-4EED-ACEB-A9D0D48B51A0",
					CorrectionMasks = {
						{
							FullX = 1.18781,
							FullY = 0.461789,
							MaskID = "350A3B9D-F86D-4AFA-ABBC-DB5F41E412C5",
							MaskValue = 1,
							What = "Mask/Gradient",
							ZeroX = 0.807317,
							ZeroY = 0.460163,
						},
					},
					CorrectionReferenceX = 0.997564,
					CorrectionReferenceY = 0.460976,
					LocalBrightness = 0,
					LocalClarity = 0,
					LocalClarity2012 = 0,
					LocalContrast = 0,
					LocalContrast2012 = 0,
					LocalExposure = 0,
					LocalExposure2012 = 0,
					LocalHighlights2012 = 0,
					LocalLuminanceNoise = 0,
					LocalMoire = 0,
					LocalSaturation = 0.01149,
					LocalShadows2012 = 0,
					LocalSharpness = 0,
					LocalTemperature = 0,
					LocalTint = 0,
					LocalToningHue = 53.0769,
					LocalToningSaturation = 0.722222,
					What = "Correction",
				},
				{
					CorrectionActive = true,
					CorrectionAmount = 1,
					CorrectionID = "C1868D53-1A71-4450-998D-640D13479B4D",
					CorrectionMasks = {
						{
							FullX = -0.139024,
							FullY = 0.492683,
							MaskID = "208D7FC4-6743-4C91-81F3-0A429260417E",
							MaskValue = 1,
							What = "Mask/Gradient",
							ZeroX = 0.131707,
							ZeroY = 0.491057,
						},
					},
					CorrectionReferenceX = -0.0036585,
					CorrectionReferenceY = 0.49187,
					LocalBrightness = 0,
					LocalClarity = 0,
					LocalClarity2012 = 0,
					LocalContrast = 0,
					LocalContrast2012 = 0,
					LocalExposure = 0,
					LocalExposure2012 = 0,
					LocalHighlights2012 = 0,
					LocalLuminanceNoise = 0,
					LocalMoire = 0,
					LocalSaturation = 0.01149,
					LocalShadows2012 = 0,
					LocalSharpness = 0,
					LocalTemperature = 0,
					LocalTint = 0,
					LocalToningHue = 53.0769,
					LocalToningSaturation = 0.722222,
					What = "Correction",
				},
				{
					CorrectionActive = true,
					CorrectionAmount = 1,
					CorrectionID = "8CC9FB09-6B8C-4B58-A89B-7F18812AD3FC",
					CorrectionMasks = {
						{
							FullX = 0.587805,
							FullY = 1.01138,
							MaskID = "46640B72-70B5-40A8-9ED0-06E9AF2D5D33",
							MaskValue = 1,
							What = "Mask/Gradient",
							ZeroX = 0.587805,
							ZeroY = 0.972358,
						},
					},
					CorrectionReferenceX = 0.587805,
					CorrectionReferenceY = 0.991869,
					LocalBrightness = 0,
					LocalClarity = 0,
					LocalClarity2012 = 0,
					LocalContrast = 0,
					LocalContrast2012 = 0,
					LocalExposure = 0,
					LocalExposure2012 = 0,
					LocalHighlights2012 = 0,
					LocalLuminanceNoise = 0,
					LocalMoire = 0,
					LocalSaturation = 0.01149,
					LocalShadows2012 = 0,
					LocalSharpness = 0,
					LocalTemperature = 0,
					LocalTint = 0,
					LocalToningHue = 53.0769,
					LocalToningSaturation = 0.722222,
					What = "Correction",
				},
			},
			GrainAmount = 13,
			GrainFrequency = 30,
			GrainSize = 38,
			GrayMixerAqua = -17,
			GrayMixerBlue = 11,
			GrayMixerGreen = -27,
			GrayMixerMagenta = 3,
			GrayMixerOrange = -20,
			GrayMixerPurple = 16,
			GrayMixerRed = 0,
			GrayMixerYellow = -24,
			GreenHue = 0,
			GreenSaturation = 0,
			Highlights2012 = 0,
			IncrementalTemperature = 0,
			IncrementalTint = 0,
			LensManualDistortionAmount = 0,
			LensProfileEnable = 0,
			LensProfileSetup = "LensDefaults",
			LuminanceNoiseReductionContrast = 0,
			LuminanceNoiseReductionDetail = 50,
			LuminanceSmoothing = 0,
			ParametricDarks = 0,
			ParametricHighlightSplit = 75,
			ParametricHighlights = 0,
			ParametricLights = 0,
			ParametricMidtoneSplit = 50,
			ParametricShadowSplit = 25,
			ParametricShadows = 0,
			PerspectiveHorizontal = 0,
			PerspectiveRotate = 0,
			PerspectiveScale = 100,
			PerspectiveVertical = 0,
			PostCropVignetteAmount = -68,
			PostCropVignetteFeather = 50,
			PostCropVignetteHighlightContrast = 0,
			PostCropVignetteMidpoint = 41,
			PostCropVignetteRoundness = 0,
			PostCropVignetteStyle = 1,
			ProcessVersion = "6.7",
			RedHue = 0,
			RedSaturation = 0,
			ShadowTint = 0,
			Shadows2012 = -15,
			SharpenDetail = 25,
			SharpenEdgeMasking = 0,
			SharpenRadius = 1,
			Sharpness = 0,
			SplitToningBalance = 0,
			SplitToningHighlightHue = 85,
			SplitToningHighlightSaturation = 11,
			SplitToningShadowHue = 207,
			SplitToningShadowSaturation = 11,
			ToneCurveName2012 = "Custom",
			ToneCurvePV2012 = {
				0,
				0,
				144,
				149,
				255,
				255,
			},
			ToneCurvePV2012Blue = {
				0,
				0,
				125,
				124,
				255,
				255,
			},
			ToneCurvePV2012Green = {
				0,
				0,
				146,
				142,
				255,
				255,
			},
			ToneCurvePV2012Red = {
				0,
				0,
				136,
				124,
				255,
				255,
			},
			VignetteAmount = 0,
			VignetteMidpoint = 50,
			WhiteBalance = "Custom",
			Whites2012 = -5,
			orientation = "AB",
		},
		uuid = "35B1A5CE-4E06-4A88-8CAE-1573965AEA51",
	},
	version = 0,
}
