CM 600 Lightroom Presets Bundle Vol  2 52062/50 Born Baby Lightroom Presets/Baby Effect 17.lrtemplate
s = {
	id = "CD22F8F1-6D14-4933-A68A-A9293A1E520A",
	internalName = "Effect 17",
	title = "Baby Effect 17",
	type = "Develop",
	value = {
		settings = {
			AutoLateralCA = 0,
			Blacks2012 = 0,
			BlueHue = -68,
			BlueSaturation = -71,
			CameraProfile = "Embedded",
			ChromaticAberrationB = 0,
			ChromaticAberrationR = 0,
			Clarity2012 = 49,
			ColorNoiseReduction = 0,
			ColorNoiseReductionDetail = 50,
			Contrast2012 = -63,
			ConvertToGrayscale = false,
			CropConstrainToWarp = 0,
			Defringe = 0,
			EnableCalibration = true,
			EnableColorAdjustments = true,
			EnableDetail = true,
			EnableEffects = true,
			EnableGradientBasedCorrections = true,
			EnableLensCorrections = true,
			EnableSplitToning = true,
			Exposure2012 = 0.85,
			GradientBasedCorrections = {
				{
					CorrectionActive = true,
					CorrectionAmount = 1,
					CorrectionID = "5F2244BE-A6BF-4F36-82A6-2C9106F45028",
					CorrectionMasks = {
						{
							FullX = 1.31086,
							FullY = 0.124688,
							MaskID = "3ACC962F-4072-4757-B1B8-E529C4BC2A9D",
							MaskValue = 1,
							What = "Mask/Gradient",
							ZeroX = -1.28464,
							ZeroY = 0.972569,
						},
					},
					CorrectionReferenceX = 0.01311,
					CorrectionReferenceY = 0.548628,
					LocalBrightness = 0,
					LocalClarity = 0,
					LocalClarity2012 = 0,
					LocalContrast = 0,
					LocalContrast2012 = -0.45882,
					LocalExposure = 0.25,
					LocalExposure2012 = 0.2,
					LocalHighlights2012 = 0,
					LocalLuminanceNoise = 0,
					LocalMoire = 0,
					LocalSaturation = 0,
					LocalShadows2012 = 0,
					LocalSharpness = 0,
					LocalTemperature = 0,
					LocalTint = 0,
					LocalToningHue = 251,
					LocalToningSaturation = 0.69,
					What = "Correction",
				},
				{
					CorrectionActive = true,
					CorrectionAmount = 1,
					CorrectionID = "CFE9C41A-F69F-4B0E-8A74-A53E407C13FD",
					CorrectionMasks = {
						{
							FullX = 1.24345,
							FullY = 0.117207,
							MaskID = "95D96904-A81F-4CAA-9929-425685F0AD8A",
							MaskValue = 1,
							What = "Mask/Gradient",
							ZeroX = -1.09363,
							ZeroY = 1.28928,
						},
					},
					CorrectionReferenceX = 0.07491,
					CorrectionReferenceY = 0.703244,
					LocalBrightness = 0,
					LocalClarity = 0,
					LocalClarity2012 = 0,
					LocalContrast = 0,
					LocalContrast2012 = 0,
					LocalExposure = 0.25,
					LocalExposure2012 = 0.2235,
					LocalHighlights2012 = 0,
					LocalLuminanceNoise = 0,
					LocalMoire = 0,
					LocalSaturation = -0.05882,
					LocalShadows2012 = 0,
					LocalSharpness = 0,
					LocalTemperature = 0.81176,
					LocalTint = -0.92941,
					LocalToningHue = 49,
					LocalToningSaturation = 0.97,
					What = "Correction",
				},
			},
			GrainAmount = 0,
			GrainFrequency = 50,
			GrainSize = 25,
			GreenHue = 29,
			GreenSaturation = 0,
			Highlights2012 = -46,
			HueAdjustmentAqua = 0,
			HueAdjustmentBlue = 0,
			HueAdjustmentGreen = 0,
			HueAdjustmentMagenta = 0,
			HueAdjustmentOrange = 0,
			HueAdjustmentPurple = 0,
			HueAdjustmentRed = 0,
			HueAdjustmentYellow = 0,
			IncrementalTemperature = 46,
			IncrementalTint = 27,
			LensManualDistortionAmount = 0,
			LensProfileEnable = 0,
			LensProfileSetup = "LensDefaults",
			LuminanceAdjustmentAqua = 0,
			LuminanceAdjustmentBlue = 0,
			LuminanceAdjustmentGreen = 0,
			LuminanceAdjustmentMagenta = 0,
			LuminanceAdjustmentOrange = 0,
			LuminanceAdjustmentPurple = 0,
			LuminanceAdjustmentRed = 0,
			LuminanceAdjustmentYellow = 0,
			LuminanceNoiseReductionContrast = 0,
			LuminanceNoiseReductionDetail = 50,
			LuminanceSmoothing = 0,
			ParametricDarks = -43,
			ParametricHighlightSplit = 75,
			ParametricHighlights = -3,
			ParametricLights = -39,
			ParametricMidtoneSplit = 50,
			ParametricShadowSplit = 25,
			ParametricShadows = -100,
			PerspectiveHorizontal = 0,
			PerspectiveRotate = 0,
			PerspectiveScale = 100,
			PerspectiveVertical = 0,
			PostCropVignetteAmount = 0,
			PostCropVignetteFeather = 50,
			PostCropVignetteHighlightContrast = 0,
			PostCropVignetteMidpoint = 50,
			PostCropVignetteRoundness = 0,
			PostCropVignetteStyle = 1,
			ProcessVersion = "6.7",
			RedHue = -27,
			RedSaturation = 0,
			Saturation = 0,
			SaturationAdjustmentAqua = 0,
			SaturationAdjustmentBlue = 0,
			SaturationAdjustmentGreen = 0,
			SaturationAdjustmentMagenta = 0,
			SaturationAdjustmentOrange = 0,
			SaturationAdjustmentPurple = 0,
			SaturationAdjustmentRed = 0,
			SaturationAdjustmentYellow = 0,
			ShadowTint = -88,
			Shadows2012 = -5,
			SharpenDetail = 25,
			SharpenEdgeMasking = 0,
			SharpenRadius = 1,
			Sharpness = 0,
			SplitToningBalance = 0,
			SplitToningHighlightHue = 287,
			SplitToningHighlightSaturation = 41,
			SplitToningShadowHue = 12,
			SplitToningShadowSaturation = 53,
			ToneCurveName2012 = "Linear",
			ToneCurvePV2012 = {
				0,
				0,
				255,
				255,
			},
			ToneCurvePV2012Blue = {
				0,
				0,
				255,
				255,
			},
			ToneCurvePV2012Green = {
				0,
				0,
				255,
				255,
			},
			ToneCurvePV2012Red = {
				0,
				0,
				255,
				255,
			},
			Vibrance = 0,
			VignetteAmount = 0,
			VignetteMidpoint = 50,
			WhiteBalance = "Custom",
			Whites2012 = 34,
			orientation = "AB",
		},
		uuid = "FF022498-2297-41DB-82E1-2D7BEB0A1F2E",
	},
	version = 0,
}
