Dynomite-Lightroom-Presets-V2/Presetual - Dynomite HDR - Volume 2/Glacier.lrtemplate
s = {
	id = "A9F2D52D-EB12-4D36-9F7C-F3FB15AAB5B1",
	internalName = "Glacier",
	title = "Glacier",
	type = "Develop",
	value = {
		settings = {
			AutoLateralCA = 0,
			Blacks2012 = 0,
			BlueHue = 0,
			BlueSaturation = 0,
			CameraProfile = "Embedded",
			ChromaticAberrationB = 0,
			ChromaticAberrationR = 0,
			Clarity2012 = 100,
			ColorNoiseReduction = 0,
			ColorNoiseReductionDetail = 100,
			ColorNoiseReductionSmoothness = 0,
			Contrast2012 = -71,
			ConvertToGrayscale = false,
			CropConstrainToWarp = 0,
			Defringe = 0,
			DefringeGreenAmount = 0,
			DefringeGreenHueHi = 60,
			DefringeGreenHueLo = 40,
			DefringePurpleAmount = 0,
			DefringePurpleHueHi = 70,
			DefringePurpleHueLo = 30,
			EnableCalibration = true,
			EnableColorAdjustments = true,
			EnableDetail = true,
			EnableEffects = true,
			EnableLensCorrections = true,
			Exposure2012 = 0.3,
			GrainAmount = 0,
			GrainFrequency = 50,
			GrainSize = 2,
			GreenHue = 0,
			GreenSaturation = 0,
			Highlights2012 = 0,
			HueAdjustmentAqua = 0,
			HueAdjustmentBlue = -31,
			HueAdjustmentGreen = 0,
			HueAdjustmentMagenta = 0,
			HueAdjustmentOrange = 0,
			HueAdjustmentPurple = -50,
			HueAdjustmentRed = 40,
			HueAdjustmentYellow = 0,
			IncrementalTemperature = 0,
			IncrementalTint = 0,
			LensManualDistortionAmount = 0,
			LensProfileEnable = 0,
			LensProfileSetup = "LensDefaults",
			LuminanceAdjustmentAqua = 0,
			LuminanceAdjustmentBlue = 51,
			LuminanceAdjustmentGreen = 42,
			LuminanceAdjustmentMagenta = 0,
			LuminanceAdjustmentOrange = 11,
			LuminanceAdjustmentPurple = 81,
			LuminanceAdjustmentRed = 0,
			LuminanceAdjustmentYellow = 65,
			LuminanceNoiseReductionContrast = 0,
			LuminanceNoiseReductionDetail = 100,
			LuminanceSmoothing = 25,
			ParametricDarks = 0,
			ParametricHighlightSplit = 75,
			ParametricHighlights = 0,
			ParametricLights = 0,
			ParametricMidtoneSplit = 50,
			ParametricShadowSplit = 25,
			ParametricShadows = 0,
			PerspectiveAspect = 0,
			PerspectiveHorizontal = 0,
			PerspectiveRotate = 0,
			PerspectiveScale = 100,
			PerspectiveUpright = 0,
			PerspectiveVertical = 0,
			PostCropVignetteAmount = -21,
			PostCropVignetteFeather = 100,
			PostCropVignetteHighlightContrast = 0,
			PostCropVignetteMidpoint = 31,
			PostCropVignetteRoundness = 36,
			PostCropVignetteStyle = 2,
			ProcessVersion = "6.7",
			RedHue = 0,
			RedSaturation = 0,
			Saturation = 40,
			SaturationAdjustmentAqua = 42,
			SaturationAdjustmentBlue = 47,
			SaturationAdjustmentGreen = 0,
			SaturationAdjustmentMagenta = 0,
			SaturationAdjustmentOrange = 0,
			SaturationAdjustmentPurple = 0,
			SaturationAdjustmentRed = 0,
			SaturationAdjustmentYellow = 0,
			ShadowTint = 0,
			Shadows2012 = 0,
			SharpenDetail = 37,
			SharpenEdgeMasking = 26,
			SharpenRadius = 2.4,
			Sharpness = 75,
			ToneCurveName2012 = "Custom",
			ToneCurvePV2012 = {
				0,
				0,
				32,
				22,
				64,
				56,
				123,
				131,
				192,
				196,
				255,
				255,
			},
			ToneCurvePV2012Blue = {
				0,
				0,
				255,
				255,
			},
			ToneCurvePV2012Green = {
				0,
				0,
				255,
				255,
			},
			ToneCurvePV2012Red = {
				0,
				0,
				255,
				255,
			},
			Vibrance = -41,
			VignetteAmount = 0,
			VignetteMidpoint = 50,
			WhiteBalance = "Custom",
			Whites2012 = 0,
			orientation = "AB",
		},
		uuid = "DD4E48AE-5531-436B-8855-F2C04C6C3DF9",
	},
	version = 0,
}
