455-LR-Presets-PS-Action-Mega-Bundle/Mega Pack/Lightroom Presets/50 ANP_Wedding LR Full Bundle/50 ANP_Wedding Lightroom Presets/ANP_Wedding LR Presets_05_Modern Vintage_.lrtemplate
s = {
	id = "24C5F4A1-3D7E-4DD0-AE29-A11C9D27EE03",
	internalName = "ANP_Wedding LR Presets_05_Modern Vintage ",
	title = "ANP_Wedding LR Presets_05_Modern Vintage ",
	type = "Develop",
	value = {
		settings = {
			AutoLateralCA = 1,
			Blacks2012 = -10,
			BlueHue = -23,
			BlueSaturation = -5,
			CameraProfile = "Adobe Standard",
			ChromaticAberrationB = 0,
			ChromaticAberrationR = 0,
			Clarity2012 = 12,
			ColorNoiseReduction = 25,
			ColorNoiseReductionDetail = 50,
			Contrast2012 = 12,
			ConvertToGrayscale = false,
			CropConstrainToWarp = 0,
			Defringe = 2,
			DefringeGreenAmount = 3,
			DefringeGreenHueHi = 70,
			DefringeGreenHueLo = 40,
			DefringePurpleAmount = 3,
			DefringePurpleHueHi = 70,
			DefringePurpleHueLo = 30,
			EnableCalibration = true,
			EnableColorAdjustments = true,
			EnableDetail = true,
			EnableEffects = true,
			EnableGradientBasedCorrections = true,
			EnableLensCorrections = true,
			EnableSplitToning = true,
			Exposure2012 = 0.17,
			GrainAmount = 0,
			GrainFrequency = 34,
			GrainSize = 8,
			GreenHue = 65,
			GreenSaturation = 0,
			Highlights2012 = -93,
			HueAdjustmentAqua = 10,
			HueAdjustmentBlue = 0,
			HueAdjustmentGreen = 41,
			HueAdjustmentMagenta = 30,
			HueAdjustmentOrange = -9,
			HueAdjustmentPurple = 20,
			HueAdjustmentRed = -18,
			HueAdjustmentYellow = -14,
			IncrementalTemperature = -5,
			IncrementalTint = -15,
			LensManualDistortionAmount = 0,
			LensProfileEnable = 0,
			LensProfileSetup = "LensDefaults",
			LuminanceAdjustmentAqua = -53,
			LuminanceAdjustmentBlue = -16,
			LuminanceAdjustmentGreen = 8,
			LuminanceAdjustmentMagenta = 8,
			LuminanceAdjustmentOrange = 0,
			LuminanceAdjustmentPurple = 27,
			LuminanceAdjustmentRed = 10,
			LuminanceAdjustmentYellow = -31,
			LuminanceNoiseReductionContrast = 0,
			LuminanceNoiseReductionDetail = 50,
			LuminanceSmoothing = 0,
			ParametricDarks = 0,
			ParametricHighlightSplit = 75,
			ParametricHighlights = 0,
			ParametricLights = 0,
			ParametricMidtoneSplit = 48,
			ParametricShadowSplit = 20,
			ParametricShadows = 0,
			PerspectiveHorizontal = 0,
			PerspectiveRotate = 0,
			PerspectiveScale = 100,
			PerspectiveVertical = 0,
			PostCropVignetteAmount = 0,
			PostCropVignetteFeather = 50,
			PostCropVignetteHighlightContrast = 0,
			PostCropVignetteMidpoint = 50,
			PostCropVignetteRoundness = 0,
			PostCropVignetteStyle = 1,
			ProcessVersion = "6.7",
			RedHue = 35,
			RedSaturation = 21,
			Saturation = 0,
			SaturationAdjustmentAqua = -78,
			SaturationAdjustmentBlue = -47,
			SaturationAdjustmentGreen = 6,
			SaturationAdjustmentMagenta = -67,
			SaturationAdjustmentOrange = -31,
			SaturationAdjustmentPurple = -57,
			SaturationAdjustmentRed = -49,
			SaturationAdjustmentYellow = -43,
			ShadowTint = 27,
			Shadows2012 = 50,
			SharpenDetail = 40,
			SharpenEdgeMasking = 30,
			SharpenRadius = 1.1,
			Sharpness = 92,
			SplitToningBalance = -38,
			SplitToningHighlightHue = 120,
			SplitToningHighlightSaturation = 6,
			SplitToningShadowHue = 30,
			SplitToningShadowSaturation = 7,
			ToneCurveName2012 = "Custom",
			ToneCurvePV2012 = {
				0,
				52,
				60,
				67,
				192,
				182,
				255,
				209,
			},
			ToneCurvePV2012Blue = {
				0,
				0,
				36,
				10,
				76,
				46,
				122,
				118,
				183,
				206,
				222,
				235,
				255,
				255,
			},
			ToneCurvePV2012Green = {
				0,
				0,
				36,
				10,
				76,
				46,
				124,
				122,
				181,
				201,
				219,
				230,
				255,
				255,
			},
			ToneCurvePV2012Red = {
				0,
				0,
				42,
				9,
				78,
				45,
				126,
				122,
				182,
				204,
				255,
				255,
			},
			Vibrance = -13,
			VignetteAmount = -87,
			VignetteMidpoint = 25,
			WhiteBalance = "Custom",
			Whites2012 = -67,
			orientation = "AB",
		},
		uuid = "DF61630A-BBF0-4EA4-A3DC-C58BCC355D0C",
	},
	version = 0,
}
