CM 1000+ Lightroom Preset Pack 317985/Artistic Collection (157)/Artistic Preset (50).lrtemplate
s = {
	id = "0E1FBC74-B2CB-4467-926C-8B6CA0C53708",
	internalName = "08_Cinematic Film Look Lightroom Presets VOL.5",
	title = "08_Cinematic Film Look Lightroom Presets VOL.5",
	type = "Develop",
	value = {
		settings = {
			Blacks2012 = 0,
			BlueHue = -100,
			BlueSaturation = 0,
			CameraProfile = "Embedded",
			Clarity2012 = 0,
			ColorNoiseReduction = 0,
			ColorNoiseReductionDetail = 50,
			ColorNoiseReductionSmoothness = 50,
			Contrast2012 = 0,
			ConvertToGrayscale = false,
			EnableCalibration = true,
			EnableCircularGradientBasedCorrections = true,
			EnableColorAdjustments = true,
			EnableDetail = true,
			EnableEffects = true,
			EnableGradientBasedCorrections = true,
			EnableSplitToning = true,
			GrainAmount = 0,
			GrainFrequency = 50,
			GrainSize = 25,
			GreenHue = -100,
			GreenSaturation = 19,
			Highlights2012 = 0,
			HueAdjustmentAqua = 0,
			HueAdjustmentBlue = 0,
			HueAdjustmentGreen = 0,
			HueAdjustmentMagenta = 0,
			HueAdjustmentOrange = 30,
			HueAdjustmentPurple = -16,
			HueAdjustmentRed = 40,
			HueAdjustmentYellow = 6,
			LuminanceAdjustmentAqua = 52,
			LuminanceAdjustmentBlue = -3,
			LuminanceAdjustmentGreen = 27,
			LuminanceAdjustmentMagenta = 0,
			LuminanceAdjustmentOrange = 15,
			LuminanceAdjustmentPurple = 0,
			LuminanceAdjustmentRed = 0,
			LuminanceAdjustmentYellow = 24,
			LuminanceNoiseReductionContrast = 0,
			LuminanceNoiseReductionDetail = 50,
			LuminanceSmoothing = 0,
			ParametricDarks = 0,
			ParametricHighlightSplit = 75,
			ParametricHighlights = 0,
			ParametricLights = 0,
			ParametricMidtoneSplit = 50,
			ParametricShadowSplit = 25,
			ParametricShadows = 0,
			PostCropVignetteAmount = 0,
			PostCropVignetteFeather = 50,
			PostCropVignetteHighlightContrast = 0,
			PostCropVignetteMidpoint = 50,
			PostCropVignetteRoundness = 0,
			PostCropVignetteStyle = 1,
			ProcessVersion = "6.7",
			RedHue = 49,
			RedSaturation = 19,
			Saturation = 0,
			SaturationAdjustmentAqua = 5,
			SaturationAdjustmentBlue = 7,
			SaturationAdjustmentGreen = -23,
			SaturationAdjustmentMagenta = -21,
			SaturationAdjustmentOrange = -5,
			SaturationAdjustmentPurple = -17,
			SaturationAdjustmentRed = 0,
			SaturationAdjustmentYellow = 3,
			ShadowTint = 0,
			Shadows2012 = 0,
			SharpenDetail = 58,
			SharpenEdgeMasking = 100,
			SharpenRadius = 1,
			Sharpness = 62,
			SplitToningBalance = 41,
			SplitToningHighlightHue = 49,
			SplitToningHighlightSaturation = 50,
			SplitToningShadowHue = 238,
			SplitToningShadowSaturation = 44,
			ToneCurveName2012 = "Custom",
			ToneCurvePV2012 = {
				0,
				10,
				66,
				62,
				197,
				193,
				255,
				239,
			},
			ToneCurvePV2012Blue = {
				0,
				0,
				123,
				116,
				247,
				255,
			},
			ToneCurvePV2012Green = {
				0,
				0,
				128,
				124,
				249,
				255,
			},
			ToneCurvePV2012Red = {
				0,
				0,
				163,
				164,
				242,
				255,
			},
			Vibrance = 0,
			WhiteBalance = "As Shot",
			Whites2012 = 0,
			orientation = "AB",
		},
		uuid = "776B82DB-2280-4D95-B624-09AB2D7136CF",
	},
	version = 0,
}
