CM 1000+ Lightroom Preset Pack 317985/Artistic Collection (157)/Artistic Preset (77).lrtemplate
s = {
	id = "FD7AF0ED-C800-4887-8D65-34D475CCB02B",
	internalName = "15_Cinematic Film Look Lightroom Presets VOL.4",
	title = "15_Cinematic Film Look Lightroom Presets VOL.4",
	type = "Develop",
	value = {
		settings = {
			Blacks2012 = 27,
			Clarity2012 = 21,
			ColorNoiseReduction = 14,
			ColorNoiseReductionDetail = 50,
			ColorNoiseReductionSmoothness = 50,
			Contrast2012 = 0,
			ConvertToGrayscale = false,
			EnableCircularGradientBasedCorrections = true,
			EnableColorAdjustments = true,
			EnableDetail = true,
			EnableEffects = true,
			EnableGradientBasedCorrections = true,
			EnableSplitToning = true,
			GradientBasedCorrections = {
				{
					CorrectionActive = true,
					CorrectionAmount = 1,
					CorrectionID = "867BDA00-C940-456B-8E06-B6C7A87A5104",
					CorrectionMasks = {
						{
							FullX = 0.705855,
							FullY = 0.146014,
							MaskID = "383E4AB7-9B21-49D5-9F88-B2781B1525CE",
							MaskValue = 1,
							What = "Mask/Gradient",
							ZeroX = 0.705855,
							ZeroY = 0.14748,
						},
					},
					CorrectionReferenceX = 0.705855,
					CorrectionReferenceY = 0.146747,
					LocalBrightness = 0,
					LocalClarity = 0,
					LocalClarity2012 = 0,
					LocalContrast = 0,
					LocalContrast2012 = 0,
					LocalDefringe = 0,
					LocalExposure = 0,
					LocalExposure2012 = -1,
					LocalHighlights2012 = 0,
					LocalLuminanceNoise = 0,
					LocalMoire = 0,
					LocalSaturation = 0,
					LocalShadows2012 = 0,
					LocalSharpness = 0,
					LocalTemperature = 0,
					LocalTint = 0,
					LocalToningHue = 0,
					LocalToningSaturation = 0,
					What = "Correction",
				},
				{
					CorrectionActive = true,
					CorrectionAmount = 1,
					CorrectionID = "30EB3407-D000-4B88-B149-E89C56D6369A",
					CorrectionMasks = {
						{
							FullX = 0.669158,
							FullY = 0.84993,
							MaskID = "CDA70C05-B863-413F-A5EC-85D4CD1DF24C",
							MaskValue = 1,
							What = "Mask/Gradient",
							ZeroX = 0.669158,
							ZeroY = 0.847125,
						},
					},
					CorrectionReferenceX = 0.669158,
					CorrectionReferenceY = 0.848527,
					LocalBrightness = 0,
					LocalClarity = 0,
					LocalClarity2012 = 0,
					LocalContrast = 0,
					LocalContrast2012 = 0,
					LocalDefringe = 0,
					LocalExposure = 0,
					LocalExposure2012 = -1,
					LocalHighlights2012 = 0,
					LocalLuminanceNoise = 0,
					LocalMoire = 0,
					LocalSaturation = 0,
					LocalShadows2012 = 0,
					LocalSharpness = 0,
					LocalTemperature = 0,
					LocalTint = 0,
					LocalToningHue = 0,
					LocalToningSaturation = 0,
					What = "Correction",
				},
				{
					CorrectionActive = true,
					CorrectionAmount = 1,
					CorrectionID = "A7E0D964-25D7-4D1E-949D-4E8DF68B6647",
					CorrectionMasks = {
						{
							FullX = 0.700093,
							FullY = 0.145278,
							MaskID = "BB9F32F3-5523-4A3B-8A20-8B1749713BA4",
							MaskValue = 1,
							What = "Mask/Gradient",
							ZeroX = 0.700093,
							ZeroY = 0.148084,
						},
					},
					CorrectionReferenceX = 0.700093,
					CorrectionReferenceY = 0.146681,
					LocalBrightness = 0,
					LocalClarity = 0,
					LocalClarity2012 = 0,
					LocalContrast = 0,
					LocalContrast2012 = 0,
					LocalDefringe = 0,
					LocalExposure = 0,
					LocalExposure2012 = -1,
					LocalHighlights2012 = 0,
					LocalLuminanceNoise = 0,
					LocalMoire = 0,
					LocalSaturation = 0,
					LocalShadows2012 = 0,
					LocalSharpness = 0,
					LocalTemperature = 0,
					LocalTint = 0,
					LocalToningHue = 0,
					LocalToningSaturation = 0,
					What = "Correction",
				},
				{
					CorrectionActive = true,
					CorrectionAmount = 1,
					CorrectionID = "4A686656-A1D9-4575-A62E-431838142735",
					CorrectionMasks = {
						{
							FullX = 0.659801,
							FullY = 0.84968,
							MaskID = "5DF86471-36BB-4334-ABB8-563D65795582",
							MaskValue = 1,
							What = "Mask/Gradient",
							ZeroX = 0.659801,
							ZeroY = 0.848277,
						},
					},
					CorrectionReferenceX = 0.659801,
					CorrectionReferenceY = 0.848978,
					LocalBrightness = 0,
					LocalClarity = 0,
					LocalClarity2012 = 0,
					LocalContrast = 0,
					LocalContrast2012 = 0,
					LocalDefringe = 0,
					LocalExposure = 0,
					LocalExposure2012 = -1,
					LocalHighlights2012 = 0,
					LocalLuminanceNoise = 0,
					LocalMoire = 0,
					LocalSaturation = 0,
					LocalShadows2012 = 0,
					LocalSharpness = 0,
					LocalTemperature = 0,
					LocalTint = 0,
					LocalToningHue = 0,
					LocalToningSaturation = 0,
					What = "Correction",
				},
			},
			GrainAmount = 11,
			GrainFrequency = 38,
			GrainSize = 52,
			Highlights2012 = -100,
			HueAdjustmentAqua = 0,
			HueAdjustmentBlue = 0,
			HueAdjustmentGreen = 0,
			HueAdjustmentMagenta = 0,
			HueAdjustmentOrange = 21,
			HueAdjustmentPurple = 0,
			HueAdjustmentRed = 36,
			HueAdjustmentYellow = 0,
			IncrementalTemperature = 9,
			IncrementalTint = 5,
			LuminanceAdjustmentAqua = 21,
			LuminanceAdjustmentBlue = 69,
			LuminanceAdjustmentGreen = -19,
			LuminanceAdjustmentMagenta = 18,
			LuminanceAdjustmentOrange = -26,
			LuminanceAdjustmentPurple = 29,
			LuminanceAdjustmentRed = -14,
			LuminanceAdjustmentYellow = -12,
			LuminanceNoiseReductionContrast = 0,
			LuminanceNoiseReductionDetail = 50,
			LuminanceSmoothing = 12,
			ParametricDarks = 0,
			ParametricHighlightSplit = 75,
			ParametricHighlights = 0,
			ParametricLights = 0,
			ParametricMidtoneSplit = 50,
			ParametricShadowSplit = 25,
			ParametricShadows = 0,
			PostCropVignetteAmount = -6,
			PostCropVignetteFeather = 60,
			PostCropVignetteHighlightContrast = 100,
			PostCropVignetteMidpoint = 9,
			PostCropVignetteRoundness = 31,
			PostCropVignetteStyle = 1,
			ProcessVersion = "6.7",
			Saturation = -2,
			SaturationAdjustmentAqua = -71,
			SaturationAdjustmentBlue = -90,
			SaturationAdjustmentGreen = -17,
			SaturationAdjustmentMagenta = -23,
			SaturationAdjustmentOrange = 13,
			SaturationAdjustmentPurple = -13,
			SaturationAdjustmentRed = 20,
			SaturationAdjustmentYellow = -19,
			Shadows2012 = 37,
			SharpenDetail = 37,
			SharpenEdgeMasking = 63,
			SharpenRadius = 1.3,
			Sharpness = 54,
			SplitToningBalance = 34,
			SplitToningHighlightHue = 30,
			SplitToningHighlightSaturation = 49,
			SplitToningShadowHue = 222,
			SplitToningShadowSaturation = 23,
			ToneCurveName2012 = "Custom",
			ToneCurvePV2012 = {
				0,
				15,
				47,
				31,
				79,
				56,
				170,
				178,
				255,
				218,
			},
			ToneCurvePV2012Blue = {
				0,
				0,
				41,
				37,
				75,
				97,
				226,
				255,
			},
			ToneCurvePV2012Green = {
				0,
				0,
				234,
				255,
			},
			ToneCurvePV2012Red = {
				0,
				0,
				97,
				103,
				191,
				212,
				255,
				255,
			},
			Vibrance = 25,
			WhiteBalance = "Custom",
			Whites2012 = -73,
			orientation = "AB",
		},
		uuid = "367586D4-E0D6-456E-8B12-4514D0E89901",
	},
	version = 0,
}
