CM 1000+ Lightroom Preset Pack 317985/Artistic Collection (157)/Artistic Preset (32).lrtemplate
s = {
	id = "3DF671D3-0343-4F86-AD94-BA495ECB3007",
	internalName = "04_Cinematic Film Look Lightroom Presets VOL.3",
	title = "04_Cinematic Film Look Lightroom Presets VOL.3",
	type = "Develop",
	value = {
		settings = {
			AutoLateralCA = 0,
			Blacks2012 = 0,
			BlueHue = -72,
			BlueSaturation = 54,
			CameraProfile = "Embedded",
			ChromaticAberrationB = 0,
			ChromaticAberrationR = 0,
			Clarity2012 = 0,
			ColorNoiseReduction = 34,
			ColorNoiseReductionDetail = 50,
			ColorNoiseReductionSmoothness = 50,
			Contrast2012 = 0,
			ConvertToGrayscale = false,
			CropConstrainToWarp = 0,
			Defringe = 0,
			DefringeGreenAmount = 0,
			DefringeGreenHueHi = 60,
			DefringeGreenHueLo = 40,
			DefringePurpleAmount = 0,
			DefringePurpleHueHi = 70,
			DefringePurpleHueLo = 30,
			EnableCalibration = true,
			EnableCircularGradientBasedCorrections = true,
			EnableColorAdjustments = true,
			EnableDetail = true,
			EnableEffects = true,
			EnableGradientBasedCorrections = true,
			EnableLensCorrections = true,
			EnableSplitToning = true,
			GradientBasedCorrections = {
				{
					CorrectionActive = true,
					CorrectionAmount = 1,
					CorrectionID = "0EFE8EFD-DDA5-4B3C-882E-AD94FF4C665F",
					CorrectionMasks = {
						{
							FullX = 0.476204,
							FullY = 0.110644,
							MaskID = "C9359E96-ADDD-4892-9241-892B107D1685",
							MaskValue = 1,
							What = "Mask/Gradient",
							ZeroX = 0.476204,
							ZeroY = 0.112045,
						},
					},
					CorrectionReferenceX = 0.476204,
					CorrectionReferenceY = 0.111345,
					LocalBrightness = 0,
					LocalClarity = 0,
					LocalClarity2012 = 0,
					LocalContrast = 0,
					LocalContrast2012 = 1,
					LocalDefringe = 0,
					LocalExposure = 0,
					LocalExposure2012 = -1,
					LocalHighlights2012 = -1,
					LocalLuminanceNoise = 0,
					LocalMoire = 0,
					LocalSaturation = 0,
					LocalShadows2012 = -1,
					LocalSharpness = 0,
					LocalTemperature = 0,
					LocalTint = 0,
					LocalToningHue = 0,
					LocalToningSaturation = 0,
					What = "Correction",
				},
				{
					CorrectionActive = true,
					CorrectionAmount = 1,
					CorrectionID = "43EAD18A-A7E3-40C5-9247-F4658AA5635C",
					CorrectionMasks = {
						{
							FullX = 0.471522,
							FullY = 0.889356,
							MaskID = "1ADFF18B-5AF3-48DB-834D-C7882847E89F",
							MaskValue = 1,
							What = "Mask/Gradient",
							ZeroX = 0.471522,
							ZeroY = 0.886555,
						},
					},
					CorrectionReferenceX = 0.471522,
					CorrectionReferenceY = 0.887956,
					LocalBrightness = 0,
					LocalClarity = 0,
					LocalClarity2012 = 0,
					LocalContrast = 0,
					LocalContrast2012 = 1,
					LocalDefringe = 0,
					LocalExposure = 0,
					LocalExposure2012 = -1,
					LocalHighlights2012 = -1,
					LocalLuminanceNoise = 0,
					LocalMoire = 0,
					LocalSaturation = 0,
					LocalShadows2012 = -1,
					LocalSharpness = 0,
					LocalTemperature = 0,
					LocalTint = 0,
					LocalToningHue = 0,
					LocalToningSaturation = 0,
					What = "Correction",
				},
				{
					CorrectionActive = true,
					CorrectionAmount = 1,
					CorrectionID = "B9033F54-A650-4BD9-B86A-37CEB182F2D1",
					CorrectionMasks = {
						{
							FullX = 0.482726,
							FullY = 0.885585,
							MaskID = "E9354D84-DA29-4012-898B-D1FF2300A928",
							MaskValue = 1,
							What = "Mask/Gradient",
							ZeroX = 0.482726,
							ZeroY = 0.884507,
						},
					},
					CorrectionReferenceX = 0.482726,
					CorrectionReferenceY = 0.885046,
					LocalBrightness = 0,
					LocalClarity = 0,
					LocalClarity2012 = 0,
					LocalContrast = 0,
					LocalContrast2012 = 1,
					LocalDefringe = 0,
					LocalExposure = 0,
					LocalExposure2012 = -1,
					LocalHighlights2012 = -1,
					LocalLuminanceNoise = 0,
					LocalMoire = 0,
					LocalSaturation = 0,
					LocalShadows2012 = -1,
					LocalSharpness = 0,
					LocalTemperature = 0,
					LocalTint = 0,
					LocalToningHue = 0,
					LocalToningSaturation = 0,
					What = "Correction",
				},
				{
					CorrectionActive = true,
					CorrectionAmount = 1,
					CorrectionID = "E9F89B8D-03F7-457B-AE7D-A1FAFDF85F61",
					CorrectionMasks = {
						{
							FullX = 0.519418,
							FullY = 0.110967,
							MaskID = "1EE480FA-43D7-4182-9FEB-D4666A6C7C0B",
							MaskValue = 1,
							What = "Mask/Gradient",
							ZeroX = 0.519418,
							ZeroY = 0.112368,
						},
					},
					CorrectionReferenceX = 0.519418,
					CorrectionReferenceY = 0.111668,
					LocalBrightness = 0,
					LocalClarity = 0,
					LocalClarity2012 = 0,
					LocalContrast = 0,
					LocalContrast2012 = 1,
					LocalDefringe = 0,
					LocalExposure = 0,
					LocalExposure2012 = -1,
					LocalHighlights2012 = -1,
					LocalLuminanceNoise = 0,
					LocalMoire = 0,
					LocalSaturation = 0,
					LocalShadows2012 = -1,
					LocalSharpness = 0,
					LocalTemperature = 0,
					LocalTint = 0,
					LocalToningHue = 0,
					LocalToningSaturation = 0,
					What = "Correction",
				},
			},
			GrainAmount = 0,
			GrainFrequency = 50,
			GrainSize = 25,
			GreenHue = -100,
			GreenSaturation = -17,
			Highlights2012 = 0,
			HueAdjustmentAqua = 0,
			HueAdjustmentBlue = 48,
			HueAdjustmentGreen = 8,
			HueAdjustmentMagenta = 13,
			HueAdjustmentOrange = -18,
			HueAdjustmentPurple = -18,
			HueAdjustmentRed = -5,
			HueAdjustmentYellow = 22,
			IncrementalTemperature = 4,
			IncrementalTint = -13,
			LensManualDistortionAmount = 0,
			LensProfileEnable = 0,
			LensProfileSetup = "LensDefaults",
			LuminanceAdjustmentAqua = -15,
			LuminanceAdjustmentBlue = -47,
			LuminanceAdjustmentGreen = -15,
			LuminanceAdjustmentMagenta = -19,
			LuminanceAdjustmentOrange = -12,
			LuminanceAdjustmentPurple = -12,
			LuminanceAdjustmentRed = -12,
			LuminanceAdjustmentYellow = 12,
			LuminanceNoiseReductionContrast = 0,
			LuminanceNoiseReductionDetail = 50,
			LuminanceSmoothing = 30,
			ParametricDarks = 0,
			ParametricHighlightSplit = 75,
			ParametricHighlights = 0,
			ParametricLights = 0,
			ParametricMidtoneSplit = 50,
			ParametricShadowSplit = 25,
			ParametricShadows = 0,
			PerspectiveAspect = 0,
			PerspectiveHorizontal = 0,
			PerspectiveRotate = 0,
			PerspectiveScale = 100,
			PerspectiveUpright = 0,
			PerspectiveVertical = 0,
			PostCropVignetteAmount = -22,
			PostCropVignetteFeather = 78,
			PostCropVignetteHighlightContrast = 100,
			PostCropVignetteMidpoint = 10,
			PostCropVignetteRoundness = -48,
			PostCropVignetteStyle = 1,
			ProcessVersion = "6.7",
			RedHue = 28,
			RedSaturation = -23,
			Saturation = 0,
			SaturationAdjustmentAqua = -100,
			SaturationAdjustmentBlue = -100,
			SaturationAdjustmentGreen = -66,
			SaturationAdjustmentMagenta = 0,
			SaturationAdjustmentOrange = -7,
			SaturationAdjustmentPurple = 0,
			SaturationAdjustmentRed = -24,
			SaturationAdjustmentYellow = -12,
			ShadowTint = 0,
			Shadows2012 = 0,
			SharpenDetail = 25,
			SharpenEdgeMasking = 0,
			SharpenRadius = 1,
			Sharpness = 80,
			SplitToningBalance = 36,
			SplitToningHighlightHue = 228,
			SplitToningHighlightSaturation = 33,
			SplitToningShadowHue = 39,
			SplitToningShadowSaturation = 32,
			ToneCurveName2012 = "Custom",
			ToneCurvePV2012 = {
				2,
				15,
				57,
				64,
				118,
				107,
				180,
				165,
				255,
				217,
			},
			ToneCurvePV2012Blue = {
				0,
				0,
				31,
				33,
				69,
				67,
				90,
				91,
				117,
				125,
				144,
				159,
				173,
				192,
				207,
				224,
				244,
				254,
			},
			ToneCurvePV2012Green = {
				0,
				4,
				45,
				34,
				78,
				69,
				111,
				102,
				138,
				131,
				179,
				172,
				212,
				201,
				255,
				235,
			},
			ToneCurvePV2012Red = {
				8,
				0,
				45,
				35,
				82,
				66,
				121,
				107,
				151,
				140,
				178,
				168,
				212,
				200,
				255,
				238,
			},
			Vibrance = 0,
			VignetteAmount = 0,
			VignetteMidpoint = 50,
			WhiteBalance = "Custom",
			Whites2012 = 0,
			orientation = "AB",
		},
		uuid = "0ED770EF-DA67-46AF-B4B2-EA5015269411",
	},
	version = 0,
}
