CM 1000+ Lightroom Preset Pack 317985/Artistic Collection (157)/Artistic Preset (27).lrtemplate
s = {
	id = "6E193571-0BA0-44B4-8EBE-7D1314C22EBF",
	internalName = "02_Film HDR Vintage Correction",
	title = "02_Film HDR Vintage Correction",
	type = "Develop",
	value = {
		settings = {
			AutoLateralCA = 1,
			Blacks2012 = 0,
			BlueHue = -100,
			BlueSaturation = -49,
			CameraProfile = "Embedded",
			ChromaticAberrationB = 0,
			ChromaticAberrationR = 0,
			Clarity2012 = 5,
			ColorNoiseReduction = 25,
			ColorNoiseReductionDetail = 50,
			ColorNoiseReductionSmoothness = 50,
			Contrast2012 = 0,
			ConvertToGrayscale = false,
			CropConstrainToWarp = 0,
			Defringe = 0,
			DefringeGreenAmount = 0,
			DefringeGreenHueHi = 60,
			DefringeGreenHueLo = 40,
			DefringePurpleAmount = 0,
			DefringePurpleHueHi = 70,
			DefringePurpleHueLo = 30,
			EnableCalibration = true,
			EnableCircularGradientBasedCorrections = true,
			EnableColorAdjustments = true,
			EnableDetail = true,
			EnableEffects = true,
			EnableGradientBasedCorrections = true,
			EnableLensCorrections = true,
			EnableSplitToning = true,
			GradientBasedCorrections = {
				{
					CorrectionActive = true,
					CorrectionAmount = 1,
					CorrectionID = "2CC932FA-C25C-4EA6-84FA-2CEA5F9326DE",
					CorrectionMasks = {
						{
							FullX = 0.576674,
							FullY = 0.198847,
							MaskID = "EFB4E0C6-7FA0-4996-A414-F37FBD1D3A7A",
							MaskValue = 1,
							What = "Mask/Gradient",
							ZeroX = 0.38013,
							ZeroY = 0.623919,
						},
					},
					CorrectionReferenceX = 0.478402,
					CorrectionReferenceY = 0.411383,
					LocalBrightness = 0,
					LocalClarity = 0,
					LocalClarity2012 = 0.16751,
					LocalContrast = 0,
					LocalContrast2012 = 0,
					LocalExposure = 0,
					LocalExposure2012 = 0,
					LocalHighlights2012 = 0,
					LocalLuminanceNoise = 0,
					LocalMoire = 0,
					LocalSaturation = 0,
					LocalShadows2012 = 0,
					LocalSharpness = 0.21827,
					LocalTemperature = 0,
					LocalTint = 0,
					LocalToningHue = 233,
					LocalToningSaturation = 0,
					What = "Correction",
				},
			},
			GrainAmount = 22,
			GrainFrequency = 50,
			GrainSize = 25,
			GreenHue = 64,
			GreenSaturation = 30,
			Highlights2012 = -22,
			HueAdjustmentAqua = 23,
			HueAdjustmentBlue = 74,
			HueAdjustmentGreen = 5,
			HueAdjustmentMagenta = 0,
			HueAdjustmentOrange = 33,
			HueAdjustmentPurple = 0,
			HueAdjustmentRed = 30,
			HueAdjustmentYellow = 24,
			IncrementalTemperature = -2,
			IncrementalTint = 6,
			LensManualDistortionAmount = 0,
			LensProfileEnable = 0,
			LensProfileSetup = "LensDefaults",
			LuminanceAdjustmentAqua = -90,
			LuminanceAdjustmentBlue = 0,
			LuminanceAdjustmentGreen = 0,
			LuminanceAdjustmentMagenta = 0,
			LuminanceAdjustmentOrange = 11,
			LuminanceAdjustmentPurple = 0,
			LuminanceAdjustmentRed = 80,
			LuminanceAdjustmentYellow = 0,
			LuminanceNoiseReductionContrast = 0,
			LuminanceNoiseReductionDetail = 50,
			LuminanceSmoothing = 27,
			ParametricDarks = 2,
			ParametricHighlightSplit = 75,
			ParametricHighlights = -1,
			ParametricLights = 20,
			ParametricMidtoneSplit = 50,
			ParametricShadowSplit = 25,
			ParametricShadows = -39,
			PerspectiveAspect = 0,
			PerspectiveHorizontal = 0,
			PerspectiveRotate = 0,
			PerspectiveScale = 100,
			PerspectiveUpright = 0,
			PerspectiveVertical = 0,
			PostCropVignetteAmount = -16,
			PostCropVignetteFeather = 100,
			PostCropVignetteHighlightContrast = 0,
			PostCropVignetteMidpoint = 0,
			PostCropVignetteRoundness = 67,
			PostCropVignetteStyle = 1,
			ProcessVersion = "6.7",
			RedHue = 45,
			RedSaturation = 100,
			Saturation = -15,
			SaturationAdjustmentAqua = -100,
			SaturationAdjustmentBlue = -51,
			SaturationAdjustmentGreen = -24,
			SaturationAdjustmentMagenta = 0,
			SaturationAdjustmentOrange = -31,
			SaturationAdjustmentPurple = 0,
			SaturationAdjustmentRed = -45,
			SaturationAdjustmentYellow = 0,
			ShadowTint = 0,
			Shadows2012 = 76,
			SharpenDetail = 25,
			SharpenEdgeMasking = 0,
			SharpenRadius = 2.8,
			Sharpness = 9,
			SplitToningBalance = 0,
			SplitToningHighlightHue = 61,
			SplitToningHighlightSaturation = 31,
			SplitToningShadowHue = 249,
			SplitToningShadowSaturation = 11,
			ToneCurveName2012 = "Custom",
			ToneCurvePV2012 = {
				0,
				24,
				34,
				40,
				65,
				65,
				192,
				192,
				255,
				255,
			},
			ToneCurvePV2012Blue = {
				0,
				0,
				255,
				255,
			},
			ToneCurvePV2012Green = {
				0,
				0,
				255,
				255,
			},
			ToneCurvePV2012Red = {
				0,
				0,
				37,
				39,
				93,
				93,
				255,
				255,
			},
			Vibrance = 30,
			VignetteAmount = 0,
			VignetteMidpoint = 50,
			WhiteBalance = "Custom",
			Whites2012 = 0,
			orientation = "AB",
		},
		uuid = "E11A313C-1CD6-4329-B0D4-22CF2BF6077D",
	},
	version = 0,
}
