CM 1000+ Lightroom Preset Pack 317985/Artistic Collection (157)/Artistic Preset (23).lrtemplate
s = {
	id = "1A36F1F5-1ED8-4ECA-9A14-E206D3F1F3B3",
	internalName = "01_Film HDR Vintage Correction",
	title = "01_Film HDR Vintage Correction",
	type = "Develop",
	value = {
		settings = {
			AutoLateralCA = 0,
			Blacks2012 = 0,
			BlueHue = 0,
			BlueSaturation = 0,
			CameraProfile = "Embedded",
			ChromaticAberrationB = 0,
			ChromaticAberrationR = 0,
			CircularGradientBasedCorrections = {
				{
					CorrectionActive = true,
					CorrectionAmount = 1,
					CorrectionID = "BFB340CD-E29A-48C4-B3FD-2992B6DC36F1",
					CorrectionMasks = {
						{
							Angle = 0,
							Bottom = 0.76087,
							Feather = 50,
							Flipped = false,
							Left = 0.415831,
							MaskID = "E9E62255-F5E0-4E74-AE90-76D421DF0582",
							MaskValue = 1,
							Midpoint = 50,
							Right = 0.783724,
							Roundness = 0,
							Top = 0.075251,
							Version = 2,
							What = "Mask/CircularGradient",
						},
					},
					CorrectionReferenceX = 0.599777,
					CorrectionReferenceY = 0.418061,
					LocalBrightness = 0,
					LocalClarity = 0,
					LocalClarity2012 = 0.1,
					LocalContrast = 0,
					LocalContrast2012 = 0,
					LocalDefringe = 0,
					LocalExposure = 0,
					LocalExposure2012 = -0.17775,
					LocalHighlights2012 = 0,
					LocalLuminanceNoise = 0,
					LocalMoire = 0,
					LocalSaturation = 0.4,
					LocalShadows2012 = 0,
					LocalSharpness = 0,
					LocalTemperature = -0.09645,
					LocalTint = 0,
					LocalToningHue = 240,
					LocalToningSaturation = 0,
					What = "Correction",
				},
			},
			Clarity2012 = -10,
			ColorNoiseReduction = 23,
			ColorNoiseReductionDetail = 50,
			ColorNoiseReductionSmoothness = 50,
			Contrast2012 = 51,
			ConvertToGrayscale = false,
			CropConstrainToWarp = 0,
			Defringe = 0,
			DefringeGreenAmount = 0,
			DefringeGreenHueHi = 60,
			DefringeGreenHueLo = 40,
			DefringePurpleAmount = 0,
			DefringePurpleHueHi = 70,
			DefringePurpleHueLo = 30,
			EnableCalibration = true,
			EnableCircularGradientBasedCorrections = true,
			EnableColorAdjustments = true,
			EnableDetail = true,
			EnableEffects = true,
			EnableGradientBasedCorrections = true,
			EnableLensCorrections = true,
			EnableSplitToning = true,
			GradientBasedCorrections = {
				{
					CorrectionActive = true,
					CorrectionAmount = 1,
					CorrectionID = "3E654296-35B5-42B8-82D8-C71E0E1D85BF",
					CorrectionMasks = {
						{
							FullX = 0.453294,
							FullY = 0.991051,
							MaskID = "110B5D71-A2DD-44A5-BF39-7AC90DA5CE3B",
							MaskValue = 1,
							What = "Mask/Gradient",
							ZeroX = 0.45188,
							ZeroY = 0.56772,
						},
					},
					CorrectionReferenceX = 0.452587,
					CorrectionReferenceY = 0.779386,
					LocalBrightness = -0.1,
					LocalClarity = 0.346322,
					LocalClarity2012 = 0.346322,
					LocalContrast = 0.149425,
					LocalContrast2012 = 0.149425,
					LocalDefringe = 0,
					LocalExposure = -0.1125,
					LocalExposure2012 = -0.2125,
					LocalHighlights2012 = 0,
					LocalLuminanceNoise = 0,
					LocalMoire = 0,
					LocalSaturation = 0.149425,
					LocalShadows2012 = 0,
					LocalSharpness = 0,
					LocalTemperature = 0,
					LocalTint = 0,
					LocalToningHue = 73,
					LocalToningSaturation = 0,
					What = "Correction",
				},
				{
					CorrectionActive = true,
					CorrectionAmount = 1,
					CorrectionID = "C86E687E-BA06-4D01-9253-C816EFD52A9F",
					CorrectionMasks = {
						{
							FullX = 0.533381,
							FullY = 0.096679,
							MaskID = "89388154-702E-4D66-B92D-A7EA8C267EB8",
							MaskValue = 1,
							What = "Mask/Gradient",
							ZeroX = 0.534783,
							ZeroY = 0.537648,
						},
					},
					CorrectionReferenceX = 0.534082,
					CorrectionReferenceY = 0.317163,
					LocalBrightness = -0.04954,
					LocalClarity = 0.346322,
					LocalClarity2012 = 0.346322,
					LocalContrast = 0.149425,
					LocalContrast2012 = 0.149425,
					LocalDefringe = 0,
					LocalExposure = -0.0375,
					LocalExposure2012 = -0.08704,
					LocalHighlights2012 = 0,
					LocalLuminanceNoise = 0,
					LocalMoire = 0,
					LocalSaturation = 0.149425,
					LocalShadows2012 = 0,
					LocalSharpness = 0,
					LocalTemperature = 0,
					LocalTint = 0,
					LocalToningHue = 73,
					LocalToningSaturation = 0,
					What = "Correction",
				},
			},
			GrainAmount = 0,
			GrainFrequency = 36,
			GrainSize = 27,
			GreenHue = 0,
			GreenSaturation = 0,
			Highlights2012 = 0,
			HueAdjustmentAqua = -20,
			HueAdjustmentBlue = -20,
			HueAdjustmentGreen = 0,
			HueAdjustmentMagenta = 0,
			HueAdjustmentOrange = 0,
			HueAdjustmentPurple = 0,
			HueAdjustmentRed = 0,
			HueAdjustmentYellow = 0,
			IncrementalTemperature = 8,
			IncrementalTint = -8,
			LensManualDistortionAmount = 0,
			LensProfileEnable = 0,
			LensProfileSetup = "LensDefaults",
			LuminanceAdjustmentAqua = -20,
			LuminanceAdjustmentBlue = -20,
			LuminanceAdjustmentGreen = -30,
			LuminanceAdjustmentMagenta = -20,
			LuminanceAdjustmentOrange = 0,
			LuminanceAdjustmentPurple = 0,
			LuminanceAdjustmentRed = 0,
			LuminanceAdjustmentYellow = 0,
			LuminanceNoiseReductionContrast = 0,
			LuminanceNoiseReductionDetail = 50,
			LuminanceSmoothing = 0,
			ParametricDarks = 0,
			ParametricHighlightSplit = 75,
			ParametricHighlights = 0,
			ParametricLights = 0,
			ParametricMidtoneSplit = 50,
			ParametricShadowSplit = 25,
			ParametricShadows = 0,
			PerspectiveAspect = 0,
			PerspectiveHorizontal = 0,
			PerspectiveRotate = 0,
			PerspectiveScale = 100,
			PerspectiveUpright = 0,
			PerspectiveVertical = 0,
			PostCropVignetteAmount = 0,
			PostCropVignetteFeather = 50,
			PostCropVignetteHighlightContrast = 0,
			PostCropVignetteMidpoint = 50,
			PostCropVignetteRoundness = 0,
			PostCropVignetteStyle = 1,
			ProcessVersion = "6.7",
			RedHue = 0,
			RedSaturation = 0,
			Saturation = -10,
			SaturationAdjustmentAqua = 0,
			SaturationAdjustmentBlue = 0,
			SaturationAdjustmentGreen = 0,
			SaturationAdjustmentMagenta = 0,
			SaturationAdjustmentOrange = 0,
			SaturationAdjustmentPurple = 0,
			SaturationAdjustmentRed = 0,
			SaturationAdjustmentYellow = 0,
			ShadowTint = 0,
			Shadows2012 = 75,
			SharpenDetail = 16,
			SharpenEdgeMasking = 8,
			SharpenRadius = 1.4,
			Sharpness = 17,
			SplitToningBalance = -14,
			SplitToningHighlightHue = 54,
			SplitToningHighlightSaturation = 22,
			SplitToningShadowHue = 264,
			SplitToningShadowSaturation = 26,
			ToneCurveName2012 = "Custom",
			ToneCurvePV2012 = {
				0,
				50,
				23,
				58,
				39,
				65,
				64,
				78,
				80,
				89,
				97,
				102,
				113,
				115,
				128,
				128,
				142,
				140,
				155,
				152,
				172,
				167,
				193,
				185,
				212,
				202,
				233,
				221,
				255,
				242,
			},
			ToneCurvePV2012Blue = {
				0,
				0,
				69,
				86,
				175,
				164,
				255,
				255,
			},
			ToneCurvePV2012Green = {
				0,
				0,
				73,
				76,
				161,
				170,
				255,
				255,
			},
			ToneCurvePV2012Red = {
				0,
				0,
				69,
				78,
				163,
				177,
				255,
				255,
			},
			Vibrance = -10,
			VignetteAmount = 0,
			VignetteMidpoint = 50,
			WhiteBalance = "Custom",
			Whites2012 = 0,
			orientation = "AB",
		},
		uuid = "BE04AA95-37C6-4A59-8638-A4840BD705CE",
	},
	version = 0,
}
