CM 1000+ Lightroom Preset Pack 317985/Artistic Collection (157)/Artistic Preset (56).lrtemplate
s = {
	id = "BEC6F983-335C-42D7-A036-2D92F9078A94",
	internalName = "10_Cinematic Film Look Lightroom Presets VOL.3",
	title = "10_Cinematic Film Look Lightroom Presets VOL.3",
	type = "Develop",
	value = {
		settings = {
			AutoLateralCA = 0,
			Blacks2012 = 23,
			BlueHue = -27,
			BlueSaturation = -48,
			CameraProfile = "Embedded",
			ChromaticAberrationB = 0,
			ChromaticAberrationR = 0,
			Clarity2012 = -33,
			ColorNoiseReduction = 38,
			ColorNoiseReductionDetail = 50,
			ColorNoiseReductionSmoothness = 50,
			Contrast2012 = 9,
			ConvertToGrayscale = false,
			CropConstrainToWarp = 0,
			Defringe = 0,
			DefringeGreenAmount = 0,
			DefringeGreenHueHi = 60,
			DefringeGreenHueLo = 40,
			DefringePurpleAmount = 0,
			DefringePurpleHueHi = 70,
			DefringePurpleHueLo = 30,
			EnableCalibration = true,
			EnableCircularGradientBasedCorrections = true,
			EnableColorAdjustments = true,
			EnableDetail = true,
			EnableEffects = true,
			EnableGradientBasedCorrections = true,
			EnableLensCorrections = true,
			EnableSplitToning = true,
			GradientBasedCorrections = {
				{
					CorrectionActive = true,
					CorrectionAmount = 1,
					CorrectionID = "0EFE8EFD-DDA5-4B3C-882E-AD94FF4C665F",
					CorrectionMasks = {
						{
							FullX = 0.476204,
							FullY = 0.110644,
							MaskID = "C9359E96-ADDD-4892-9241-892B107D1685",
							MaskValue = 1,
							What = "Mask/Gradient",
							ZeroX = 0.476204,
							ZeroY = 0.112045,
						},
					},
					CorrectionReferenceX = 0.476204,
					CorrectionReferenceY = 0.111345,
					LocalBrightness = 0,
					LocalClarity = 0,
					LocalClarity2012 = 0,
					LocalContrast = 0,
					LocalContrast2012 = 1,
					LocalDefringe = 0,
					LocalExposure = 0,
					LocalExposure2012 = -1,
					LocalHighlights2012 = -1,
					LocalLuminanceNoise = 0,
					LocalMoire = 0,
					LocalSaturation = 0,
					LocalShadows2012 = -1,
					LocalSharpness = 0,
					LocalTemperature = 0,
					LocalTint = 0,
					LocalToningHue = 0,
					LocalToningSaturation = 0,
					What = "Correction",
				},
				{
					CorrectionActive = true,
					CorrectionAmount = 1,
					CorrectionID = "43EAD18A-A7E3-40C5-9247-F4658AA5635C",
					CorrectionMasks = {
						{
							FullX = 0.471522,
							FullY = 0.889356,
							MaskID = "1ADFF18B-5AF3-48DB-834D-C7882847E89F",
							MaskValue = 1,
							What = "Mask/Gradient",
							ZeroX = 0.471522,
							ZeroY = 0.886555,
						},
					},
					CorrectionReferenceX = 0.471522,
					CorrectionReferenceY = 0.887956,
					LocalBrightness = 0,
					LocalClarity = 0,
					LocalClarity2012 = 0,
					LocalContrast = 0,
					LocalContrast2012 = 1,
					LocalDefringe = 0,
					LocalExposure = 0,
					LocalExposure2012 = -1,
					LocalHighlights2012 = -1,
					LocalLuminanceNoise = 0,
					LocalMoire = 0,
					LocalSaturation = 0,
					LocalShadows2012 = -1,
					LocalSharpness = 0,
					LocalTemperature = 0,
					LocalTint = 0,
					LocalToningHue = 0,
					LocalToningSaturation = 0,
					What = "Correction",
				},
				{
					CorrectionActive = true,
					CorrectionAmount = 1,
					CorrectionID = "B9033F54-A650-4BD9-B86A-37CEB182F2D1",
					CorrectionMasks = {
						{
							FullX = 0.482726,
							FullY = 0.885585,
							MaskID = "E9354D84-DA29-4012-898B-D1FF2300A928",
							MaskValue = 1,
							What = "Mask/Gradient",
							ZeroX = 0.482726,
							ZeroY = 0.884507,
						},
					},
					CorrectionReferenceX = 0.482726,
					CorrectionReferenceY = 0.885046,
					LocalBrightness = 0,
					LocalClarity = 0,
					LocalClarity2012 = 0,
					LocalContrast = 0,
					LocalContrast2012 = 1,
					LocalDefringe = 0,
					LocalExposure = 0,
					LocalExposure2012 = -1,
					LocalHighlights2012 = -1,
					LocalLuminanceNoise = 0,
					LocalMoire = 0,
					LocalSaturation = 0,
					LocalShadows2012 = -1,
					LocalSharpness = 0,
					LocalTemperature = 0,
					LocalTint = 0,
					LocalToningHue = 0,
					LocalToningSaturation = 0,
					What = "Correction",
				},
				{
					CorrectionActive = true,
					CorrectionAmount = 1,
					CorrectionID = "E9F89B8D-03F7-457B-AE7D-A1FAFDF85F61",
					CorrectionMasks = {
						{
							FullX = 0.519418,
							FullY = 0.110967,
							MaskID = "1EE480FA-43D7-4182-9FEB-D4666A6C7C0B",
							MaskValue = 1,
							What = "Mask/Gradient",
							ZeroX = 0.519418,
							ZeroY = 0.112368,
						},
					},
					CorrectionReferenceX = 0.519418,
					CorrectionReferenceY = 0.111668,
					LocalBrightness = 0,
					LocalClarity = 0,
					LocalClarity2012 = 0,
					LocalContrast = 0,
					LocalContrast2012 = 1,
					LocalDefringe = 0,
					LocalExposure = 0,
					LocalExposure2012 = -1,
					LocalHighlights2012 = -1,
					LocalLuminanceNoise = 0,
					LocalMoire = 0,
					LocalSaturation = 0,
					LocalShadows2012 = -1,
					LocalSharpness = 0,
					LocalTemperature = 0,
					LocalTint = 0,
					LocalToningHue = 0,
					LocalToningSaturation = 0,
					What = "Correction",
				},
			},
			GrainAmount = 0,
			GrainFrequency = 50,
			GrainSize = 25,
			GreenHue = 23,
			GreenSaturation = -21,
			Highlights2012 = -45,
			HueAdjustmentAqua = 81,
			HueAdjustmentBlue = 11,
			HueAdjustmentGreen = -15,
			HueAdjustmentMagenta = 0,
			HueAdjustmentOrange = 34,
			HueAdjustmentPurple = 0,
			HueAdjustmentRed = 14,
			HueAdjustmentYellow = -6,
			IncrementalTemperature = 13,
			IncrementalTint = 6,
			LensManualDistortionAmount = 0,
			LensProfileEnable = 0,
			LensProfileSetup = "LensDefaults",
			LuminanceAdjustmentAqua = 26,
			LuminanceAdjustmentBlue = 27,
			LuminanceAdjustmentGreen = 29,
			LuminanceAdjustmentMagenta = 15,
			LuminanceAdjustmentOrange = 15,
			LuminanceAdjustmentPurple = 16,
			LuminanceAdjustmentRed = 57,
			LuminanceAdjustmentYellow = 5,
			LuminanceNoiseReductionContrast = 0,
			LuminanceNoiseReductionDetail = 50,
			LuminanceSmoothing = 35,
			ParametricDarks = 0,
			ParametricHighlightSplit = 75,
			ParametricHighlights = 0,
			ParametricLights = 0,
			ParametricMidtoneSplit = 50,
			ParametricShadowSplit = 25,
			ParametricShadows = 0,
			PerspectiveAspect = 0,
			PerspectiveHorizontal = 0,
			PerspectiveRotate = 0,
			PerspectiveScale = 100,
			PerspectiveUpright = 0,
			PerspectiveVertical = 0,
			PostCropVignetteAmount = -29,
			PostCropVignetteFeather = 58,
			PostCropVignetteHighlightContrast = 82,
			PostCropVignetteMidpoint = 1,
			PostCropVignetteRoundness = -19,
			PostCropVignetteStyle = 1,
			ProcessVersion = "6.7",
			RedHue = 0,
			RedSaturation = 0,
			Saturation = -21,
			SaturationAdjustmentAqua = -56,
			SaturationAdjustmentBlue = -16,
			SaturationAdjustmentGreen = -22,
			SaturationAdjustmentMagenta = 0,
			SaturationAdjustmentOrange = -13,
			SaturationAdjustmentPurple = 0,
			SaturationAdjustmentRed = 27,
			SaturationAdjustmentYellow = -67,
			ShadowTint = 0,
			Shadows2012 = 34,
			SharpenDetail = 25,
			SharpenEdgeMasking = 0,
			SharpenRadius = 1,
			Sharpness = 80,
			SplitToningBalance = 40,
			SplitToningHighlightHue = 45,
			SplitToningHighlightSaturation = 60,
			SplitToningShadowHue = 236,
			SplitToningShadowSaturation = 15,
			ToneCurveName2012 = "Custom",
			ToneCurvePV2012 = {
				0,
				13,
				73,
				49,
				125,
				95,
				174,
				160,
				216,
				200,
				255,
				216,
			},
			ToneCurvePV2012Blue = {
				0,
				8,
				84,
				69,
				162,
				160,
				228,
				255,
			},
			ToneCurvePV2012Green = {
				0,
				0,
				88,
				86,
				243,
				255,
			},
			ToneCurvePV2012Red = {
				0,
				0,
				255,
				235,
			},
			Vibrance = 45,
			VignetteAmount = 0,
			VignetteMidpoint = 50,
			WhiteBalance = "Custom",
			Whites2012 = 38,
			orientation = "AB",
		},
		uuid = "777084E5-C2EC-45B5-9125-F490325E072B",
	},
	version = 0,
}
