CM 1000+ Lightroom Preset Pack 317985/Artistic Collection (157)/Artistic Preset (33).lrtemplate
s = {
	id = "5C178112-0692-4083-B41A-C2A48ABF5FC5",
	internalName = "04_Cinematic Film Look Lightroom Presets VOL.4",
	title = "04_Cinematic Film Look Lightroom Presets VOL.4",
	type = "Develop",
	value = {
		settings = {
			Blacks2012 = 0,
			Clarity2012 = 9,
			ColorNoiseReduction = 16,
			ColorNoiseReductionDetail = 50,
			ColorNoiseReductionSmoothness = 50,
			Contrast2012 = 0,
			ConvertToGrayscale = false,
			EnableCircularGradientBasedCorrections = true,
			EnableColorAdjustments = true,
			EnableDetail = true,
			EnableEffects = true,
			EnableGradientBasedCorrections = true,
			EnableSplitToning = true,
			GradientBasedCorrections = {
				{
					CorrectionActive = true,
					CorrectionAmount = 1,
					CorrectionID = "867BDA00-C940-456B-8E06-B6C7A87A5104",
					CorrectionMasks = {
						{
							FullX = 0.705855,
							FullY = 0.146014,
							MaskID = "383E4AB7-9B21-49D5-9F88-B2781B1525CE",
							MaskValue = 1,
							What = "Mask/Gradient",
							ZeroX = 0.705855,
							ZeroY = 0.14748,
						},
					},
					CorrectionReferenceX = 0.705855,
					CorrectionReferenceY = 0.146747,
					LocalBrightness = 0,
					LocalClarity = 0,
					LocalClarity2012 = 0,
					LocalContrast = 0,
					LocalContrast2012 = 0,
					LocalDefringe = 0,
					LocalExposure = 0,
					LocalExposure2012 = -1,
					LocalHighlights2012 = 0,
					LocalLuminanceNoise = 0,
					LocalMoire = 0,
					LocalSaturation = 0,
					LocalShadows2012 = 0,
					LocalSharpness = 0,
					LocalTemperature = 0,
					LocalTint = 0,
					LocalToningHue = 0,
					LocalToningSaturation = 0,
					What = "Correction",
				},
				{
					CorrectionActive = true,
					CorrectionAmount = 1,
					CorrectionID = "30EB3407-D000-4B88-B149-E89C56D6369A",
					CorrectionMasks = {
						{
							FullX = 0.669158,
							FullY = 0.84993,
							MaskID = "CDA70C05-B863-413F-A5EC-85D4CD1DF24C",
							MaskValue = 1,
							What = "Mask/Gradient",
							ZeroX = 0.669158,
							ZeroY = 0.847125,
						},
					},
					CorrectionReferenceX = 0.669158,
					CorrectionReferenceY = 0.848527,
					LocalBrightness = 0,
					LocalClarity = 0,
					LocalClarity2012 = 0,
					LocalContrast = 0,
					LocalContrast2012 = 0,
					LocalDefringe = 0,
					LocalExposure = 0,
					LocalExposure2012 = -1,
					LocalHighlights2012 = 0,
					LocalLuminanceNoise = 0,
					LocalMoire = 0,
					LocalSaturation = 0,
					LocalShadows2012 = 0,
					LocalSharpness = 0,
					LocalTemperature = 0,
					LocalTint = 0,
					LocalToningHue = 0,
					LocalToningSaturation = 0,
					What = "Correction",
				},
				{
					CorrectionActive = true,
					CorrectionAmount = 1,
					CorrectionID = "A7E0D964-25D7-4D1E-949D-4E8DF68B6647",
					CorrectionMasks = {
						{
							FullX = 0.700093,
							FullY = 0.145278,
							MaskID = "BB9F32F3-5523-4A3B-8A20-8B1749713BA4",
							MaskValue = 1,
							What = "Mask/Gradient",
							ZeroX = 0.700093,
							ZeroY = 0.148084,
						},
					},
					CorrectionReferenceX = 0.700093,
					CorrectionReferenceY = 0.146681,
					LocalBrightness = 0,
					LocalClarity = 0,
					LocalClarity2012 = 0,
					LocalContrast = 0,
					LocalContrast2012 = 0,
					LocalDefringe = 0,
					LocalExposure = 0,
					LocalExposure2012 = -1,
					LocalHighlights2012 = 0,
					LocalLuminanceNoise = 0,
					LocalMoire = 0,
					LocalSaturation = 0,
					LocalShadows2012 = 0,
					LocalSharpness = 0,
					LocalTemperature = 0,
					LocalTint = 0,
					LocalToningHue = 0,
					LocalToningSaturation = 0,
					What = "Correction",
				},
				{
					CorrectionActive = true,
					CorrectionAmount = 1,
					CorrectionID = "4A686656-A1D9-4575-A62E-431838142735",
					CorrectionMasks = {
						{
							FullX = 0.659801,
							FullY = 0.84968,
							MaskID = "5DF86471-36BB-4334-ABB8-563D65795582",
							MaskValue = 1,
							What = "Mask/Gradient",
							ZeroX = 0.659801,
							ZeroY = 0.848277,
						},
					},
					CorrectionReferenceX = 0.659801,
					CorrectionReferenceY = 0.848978,
					LocalBrightness = 0,
					LocalClarity = 0,
					LocalClarity2012 = 0,
					LocalContrast = 0,
					LocalContrast2012 = 0,
					LocalDefringe = 0,
					LocalExposure = 0,
					LocalExposure2012 = -1,
					LocalHighlights2012 = 0,
					LocalLuminanceNoise = 0,
					LocalMoire = 0,
					LocalSaturation = 0,
					LocalShadows2012 = 0,
					LocalSharpness = 0,
					LocalTemperature = 0,
					LocalTint = 0,
					LocalToningHue = 0,
					LocalToningSaturation = 0,
					What = "Correction",
				},
			},
			GrainAmount = 10,
			GrainFrequency = 28,
			GrainSize = 12,
			Highlights2012 = -55,
			HueAdjustmentAqua = 100,
			HueAdjustmentBlue = 11,
			HueAdjustmentGreen = 11,
			HueAdjustmentMagenta = -39,
			HueAdjustmentOrange = 13,
			HueAdjustmentPurple = -35,
			HueAdjustmentRed = 42,
			HueAdjustmentYellow = 12,
			IncrementalTemperature = 0,
			IncrementalTint = 0,
			LuminanceAdjustmentAqua = 6,
			LuminanceAdjustmentBlue = 35,
			LuminanceAdjustmentGreen = -30,
			LuminanceAdjustmentMagenta = 14,
			LuminanceAdjustmentOrange = 10,
			LuminanceAdjustmentPurple = 15,
			LuminanceAdjustmentRed = 9,
			LuminanceAdjustmentYellow = -12,
			LuminanceNoiseReductionContrast = 0,
			LuminanceNoiseReductionDetail = 50,
			LuminanceSmoothing = 15,
			ParametricDarks = -8,
			ParametricHighlightSplit = 75,
			ParametricHighlights = -8,
			ParametricLights = 7,
			ParametricMidtoneSplit = 50,
			ParametricShadowSplit = 25,
			ParametricShadows = 20,
			PostCropVignetteAmount = -25,
			PostCropVignetteFeather = 72,
			PostCropVignetteHighlightContrast = 100,
			PostCropVignetteMidpoint = 18,
			PostCropVignetteRoundness = -21,
			PostCropVignetteStyle = 1,
			ProcessVersion = "6.7",
			Saturation = 0,
			SaturationAdjustmentAqua = -66,
			SaturationAdjustmentBlue = -62,
			SaturationAdjustmentGreen = -37,
			SaturationAdjustmentMagenta = 0,
			SaturationAdjustmentOrange = -69,
			SaturationAdjustmentPurple = 0,
			SaturationAdjustmentRed = 0,
			SaturationAdjustmentYellow = 4,
			Shadows2012 = 0,
			SharpenDetail = 25,
			SharpenEdgeMasking = 0,
			SharpenRadius = 1,
			Sharpness = 20,
			SplitToningBalance = 0,
			SplitToningHighlightHue = 51,
			SplitToningHighlightSaturation = 62,
			SplitToningShadowHue = 161,
			SplitToningShadowSaturation = 17,
			ToneCurveName2012 = "Custom",
			ToneCurvePV2012 = {
				0,
				5,
				81,
				69,
				196,
				187,
				255,
				217,
			},
			ToneCurvePV2012Blue = {
				9,
				0,
				120,
				146,
				255,
				255,
			},
			ToneCurvePV2012Green = {
				0,
				0,
				119,
				119,
				233,
				255,
			},
			ToneCurvePV2012Red = {
				10,
				0,
				232,
				255,
			},
			Vibrance = 0,
			WhiteBalance = "Custom",
			Whites2012 = 51,
			orientation = "AB",
		},
		uuid = "5C6BF6CF-49DD-480C-8C2F-713606EF283A",
	},
	version = 0,
}
