CM 1000+ Lightroom Preset Pack 317985/Artistic Collection (157)/Artistic Preset (22).lrtemplate
s = {
	id = "28272BB9-677E-40FE-BB1F-BBE5B1610ADE",
	internalName = "01_Cinematic Film Look Lightroom Presets VOL.5",
	title = "01_Cinematic Film Look Lightroom Presets VOL.5",
	type = "Develop",
	value = {
		settings = {
			Blacks2012 = 0,
			BlueHue = 0,
			BlueSaturation = 100,
			CameraProfile = "Embedded",
			Clarity2012 = 0,
			ColorNoiseReduction = 37,
			ColorNoiseReductionDetail = 50,
			ColorNoiseReductionSmoothness = 50,
			Contrast2012 = 0,
			ConvertToGrayscale = false,
			EnableCalibration = true,
			EnableCircularGradientBasedCorrections = true,
			EnableColorAdjustments = true,
			EnableDetail = true,
			EnableEffects = true,
			EnableGradientBasedCorrections = true,
			EnableSplitToning = true,
			GrainAmount = 0,
			GrainFrequency = 50,
			GrainSize = 25,
			GreenHue = 100,
			GreenSaturation = 29,
			Highlights2012 = 0,
			HueAdjustmentAqua = 39,
			HueAdjustmentBlue = 0,
			HueAdjustmentGreen = 68,
			HueAdjustmentMagenta = 0,
			HueAdjustmentOrange = 21,
			HueAdjustmentPurple = 0,
			HueAdjustmentRed = 33,
			HueAdjustmentYellow = 48,
			LuminanceAdjustmentAqua = -19,
			LuminanceAdjustmentBlue = -22,
			LuminanceAdjustmentGreen = 0,
			LuminanceAdjustmentMagenta = 27,
			LuminanceAdjustmentOrange = 47,
			LuminanceAdjustmentPurple = 19,
			LuminanceAdjustmentRed = -24,
			LuminanceAdjustmentYellow = 10,
			LuminanceNoiseReductionContrast = 0,
			LuminanceNoiseReductionDetail = 50,
			LuminanceSmoothing = 30,
			ParametricDarks = 0,
			ParametricHighlightSplit = 75,
			ParametricHighlights = 0,
			ParametricLights = 0,
			ParametricMidtoneSplit = 50,
			ParametricShadowSplit = 25,
			ParametricShadows = 0,
			PostCropVignetteAmount = 0,
			PostCropVignetteFeather = 50,
			PostCropVignetteHighlightContrast = 0,
			PostCropVignetteMidpoint = 50,
			PostCropVignetteRoundness = 0,
			PostCropVignetteStyle = 1,
			ProcessVersion = "6.7",
			RedHue = 0,
			RedSaturation = 0,
			Saturation = 0,
			SaturationAdjustmentAqua = 100,
			SaturationAdjustmentBlue = 66,
			SaturationAdjustmentGreen = -57,
			SaturationAdjustmentMagenta = 0,
			SaturationAdjustmentOrange = 9,
			SaturationAdjustmentPurple = 0,
			SaturationAdjustmentRed = 20,
			SaturationAdjustmentYellow = -7,
			ShadowTint = 0,
			Shadows2012 = 0,
			SharpenDetail = 45,
			SharpenEdgeMasking = 94,
			SharpenRadius = 1,
			Sharpness = 38,
			SplitToningBalance = 0,
			SplitToningHighlightHue = 0,
			SplitToningHighlightSaturation = 0,
			SplitToningShadowHue = 0,
			SplitToningShadowSaturation = 0,
			ToneCurveName2012 = "Custom",
			ToneCurvePV2012 = {
				0,
				19,
				8,
				22,
				26,
				29,
				60,
				48,
				87,
				72,
				137,
				126,
				147,
				137,
				186,
				176,
				216,
				198,
				255,
				219,
			},
			ToneCurvePV2012Blue = {
				0,
				0,
				72,
				70,
				173,
				181,
				255,
				255,
			},
			ToneCurvePV2012Green = {
				0,
				0,
				67,
				68,
				192,
				187,
				255,
				255,
			},
			ToneCurvePV2012Red = {
				0,
				0,
				81,
				79,
				191,
				202,
				255,
				255,
			},
			Vibrance = 0,
			WhiteBalance = "As Shot",
			Whites2012 = 0,
			orientation = "AB",
		},
		uuid = "48A46463-1A25-460F-8C20-F9A06BCE4246",
	},
	version = 0,
}
