CM 1000+ Lightroom Preset Pack 317985/Artistic Collection (157)/Artistic Preset (2).lrtemplate
s = {
	id = "6AFE848B-D2BB-46D4-9DFC-149CB0F8D770",
	internalName = "02_Cinematic Film Look - COLD [H2O]",
	title = "02_Cinematic Film Look - COLD [H2O]",
	type = "Develop",
	value = {
		settings = {
			AutoLateralCA = 0,
			Blacks2012 = 38,
			BlueHue = -34,
			BlueSaturation = 36,
			CameraProfile = "Embedded",
			ChromaticAberrationB = 0,
			ChromaticAberrationR = 0,
			Clarity2012 = 25,
			ColorNoiseReduction = 0,
			ColorNoiseReductionDetail = 50,
			ColorNoiseReductionSmoothness = 50,
			Contrast2012 = 0,
			ConvertToGrayscale = false,
			CropConstrainToWarp = 0,
			Defringe = 0,
			DefringeGreenAmount = 0,
			DefringeGreenHueHi = 60,
			DefringeGreenHueLo = 40,
			DefringePurpleAmount = 0,
			DefringePurpleHueHi = 70,
			DefringePurpleHueLo = 30,
			EnableCalibration = true,
			EnableColorAdjustments = true,
			EnableDetail = true,
			EnableEffects = true,
			EnableGradientBasedCorrections = true,
			EnableLensCorrections = true,
			EnableSplitToning = true,
			Exposure2012 = 0,
			GradientBasedCorrections = {
				{
					CorrectionActive = true,
					CorrectionAmount = 1,
					CorrectionID = "0EFE8EFD-DDA5-4B3C-882E-AD94FF4C665F",
					CorrectionMasks = {
						{
							FullX = 0.476204,
							FullY = 0.110644,
							MaskID = "C9359E96-ADDD-4892-9241-892B107D1685",
							MaskValue = 1,
							What = "Mask/Gradient",
							ZeroX = 0.476204,
							ZeroY = 0.112045,
						},
					},
					CorrectionReferenceX = 0.476204,
					CorrectionReferenceY = 0.111345,
					LocalBrightness = 0,
					LocalClarity = 0,
					LocalClarity2012 = 0,
					LocalContrast = 0,
					LocalContrast2012 = 1,
					LocalDefringe = 0,
					LocalExposure = 0,
					LocalExposure2012 = -1,
					LocalHighlights2012 = -1,
					LocalLuminanceNoise = 0,
					LocalMoire = 0,
					LocalSaturation = 0,
					LocalShadows2012 = -1,
					LocalSharpness = 0,
					LocalTemperature = 0,
					LocalTint = 0,
					LocalToningHue = 0,
					LocalToningSaturation = 0,
					What = "Correction",
				},
				{
					CorrectionActive = true,
					CorrectionAmount = 1,
					CorrectionID = "43EAD18A-A7E3-40C5-9247-F4658AA5635C",
					CorrectionMasks = {
						{
							FullX = 0.471522,
							FullY = 0.889356,
							MaskID = "1ADFF18B-5AF3-48DB-834D-C7882847E89F",
							MaskValue = 1,
							What = "Mask/Gradient",
							ZeroX = 0.471522,
							ZeroY = 0.886555,
						},
					},
					CorrectionReferenceX = 0.471522,
					CorrectionReferenceY = 0.887956,
					LocalBrightness = 0,
					LocalClarity = 0,
					LocalClarity2012 = 0,
					LocalContrast = 0,
					LocalContrast2012 = 1,
					LocalDefringe = 0,
					LocalExposure = 0,
					LocalExposure2012 = -1,
					LocalHighlights2012 = -1,
					LocalLuminanceNoise = 0,
					LocalMoire = 0,
					LocalSaturation = 0,
					LocalShadows2012 = -1,
					LocalSharpness = 0,
					LocalTemperature = 0,
					LocalTint = 0,
					LocalToningHue = 0,
					LocalToningSaturation = 0,
					What = "Correction",
				},
				{
					CorrectionActive = true,
					CorrectionAmount = 1,
					CorrectionID = "B9033F54-A650-4BD9-B86A-37CEB182F2D1",
					CorrectionMasks = {
						{
							FullX = 0.482726,
							FullY = 0.885585,
							MaskID = "E9354D84-DA29-4012-898B-D1FF2300A928",
							MaskValue = 1,
							What = "Mask/Gradient",
							ZeroX = 0.482726,
							ZeroY = 0.884507,
						},
					},
					CorrectionReferenceX = 0.482726,
					CorrectionReferenceY = 0.885046,
					LocalBrightness = 0,
					LocalClarity = 0,
					LocalClarity2012 = 0,
					LocalContrast = 0,
					LocalContrast2012 = 1,
					LocalDefringe = 0,
					LocalExposure = 0,
					LocalExposure2012 = -1,
					LocalHighlights2012 = -1,
					LocalLuminanceNoise = 0,
					LocalMoire = 0,
					LocalSaturation = 0,
					LocalShadows2012 = -1,
					LocalSharpness = 0,
					LocalTemperature = 0,
					LocalTint = 0,
					LocalToningHue = 0,
					LocalToningSaturation = 0,
					What = "Correction",
				},
				{
					CorrectionActive = true,
					CorrectionAmount = 1,
					CorrectionID = "E9F89B8D-03F7-457B-AE7D-A1FAFDF85F61",
					CorrectionMasks = {
						{
							FullX = 0.519418,
							FullY = 0.110967,
							MaskID = "1EE480FA-43D7-4182-9FEB-D4666A6C7C0B",
							MaskValue = 1,
							What = "Mask/Gradient",
							ZeroX = 0.519418,
							ZeroY = 0.112368,
						},
					},
					CorrectionReferenceX = 0.519418,
					CorrectionReferenceY = 0.111668,
					LocalBrightness = 0,
					LocalClarity = 0,
					LocalClarity2012 = 0,
					LocalContrast = 0,
					LocalContrast2012 = 1,
					LocalDefringe = 0,
					LocalExposure = 0,
					LocalExposure2012 = -1,
					LocalHighlights2012 = -1,
					LocalLuminanceNoise = 0,
					LocalMoire = 0,
					LocalSaturation = 0,
					LocalShadows2012 = -1,
					LocalSharpness = 0,
					LocalTemperature = 0,
					LocalTint = 0,
					LocalToningHue = 0,
					LocalToningSaturation = 0,
					What = "Correction",
				},
			},
			GrainAmount = 0,
			GrainFrequency = 50,
			GrainSize = 25,
			GreenHue = -37,
			GreenSaturation = -67,
			Highlights2012 = 0,
			HueAdjustmentAqua = 12,
			HueAdjustmentBlue = 18,
			HueAdjustmentGreen = 39,
			HueAdjustmentMagenta = 0,
			HueAdjustmentOrange = 0,
			HueAdjustmentPurple = 0,
			HueAdjustmentRed = -14,
			HueAdjustmentYellow = 62,
			LensManualDistortionAmount = 0,
			LensProfileEnable = 0,
			LensProfileSetup = "LensDefaults",
			LuminanceAdjustmentAqua = -35,
			LuminanceAdjustmentBlue = -19,
			LuminanceAdjustmentGreen = -23,
			LuminanceAdjustmentMagenta = 0,
			LuminanceAdjustmentOrange = 5,
			LuminanceAdjustmentPurple = 0,
			LuminanceAdjustmentRed = -12,
			LuminanceAdjustmentYellow = -19,
			LuminanceNoiseReductionContrast = 0,
			LuminanceNoiseReductionDetail = 50,
			LuminanceSmoothing = 0,
			ParametricDarks = 0,
			ParametricHighlightSplit = 75,
			ParametricHighlights = 0,
			ParametricLights = 0,
			ParametricMidtoneSplit = 50,
			ParametricShadowSplit = 25,
			ParametricShadows = 0,
			PerspectiveAspect = 0,
			PerspectiveHorizontal = 0,
			PerspectiveRotate = 0,
			PerspectiveScale = 100,
			PerspectiveUpright = 0,
			PerspectiveVertical = 0,
			PostCropVignetteAmount = -25,
			PostCropVignetteFeather = 63,
			PostCropVignetteHighlightContrast = 0,
			PostCropVignetteMidpoint = 0,
			PostCropVignetteRoundness = -41,
			PostCropVignetteStyle = 1,
			ProcessVersion = "6.7",
			RedHue = -15,
			RedSaturation = 20,
			Saturation = -30,
			SaturationAdjustmentAqua = -25,
			SaturationAdjustmentBlue = -51,
			SaturationAdjustmentGreen = 0,
			SaturationAdjustmentMagenta = 0,
			SaturationAdjustmentOrange = -14,
			SaturationAdjustmentPurple = 0,
			SaturationAdjustmentRed = 0,
			SaturationAdjustmentYellow = 14,
			ShadowTint = 0,
			Shadows2012 = -21,
			SharpenDetail = 25,
			SharpenEdgeMasking = 0,
			SharpenRadius = 1,
			Sharpness = 0,
			SplitToningBalance = -53,
			SplitToningHighlightHue = 203,
			SplitToningHighlightSaturation = 17,
			SplitToningShadowHue = 214,
			SplitToningShadowSaturation = 5,
			ToneCurveName2012 = "Custom",
			ToneCurvePV2012 = {
				0,
				0,
				76,
				50,
				115,
				111,
				155,
				165,
				198,
				215,
				255,
				255,
			},
			ToneCurvePV2012Blue = {
				0,
				24,
				255,
				221,
			},
			ToneCurvePV2012Green = {
				0,
				21,
				255,
				228,
			},
			ToneCurvePV2012Red = {
				0,
				19,
				255,
				226,
			},
			Vibrance = 25,
			VignetteAmount = 0,
			VignetteMidpoint = 50,
			WhiteBalance = "As Shot",
			Whites2012 = 53,
			orientation = "AB",
		},
		uuid = "9966E466-2216-4911-9782-414FA42A6098",
	},
	version = 0,
}
