CM 1000+ Lightroom Preset Pack 317985/Artistic Collection (157)/Artistic Preset (57).lrtemplate
s = {
	id = "90E065E7-FCB4-49E8-BF9C-BB41F9C979CA",
	internalName = "10_Cinematic Film Look Lightroom Presets VOL.4",
	title = "10_Cinematic Film Look Lightroom Presets VOL.4",
	type = "Develop",
	value = {
		settings = {
			Blacks2012 = 27,
			Clarity2012 = 16,
			ColorNoiseReduction = 9,
			ColorNoiseReductionDetail = 50,
			ColorNoiseReductionSmoothness = 50,
			Contrast2012 = 13,
			ConvertToGrayscale = false,
			EnableCircularGradientBasedCorrections = true,
			EnableColorAdjustments = true,
			EnableDetail = true,
			EnableEffects = true,
			EnableGradientBasedCorrections = true,
			EnableSplitToning = true,
			GradientBasedCorrections = {
				{
					CorrectionActive = true,
					CorrectionAmount = 1,
					CorrectionID = "867BDA00-C940-456B-8E06-B6C7A87A5104",
					CorrectionMasks = {
						{
							FullX = 0.705855,
							FullY = 0.146014,
							MaskID = "383E4AB7-9B21-49D5-9F88-B2781B1525CE",
							MaskValue = 1,
							What = "Mask/Gradient",
							ZeroX = 0.705855,
							ZeroY = 0.14748,
						},
					},
					CorrectionReferenceX = 0.705855,
					CorrectionReferenceY = 0.146747,
					LocalBrightness = 0,
					LocalClarity = 0,
					LocalClarity2012 = 0,
					LocalContrast = 0,
					LocalContrast2012 = 0,
					LocalDefringe = 0,
					LocalExposure = 0,
					LocalExposure2012 = -1,
					LocalHighlights2012 = 0,
					LocalLuminanceNoise = 0,
					LocalMoire = 0,
					LocalSaturation = 0,
					LocalShadows2012 = 0,
					LocalSharpness = 0,
					LocalTemperature = 0,
					LocalTint = 0,
					LocalToningHue = 0,
					LocalToningSaturation = 0,
					What = "Correction",
				},
				{
					CorrectionActive = true,
					CorrectionAmount = 1,
					CorrectionID = "30EB3407-D000-4B88-B149-E89C56D6369A",
					CorrectionMasks = {
						{
							FullX = 0.669158,
							FullY = 0.84993,
							MaskID = "CDA70C05-B863-413F-A5EC-85D4CD1DF24C",
							MaskValue = 1,
							What = "Mask/Gradient",
							ZeroX = 0.669158,
							ZeroY = 0.847125,
						},
					},
					CorrectionReferenceX = 0.669158,
					CorrectionReferenceY = 0.848527,
					LocalBrightness = 0,
					LocalClarity = 0,
					LocalClarity2012 = 0,
					LocalContrast = 0,
					LocalContrast2012 = 0,
					LocalDefringe = 0,
					LocalExposure = 0,
					LocalExposure2012 = -1,
					LocalHighlights2012 = 0,
					LocalLuminanceNoise = 0,
					LocalMoire = 0,
					LocalSaturation = 0,
					LocalShadows2012 = 0,
					LocalSharpness = 0,
					LocalTemperature = 0,
					LocalTint = 0,
					LocalToningHue = 0,
					LocalToningSaturation = 0,
					What = "Correction",
				},
				{
					CorrectionActive = true,
					CorrectionAmount = 1,
					CorrectionID = "A7E0D964-25D7-4D1E-949D-4E8DF68B6647",
					CorrectionMasks = {
						{
							FullX = 0.700093,
							FullY = 0.145278,
							MaskID = "BB9F32F3-5523-4A3B-8A20-8B1749713BA4",
							MaskValue = 1,
							What = "Mask/Gradient",
							ZeroX = 0.700093,
							ZeroY = 0.148084,
						},
					},
					CorrectionReferenceX = 0.700093,
					CorrectionReferenceY = 0.146681,
					LocalBrightness = 0,
					LocalClarity = 0,
					LocalClarity2012 = 0,
					LocalContrast = 0,
					LocalContrast2012 = 0,
					LocalDefringe = 0,
					LocalExposure = 0,
					LocalExposure2012 = -1,
					LocalHighlights2012 = 0,
					LocalLuminanceNoise = 0,
					LocalMoire = 0,
					LocalSaturation = 0,
					LocalShadows2012 = 0,
					LocalSharpness = 0,
					LocalTemperature = 0,
					LocalTint = 0,
					LocalToningHue = 0,
					LocalToningSaturation = 0,
					What = "Correction",
				},
				{
					CorrectionActive = true,
					CorrectionAmount = 1,
					CorrectionID = "4A686656-A1D9-4575-A62E-431838142735",
					CorrectionMasks = {
						{
							FullX = 0.659801,
							FullY = 0.84968,
							MaskID = "5DF86471-36BB-4334-ABB8-563D65795582",
							MaskValue = 1,
							What = "Mask/Gradient",
							ZeroX = 0.659801,
							ZeroY = 0.848277,
						},
					},
					CorrectionReferenceX = 0.659801,
					CorrectionReferenceY = 0.848978,
					LocalBrightness = 0,
					LocalClarity = 0,
					LocalClarity2012 = 0,
					LocalContrast = 0,
					LocalContrast2012 = 0,
					LocalDefringe = 0,
					LocalExposure = 0,
					LocalExposure2012 = -1,
					LocalHighlights2012 = 0,
					LocalLuminanceNoise = 0,
					LocalMoire = 0,
					LocalSaturation = 0,
					LocalShadows2012 = 0,
					LocalSharpness = 0,
					LocalTemperature = 0,
					LocalTint = 0,
					LocalToningHue = 0,
					LocalToningSaturation = 0,
					What = "Correction",
				},
			},
			GrainAmount = 17,
			GrainFrequency = 37,
			GrainSize = 56,
			Highlights2012 = -36,
			HueAdjustmentAqua = 0,
			HueAdjustmentBlue = 0,
			HueAdjustmentGreen = 0,
			HueAdjustmentMagenta = 0,
			HueAdjustmentOrange = 0,
			HueAdjustmentPurple = 0,
			HueAdjustmentRed = 24,
			HueAdjustmentYellow = 0,
			IncrementalTemperature = 7,
			IncrementalTint = -4,
			LuminanceAdjustmentAqua = 20,
			LuminanceAdjustmentBlue = 34,
			LuminanceAdjustmentGreen = 0,
			LuminanceAdjustmentMagenta = 0,
			LuminanceAdjustmentOrange = -12,
			LuminanceAdjustmentPurple = 0,
			LuminanceAdjustmentRed = 12,
			LuminanceAdjustmentYellow = -5,
			LuminanceNoiseReductionContrast = 0,
			LuminanceNoiseReductionDetail = 50,
			LuminanceSmoothing = 3,
			ParametricDarks = -11,
			ParametricHighlightSplit = 75,
			ParametricHighlights = 5,
			ParametricLights = 5,
			ParametricMidtoneSplit = 50,
			ParametricShadowSplit = 25,
			ParametricShadows = 34,
			PostCropVignetteAmount = -18,
			PostCropVignetteFeather = 48,
			PostCropVignetteHighlightContrast = 77,
			PostCropVignetteMidpoint = 30,
			PostCropVignetteRoundness = -21,
			PostCropVignetteStyle = 1,
			ProcessVersion = "6.7",
			Saturation = -37,
			SaturationAdjustmentAqua = -100,
			SaturationAdjustmentBlue = -57,
			SaturationAdjustmentGreen = -19,
			SaturationAdjustmentMagenta = 0,
			SaturationAdjustmentOrange = 8,
			SaturationAdjustmentPurple = 0,
			SaturationAdjustmentRed = 19,
			SaturationAdjustmentYellow = 12,
			Shadows2012 = 23,
			SharpenDetail = 49,
			SharpenEdgeMasking = 73,
			SharpenRadius = 1,
			Sharpness = 84,
			SplitToningBalance = 72,
			SplitToningHighlightHue = 49,
			SplitToningHighlightSaturation = 33,
			SplitToningShadowHue = 214,
			SplitToningShadowSaturation = 20,
			ToneCurveName2012 = "Custom",
			ToneCurvePV2012 = {
				0,
				14,
				35,
				32,
				65,
				56,
				177,
				179,
				255,
				225,
			},
			ToneCurvePV2012Blue = {
				0,
				0,
				130,
				132,
				239,
				255,
			},
			ToneCurvePV2012Green = {
				0,
				0,
				128,
				144,
				240,
				255,
			},
			ToneCurvePV2012Red = {
				0,
				0,
				127,
				154,
				238,
				255,
			},
			Vibrance = 0,
			WhiteBalance = "Custom",
			Whites2012 = 30,
			orientation = "AB",
		},
		uuid = "300F35BA-F17C-4D90-9B86-F59E0A6229FC",
	},
	version = 0,
}
