CM 1000+ Lightroom Preset Pack 317985/Artistic Collection (157)/Artistic Preset (96).lrtemplate
s = {
	id = "D5860FE2-ABEB-4DB8-BD23-E99A17633D68",
	internalName = "21_Cinematic Film Look Lightroom Presets VOL.5",
	title = "21_Cinematic Film Look Lightroom Presets VOL.5",
	type = "Develop",
	value = {
		settings = {
			Blacks2012 = 0,
			BlueHue = -100,
			BlueSaturation = -100,
			CameraProfile = "Embedded",
			Clarity2012 = 15,
			ColorNoiseReduction = 0,
			ColorNoiseReductionDetail = 50,
			ColorNoiseReductionSmoothness = 50,
			Contrast2012 = 0,
			ConvertToGrayscale = false,
			EnableCalibration = true,
			EnableCircularGradientBasedCorrections = true,
			EnableColorAdjustments = true,
			EnableDetail = true,
			EnableEffects = true,
			EnableGradientBasedCorrections = true,
			EnableSplitToning = true,
			GrainAmount = 0,
			GrainFrequency = 50,
			GrainSize = 25,
			GreenHue = -100,
			GreenSaturation = -100,
			Highlights2012 = -20,
			HueAdjustmentAqua = 36,
			HueAdjustmentBlue = 0,
			HueAdjustmentGreen = 0,
			HueAdjustmentMagenta = 0,
			HueAdjustmentOrange = 24,
			HueAdjustmentPurple = 0,
			HueAdjustmentRed = 10,
			HueAdjustmentYellow = 10,
			IncrementalTemperature = 0,
			IncrementalTint = 64,
			LuminanceAdjustmentAqua = 15,
			LuminanceAdjustmentBlue = 63,
			LuminanceAdjustmentGreen = 0,
			LuminanceAdjustmentMagenta = 24,
			LuminanceAdjustmentOrange = -12,
			LuminanceAdjustmentPurple = 18,
			LuminanceAdjustmentRed = 0,
			LuminanceAdjustmentYellow = 8,
			LuminanceNoiseReductionContrast = 0,
			LuminanceNoiseReductionDetail = 50,
			LuminanceSmoothing = 0,
			ParametricDarks = 0,
			ParametricHighlightSplit = 75,
			ParametricHighlights = 0,
			ParametricLights = 0,
			ParametricMidtoneSplit = 50,
			ParametricShadowSplit = 25,
			ParametricShadows = 0,
			PostCropVignetteAmount = -14,
			PostCropVignetteFeather = 34,
			PostCropVignetteHighlightContrast = 100,
			PostCropVignetteMidpoint = 20,
			PostCropVignetteRoundness = -33,
			PostCropVignetteStyle = 1,
			ProcessVersion = "6.7",
			RedHue = 0,
			RedSaturation = 22,
			Saturation = 0,
			SaturationAdjustmentAqua = -47,
			SaturationAdjustmentBlue = -16,
			SaturationAdjustmentGreen = -100,
			SaturationAdjustmentMagenta = 0,
			SaturationAdjustmentOrange = 26,
			SaturationAdjustmentPurple = 0,
			SaturationAdjustmentRed = -17,
			SaturationAdjustmentYellow = -34,
			ShadowTint = 0,
			Shadows2012 = 11,
			SharpenDetail = 60,
			SharpenEdgeMasking = 100,
			SharpenRadius = 1,
			Sharpness = 42,
			SplitToningBalance = 22,
			SplitToningHighlightHue = 37,
			SplitToningHighlightSaturation = 30,
			SplitToningShadowHue = 216,
			SplitToningShadowSaturation = 14,
			ToneCurveName2012 = "Custom",
			ToneCurvePV2012 = {
				0,
				16,
				34,
				33,
				66,
				60,
				97,
				90,
				125,
				121,
				164,
				162,
				212,
				199,
				255,
				224,
			},
			ToneCurvePV2012Blue = {
				0,
				14,
				88,
				79,
				164,
				180,
				255,
				243,
			},
			ToneCurvePV2012Green = {
				0,
				11,
				69,
				63,
				174,
				188,
				255,
				241,
			},
			ToneCurvePV2012Red = {
				0,
				19,
				78,
				61,
				162,
				180,
				255,
				234,
			},
			Vibrance = 22,
			WhiteBalance = "Custom",
			Whites2012 = 36,
			orientation = "AB",
		},
		uuid = "F7BE6B3B-7E31-47AC-A526-59654A7668DA",
	},
	version = 0,
}
