CM - Summer Wedding Lightroom Presets - 300150/Presets/Prowed - 15.lrtemplate
s = {
	id = "2B1C8165-A99C-4E6E-82A9-7C95C1DB71DD",
	internalName = "Prowed - 15",
	title = "Prowed - 15",
	type = "Develop",
	value = {
		settings = {
			Blacks2012 = -45,
			BlueHue = 0,
			BlueSaturation = 0,
			CameraProfile = "Embedded",
			Clarity2012 = 0,
			ColorNoiseReduction = 0,
			ColorNoiseReductionDetail = 50,
			ColorNoiseReductionSmoothness = 50,
			Contrast2012 = -17,
			ConvertToGrayscale = true,
			EnableCalibration = true,
			EnableDetail = true,
			EnableGrayscaleMix = true,
			EnableSplitToning = true,
			Exposure2012 = -0.6,
			GrayMixerAqua = -18,
			GrayMixerBlue = 11,
			GrayMixerGreen = -28,
			GrayMixerMagenta = 4,
			GrayMixerOrange = -20,
			GrayMixerPurple = 17,
			GrayMixerRed = -11,
			GrayMixerYellow = -24,
			GreenHue = 0,
			GreenSaturation = 0,
			Highlights2012 = -31,
			LuminanceNoiseReductionContrast = 0,
			LuminanceNoiseReductionDetail = 50,
			LuminanceSmoothing = 0,
			ParametricDarks = 100,
			ParametricHighlightSplit = 90,
			ParametricHighlights = -3,
			ParametricLights = 0,
			ParametricMidtoneSplit = 53,
			ParametricShadowSplit = 26,
			ParametricShadows = -84,
			ProcessVersion = "6.7",
			RedHue = 0,
			RedSaturation = 0,
			ShadowTint = 0,
			Shadows2012 = -17,
			SharpenDetail = 25,
			SharpenEdgeMasking = 0,
			SharpenRadius = 1,
			Sharpness = 0,
			SplitToningBalance = 0,
			SplitToningHighlightHue = 0,
			SplitToningHighlightSaturation = 0,
			SplitToningShadowHue = 0,
			SplitToningShadowSaturation = 0,
			ToneCurveName2012 = "Custom",
			ToneCurvePV2012 = {
				4,
				67,
				45,
				68,
				79,
				85,
				116,
				115,
				140,
				142,
				173,
				169,
				196,
				197,
				225,
				217,
				255,
				255,
			},
			ToneCurvePV2012Blue = {
				0,
				0,
				255,
				255,
			},
			ToneCurvePV2012Green = {
				0,
				0,
				255,
				255,
			},
			ToneCurvePV2012Red = {
				0,
				0,
				255,
				255,
			},
			WhiteBalance = "As Shot",
			Whites2012 = 0,
		},
		uuid = "9414ED5F-E6E4-4AE0-A40E-266CB9AAB5E1",
	},
	version = 0,
}
