Portrait-Lightroom-Presets-MegaPack/Presets-MegaPack/Portrait-ClassicBrightened1.lrtemplate
s = {
	id = "9E1990A7-5E14-43F0-A7B3-C2FFE2DD1420",
	internalName = "Portrait-ClassicBrightened1",
	title = "Portrait-ClassicBrightened1",
	type = "Develop",
	value = {
		settings = {
			AutoLateralCA = 0,
			Blacks2012 = 21,
			BlueHue = 0,
			BlueSaturation = 0,
			CameraProfile = "Adobe Standard",
			ChromaticAberrationB = 0,
			ChromaticAberrationR = 0,
			Clarity2012 = 10,
			ColorNoiseReduction = 25,
			ColorNoiseReductionDetail = 50,
			ColorNoiseReductionSmoothness = 50,
			Contrast2012 = -15,
			ConvertToGrayscale = false,
			Defringe = 0,
			DefringeGreenAmount = 0,
			DefringeGreenHueHi = 60,
			DefringeGreenHueLo = 40,
			DefringePurpleAmount = 0,
			DefringePurpleHueHi = 70,
			DefringePurpleHueLo = 30,
			EnableCalibration = true,
			EnableCircularGradientBasedCorrections = true,
			EnableColorAdjustments = true,
			EnableDetail = true,
			EnableEffects = true,
			EnableGradientBasedCorrections = true,
			EnableLensCorrections = true,
			EnableSplitToning = true,
			Exposure2012 = 0.2,
			GradientBasedCorrections = {
				{
					CorrectionActive = true,
					CorrectionAmount = 1,
					CorrectionID = "4A198148-C14A-45BC-B02E-453EEA94F309",
					CorrectionMasks = {
						{
							FullX = 0.996523,
							FullY = 1.02396,
							MaskID = "CA6ADD15-86CF-465C-9E23-08CF34F12F5B",
							MaskValue = 1,
							What = "Mask/Gradient",
							ZeroX = 0.755017,
							ZeroY = 0.71806,
						},
					},
					CorrectionReferenceX = 0.87577,
					CorrectionReferenceY = 0.87101,
					LocalBrightness = 0.125,
					LocalClarity = 0,
					LocalContrast = 0,
					LocalContrast2012 = 0.12583,
					LocalExposure = -0.475,
					LocalExposure2012 = 0.25825,
					LocalSaturation = 0.07,
					LocalSharpness = 0,
					LocalToningHue = 0,
					LocalToningSaturation = 0,
					What = "Correction",
				},
				{
					CorrectionActive = true,
					CorrectionAmount = 1,
					CorrectionID = "7B9E6B09-A675-441E-B891-CAA1F5A34ADA",
					CorrectionMasks = {
						{
							FullX = 0.778792,
							FullY = 0.729581,
							MaskID = "26E33C2A-C414-45BF-A000-1A668B2B736A",
							MaskValue = 1,
							What = "Mask/Gradient",
							ZeroX = 0.492623,
							ZeroY = 0.395363,
						},
					},
					CorrectionReferenceX = 0.635707,
					CorrectionReferenceY = 0.562472,
					LocalBrightness = -0.05,
					LocalClarity = -0.675,
					LocalContrast = 0,
					LocalExposure = 0.1,
					LocalExposure2012 = 0,
					LocalSaturation = -0.35,
					LocalSharpness = -0.2,
					LocalTint = 0.09934,
					LocalToningHue = 41,
					LocalToningSaturation = 0.25,
					What = "Correction",
				},
				{
					CorrectionActive = true,
					CorrectionAmount = 1,
					CorrectionID = "6374ACBD-CDBB-41C1-BD04-434CCDF2CC76",
					CorrectionMasks = {
						{
							FullX = 1.02228,
							FullY = 0.210931,
							MaskID = "B1785485-D722-4EFF-89BE-BAFA06950868",
							MaskValue = 1,
							What = "Mask/Gradient",
							ZeroX = 0.629319,
							ZeroY = 0.470263,
						},
					},
					CorrectionReferenceX = 0.8258,
					CorrectionReferenceY = 0.340597,
					LocalBrightness = 0.325,
					LocalClarity = -1,
					LocalClarity2012 = -0.6,
					LocalContrast = -1,
					LocalContrast2012 = -0.81,
					LocalExposure = -0.075,
					LocalExposure2012 = 0.28475,
					LocalSaturation = 0,
					LocalSharpness = -0.76,
					LocalTemperature = 0.070664,
					LocalTint = 0.09934,
					LocalToningHue = 0,
					LocalToningSaturation = 0,
					What = "Correction",
				},
				{
					CorrectionActive = true,
					CorrectionAmount = 1,
					CorrectionID = "B4A93C59-57B5-4805-B801-ABA1692769E2",
					CorrectionMasks = {
						{
							FullX = 0.774578,
							FullY = 0.810758,
							MaskID = "7DC22732-459F-406D-9BB0-2848BF83FE3D",
							MaskValue = 1,
							What = "Mask/Gradient",
							ZeroX = 0.63876,
							ZeroY = 0.691327,
						},
					},
					CorrectionReferenceX = 0.706669,
					CorrectionReferenceY = 0.751043,
					LocalBrightness = -0.05,
					LocalClarity = -0.45,
					LocalContrast = 0,
					LocalExposure = 0.3,
					LocalExposure2012 = 0.0595,
					LocalSaturation = 0.025,
					LocalSharpness = 0,
					LocalTint = 0.12583,
					LocalToningHue = 46,
					LocalToningSaturation = 0.54,
					What = "Correction",
				},
				{
					CorrectionActive = true,
					CorrectionAmount = 1,
					CorrectionID = "5756D23B-5CF5-45CE-8CBA-0EFB991DAE42",
					CorrectionMasks = {
						{
							FullX = 0.860305,
							FullY = 0.724194,
							MaskID = "64415510-21CD-44F9-A2D4-F2320E3C81E4",
							MaskValue = 1,
							What = "Mask/Gradient",
							ZeroX = 0.306361,
							ZeroY = -0.13958,
						},
					},
					CorrectionReferenceX = 0.583333,
					CorrectionReferenceY = 0.292307,
					LocalBrightness = 0.05618,
					LocalClarity = 0.14607,
					LocalClarity2012 = 0.14607,
					LocalContrast = 0.01124,
					LocalContrast2012 = 0.01124,
					LocalExposure = 0.03375,
					LocalExposure2012 = 0.12575,
					LocalHighlights2012 = 0,
					LocalLuminanceNoise = 0,
					LocalMoire = 0,
					LocalSaturation = 0.16854,
					LocalShadows2012 = 0,
					LocalSharpness = 0.05618,
					LocalTemperature = 0.047226,
					LocalTint = -0.08609,
					LocalToningHue = 43,
					LocalToningSaturation = 0.19,
					What = "Correction",
				},
				{
					CorrectionActive = true,
					CorrectionAmount = 1,
					CorrectionID = "930ECBE3-F232-4FA1-A7F6-B3F1F0C248B1",
					CorrectionMasks = {
						{
							FullX = -0.01179,
							FullY = 0.479414,
							MaskID = "BB02E0F0-4770-457B-889C-7FE4A4AE3548",
							MaskValue = 1,
							What = "Mask/Gradient",
							ZeroX = 0.523392,
							ZeroY = 0.476923,
						},
					},
					CorrectionReferenceX = 0.255801,
					CorrectionReferenceY = 0.478168,
					LocalBrightness = -0.07865,
					LocalClarity = 0.01124,
					LocalClarity2012 = 0,
					LocalContrast = 0.05618,
					LocalContrast2012 = 0,
					LocalExposure = -0.07875,
					LocalExposure2012 = 0.1525,
					LocalHighlights2012 = 0.35099,
					LocalLuminanceNoise = 0,
					LocalMoire = 0,
					LocalSaturation = 0,
					LocalShadows2012 = 0,
					LocalSharpness = 0,
					LocalTemperature = 0,
					LocalTint = 0,
					LocalToningHue = 50,
					LocalToningSaturation = 0.25,
					What = "Correction",
				},
			},
			GrainAmount = 0,
			GrainFrequency = 50,
			GrainSize = 25,
			GreenHue = 0,
			GreenSaturation = 0,
			Highlights2012 = -18,
			HueAdjustmentAqua = 0,
			HueAdjustmentBlue = 0,
			HueAdjustmentGreen = 0,
			HueAdjustmentMagenta = 0,
			HueAdjustmentOrange = 0,
			HueAdjustmentPurple = 0,
			HueAdjustmentRed = 0,
			HueAdjustmentYellow = 0,
			LensProfileEnable = 0,
			LensProfileSetup = "LensDefaults",
			LuminanceAdjustmentAqua = 0,
			LuminanceAdjustmentBlue = 0,
			LuminanceAdjustmentGreen = 0,
			LuminanceAdjustmentMagenta = 0,
			LuminanceAdjustmentOrange = 0,
			LuminanceAdjustmentPurple = 0,
			LuminanceAdjustmentRed = 0,
			LuminanceAdjustmentYellow = 0,
			LuminanceNoiseReductionContrast = 0,
			LuminanceNoiseReductionDetail = 50,
			LuminanceSmoothing = 19,
			ParametricDarks = 0,
			ParametricHighlightSplit = 75,
			ParametricHighlights = 0,
			ParametricLights = 0,
			ParametricMidtoneSplit = 50,
			ParametricShadowSplit = 25,
			ParametricShadows = 0,
			PerspectiveUpright = 0,
			PostCropVignetteAmount = 0,
			PostCropVignetteFeather = 50,
			PostCropVignetteHighlightContrast = 0,
			PostCropVignetteMidpoint = 50,
			PostCropVignetteRoundness = 0,
			PostCropVignetteStyle = 1,
			ProcessVersion = "6.7",
			RedHue = 0,
			RedSaturation = 0,
			Saturation = 0,
			SaturationAdjustmentAqua = 0,
			SaturationAdjustmentBlue = 0,
			SaturationAdjustmentGreen = 0,
			SaturationAdjustmentMagenta = 0,
			SaturationAdjustmentOrange = 0,
			SaturationAdjustmentPurple = 0,
			SaturationAdjustmentRed = 0,
			SaturationAdjustmentYellow = 0,
			ShadowTint = 0,
			Shadows2012 = 12,
			SharpenDetail = 15,
			SharpenEdgeMasking = 60,
			SharpenRadius = 1.4,
			Sharpness = 35,
			SplitToningBalance = 0,
			SplitToningHighlightHue = 0,
			SplitToningHighlightSaturation = 0,
			SplitToningShadowHue = 0,
			SplitToningShadowSaturation = 0,
			Temperature = 5431,
			Tint = -5,
			ToneCurveName2012 = "Linear",
			ToneCurvePV2012 = {
				0,
				0,
				255,
				255,
			},
			ToneCurvePV2012Blue = {
				0,
				0,
				255,
				255,
			},
			ToneCurvePV2012Green = {
				0,
				0,
				255,
				255,
			},
			ToneCurvePV2012Red = {
				0,
				0,
				255,
				255,
			},
			Vibrance = 15,
			VignetteAmount = 0,
			VignetteMidpoint = 50,
			WhiteBalance = "Custom",
			Whites2012 = 0,
			orientation = "DA",
		},
		uuid = "31241046-33FD-4D0E-B52B-6A069FBEFFB4",
	},
	version = 0,
}
