Pro Cinema Lightroom Preset/Pro Cinema Lightroom Preset/Pro 2.lrtemplate
s = {
	id = "9029A31A-9832-4748-BB38-92C5E69354E6",
	internalName = "Pro 2",
	title = "Pro 2",
	type = "Develop",
	value = {
		settings = {
			Blacks2012 = 21,
			BlueHue = 0,
			BlueSaturation = 0,
			CameraProfile = "Embedded",
			Clarity2012 = 33,
			ColorNoiseReduction = 0,
			ColorNoiseReductionDetail = 50,
			ColorNoiseReductionSmoothness = 50,
			Contrast2012 = 21,
			ConvertToGrayscale = false,
			EnableCalibration = true,
			EnableColorAdjustments = true,
			EnableDetail = true,
			EnableGradientBasedCorrections = true,
			Exposure2012 = 0.12,
			GradientBasedCorrections = {
				{
					CorrectionActive = true,
					CorrectionAmount = 1,
					CorrectionID = "605740F8-36CC-4FA7-8DF1-2D26E7E4DDC2",
					CorrectionMasks = {
						{
							FullX = 0.500664,
							FullY = 0.224172,
							MaskID = "CC9AF27A-245B-4660-B584-8CA6422286FF",
							MaskValue = 1,
							What = "Mask/Gradient",
							ZeroX = 0.500664,
							ZeroY = 0.22612,
						},
					},
					CorrectionReferenceX = 0.500664,
					CorrectionReferenceY = 0.225146,
					LocalBrightness = 0,
					LocalClarity = 0,
					LocalClarity2012 = 0,
					LocalContrast = 0,
					LocalContrast2012 = 0,
					LocalDefringe = 0,
					LocalExposure = 0,
					LocalExposure2012 = -0.35625,
					LocalHighlights2012 = 0,
					LocalLuminanceNoise = 0,
					LocalMoire = 0,
					LocalSaturation = 0,
					LocalShadows2012 = 0,
					LocalSharpness = 0,
					LocalTemperature = 0,
					LocalTint = 0,
					LocalToningHue = 96,
					LocalToningSaturation = 0,
					What = "Correction",
				},
				{
					CorrectionActive = true,
					CorrectionAmount = 1,
					CorrectionID = "BBB07399-662C-4226-A0AB-91DE8C08ED04",
					CorrectionMasks = {
						{
							FullX = 0.500664,
							FullY = 0.224172,
							MaskID = "CC9AF27A-245B-4660-B584-8CA6422286FF",
							MaskValue = 1,
							What = "Mask/Gradient",
							ZeroX = 0.500664,
							ZeroY = 0.22612,
						},
					},
					CorrectionReferenceX = 0.500664,
					CorrectionReferenceY = 0.225146,
					LocalBrightness = 0,
					LocalClarity = 0,
					LocalClarity2012 = 0,
					LocalContrast = 0,
					LocalContrast2012 = 0,
					LocalDefringe = 0,
					LocalExposure = 0,
					LocalExposure2012 = -0.35625,
					LocalHighlights2012 = 0,
					LocalLuminanceNoise = 0,
					LocalMoire = 0,
					LocalSaturation = 0,
					LocalShadows2012 = 0,
					LocalSharpness = 0,
					LocalTemperature = 0,
					LocalTint = 0,
					LocalToningHue = 96,
					LocalToningSaturation = 0,
					What = "Correction",
				},
				{
					CorrectionActive = true,
					CorrectionAmount = 1,
					CorrectionID = "92D80993-9901-471A-A59E-7C6C901ADB4C",
					CorrectionMasks = {
						{
							FullX = 0.500664,
							FullY = 0.224172,
							MaskID = "CC9AF27A-245B-4660-B584-8CA6422286FF",
							MaskValue = 1,
							What = "Mask/Gradient",
							ZeroX = 0.500664,
							ZeroY = 0.22612,
						},
					},
					CorrectionReferenceX = 0.500664,
					CorrectionReferenceY = 0.225146,
					LocalBrightness = 0,
					LocalClarity = 0,
					LocalClarity2012 = 0,
					LocalContrast = 0,
					LocalContrast2012 = 0,
					LocalDefringe = 0,
					LocalExposure = 0,
					LocalExposure2012 = -0.35625,
					LocalHighlights2012 = 0,
					LocalLuminanceNoise = 0,
					LocalMoire = 0,
					LocalSaturation = 0,
					LocalShadows2012 = 0,
					LocalSharpness = 0,
					LocalTemperature = 0,
					LocalTint = 0,
					LocalToningHue = 96,
					LocalToningSaturation = 0,
					What = "Correction",
				},
				{
					CorrectionActive = true,
					CorrectionAmount = 1,
					CorrectionID = "5935B18A-3CDD-434D-A196-3529CA28F295",
					CorrectionMasks = {
						{
							FullX = 0.500664,
							FullY = 0.224172,
							MaskID = "CC9AF27A-245B-4660-B584-8CA6422286FF",
							MaskValue = 1,
							What = "Mask/Gradient",
							ZeroX = 0.500664,
							ZeroY = 0.22612,
						},
					},
					CorrectionReferenceX = 0.500664,
					CorrectionReferenceY = 0.225146,
					LocalBrightness = 0,
					LocalClarity = 0,
					LocalClarity2012 = 0,
					LocalContrast = 0,
					LocalContrast2012 = 0,
					LocalDefringe = 0,
					LocalExposure = 0,
					LocalExposure2012 = -0.35625,
					LocalHighlights2012 = 0,
					LocalLuminanceNoise = 0,
					LocalMoire = 0,
					LocalSaturation = 0,
					LocalShadows2012 = 0,
					LocalSharpness = 0,
					LocalTemperature = 0,
					LocalTint = 0,
					LocalToningHue = 96,
					LocalToningSaturation = 0,
					What = "Correction",
				},
				{
					CorrectionActive = true,
					CorrectionAmount = 1,
					CorrectionID = "A5BFC33F-8509-4639-B9C1-DFAED21AA09D",
					CorrectionMasks = {
						{
							FullX = 0.500664,
							FullY = 0.224172,
							MaskID = "CC9AF27A-245B-4660-B584-8CA6422286FF",
							MaskValue = 1,
							What = "Mask/Gradient",
							ZeroX = 0.500664,
							ZeroY = 0.22612,
						},
					},
					CorrectionReferenceX = 0.500664,
					CorrectionReferenceY = 0.225146,
					LocalBrightness = 0,
					LocalClarity = 0,
					LocalClarity2012 = 0,
					LocalContrast = 0,
					LocalContrast2012 = 0,
					LocalDefringe = 0,
					LocalExposure = 0,
					LocalExposure2012 = -0.35625,
					LocalHighlights2012 = 0,
					LocalLuminanceNoise = 0,
					LocalMoire = 0,
					LocalSaturation = 0,
					LocalShadows2012 = 0,
					LocalSharpness = 0,
					LocalTemperature = 0,
					LocalTint = 0,
					LocalToningHue = 96,
					LocalToningSaturation = 0,
					What = "Correction",
				},
				{
					CorrectionActive = true,
					CorrectionAmount = 1,
					CorrectionID = "AADF3706-69FA-480E-BF02-7EA648319E6E",
					CorrectionMasks = {
						{
							FullX = 0.500664,
							FullY = 0.224172,
							MaskID = "CC9AF27A-245B-4660-B584-8CA6422286FF",
							MaskValue = 1,
							What = "Mask/Gradient",
							ZeroX = 0.500664,
							ZeroY = 0.22612,
						},
					},
					CorrectionReferenceX = 0.500664,
					CorrectionReferenceY = 0.225146,
					LocalBrightness = 0,
					LocalClarity = 0,
					LocalClarity2012 = 0,
					LocalContrast = 0,
					LocalContrast2012 = 0,
					LocalDefringe = 0,
					LocalExposure = 0,
					LocalExposure2012 = -0.35625,
					LocalHighlights2012 = 0,
					LocalLuminanceNoise = 0,
					LocalMoire = 0,
					LocalSaturation = 0,
					LocalShadows2012 = 0,
					LocalSharpness = 0,
					LocalTemperature = 0,
					LocalTint = 0,
					LocalToningHue = 96,
					LocalToningSaturation = 0,
					What = "Correction",
				},
				{
					CorrectionActive = true,
					CorrectionAmount = 1,
					CorrectionID = "A69E0808-1F9D-41BA-A2C2-11B848700568",
					CorrectionMasks = {
						{
							FullX = 0.491368,
							FullY = 0.775828,
							MaskID = "0602FD72-A797-4ABF-9B32-E0AB4ED9627F",
							MaskValue = 1,
							What = "Mask/Gradient",
							ZeroX = 0.491368,
							ZeroY = 0.77388,
						},
					},
					CorrectionReferenceX = 0.491368,
					CorrectionReferenceY = 0.774854,
					LocalBrightness = 0,
					LocalClarity = 0,
					LocalClarity2012 = 0,
					LocalContrast = 0,
					LocalContrast2012 = 0,
					LocalDefringe = 0,
					LocalExposure = 0,
					LocalExposure2012 = -0.35625,
					LocalHighlights2012 = 0,
					LocalLuminanceNoise = 0,
					LocalMoire = 0,
					LocalSaturation = 0,
					LocalShadows2012 = 0,
					LocalSharpness = 0,
					LocalTemperature = 0,
					LocalTint = 0,
					LocalToningHue = 96,
					LocalToningSaturation = 0,
					What = "Correction",
				},
				{
					CorrectionActive = true,
					CorrectionAmount = 1,
					CorrectionID = "7DBB0FD3-B240-4E70-A661-9371BF22B179",
					CorrectionMasks = {
						{
							FullX = 0.491368,
							FullY = 0.775828,
							MaskID = "0602FD72-A797-4ABF-9B32-E0AB4ED9627F",
							MaskValue = 1,
							What = "Mask/Gradient",
							ZeroX = 0.491368,
							ZeroY = 0.77388,
						},
					},
					CorrectionReferenceX = 0.491368,
					CorrectionReferenceY = 0.774854,
					LocalBrightness = 0,
					LocalClarity = 0,
					LocalClarity2012 = 0,
					LocalContrast = 0,
					LocalContrast2012 = 0,
					LocalDefringe = 0,
					LocalExposure = 0,
					LocalExposure2012 = -0.35625,
					LocalHighlights2012 = 0,
					LocalLuminanceNoise = 0,
					LocalMoire = 0,
					LocalSaturation = 0,
					LocalShadows2012 = 0,
					LocalSharpness = 0,
					LocalTemperature = 0,
					LocalTint = 0,
					LocalToningHue = 96,
					LocalToningSaturation = 0,
					What = "Correction",
				},
				{
					CorrectionActive = true,
					CorrectionAmount = 1,
					CorrectionID = "9713A41B-A389-445F-9578-57A592BD850C",
					CorrectionMasks = {
						{
							FullX = 0.491368,
							FullY = 0.775828,
							MaskID = "0602FD72-A797-4ABF-9B32-E0AB4ED9627F",
							MaskValue = 1,
							What = "Mask/Gradient",
							ZeroX = 0.491368,
							ZeroY = 0.77388,
						},
					},
					CorrectionReferenceX = 0.491368,
					CorrectionReferenceY = 0.774854,
					LocalBrightness = 0,
					LocalClarity = 0,
					LocalClarity2012 = 0,
					LocalContrast = 0,
					LocalContrast2012 = 0,
					LocalDefringe = 0,
					LocalExposure = 0,
					LocalExposure2012 = -0.35625,
					LocalHighlights2012 = 0,
					LocalLuminanceNoise = 0,
					LocalMoire = 0,
					LocalSaturation = 0,
					LocalShadows2012 = 0,
					LocalSharpness = 0,
					LocalTemperature = 0,
					LocalTint = 0,
					LocalToningHue = 96,
					LocalToningSaturation = 0,
					What = "Correction",
				},
				{
					CorrectionActive = true,
					CorrectionAmount = 1,
					CorrectionID = "78C0B128-4C9B-418E-A5B5-FE0D1C1EC96E",
					CorrectionMasks = {
						{
							FullX = 0.491368,
							FullY = 0.775828,
							MaskID = "0602FD72-A797-4ABF-9B32-E0AB4ED9627F",
							MaskValue = 1,
							What = "Mask/Gradient",
							ZeroX = 0.491368,
							ZeroY = 0.77388,
						},
					},
					CorrectionReferenceX = 0.491368,
					CorrectionReferenceY = 0.774854,
					LocalBrightness = 0,
					LocalClarity = 0,
					LocalClarity2012 = 0,
					LocalContrast = 0,
					LocalContrast2012 = 0,
					LocalDefringe = 0,
					LocalExposure = 0,
					LocalExposure2012 = -0.35625,
					LocalHighlights2012 = 0,
					LocalLuminanceNoise = 0,
					LocalMoire = 0,
					LocalSaturation = 0,
					LocalShadows2012 = 0,
					LocalSharpness = 0,
					LocalTemperature = 0,
					LocalTint = 0,
					LocalToningHue = 96,
					LocalToningSaturation = 0,
					What = "Correction",
				},
				{
					CorrectionActive = true,
					CorrectionAmount = 1,
					CorrectionID = "A947560C-70F7-4400-93C4-B2FADAA55B39",
					CorrectionMasks = {
						{
							FullX = 0.491368,
							FullY = 0.775828,
							MaskID = "0602FD72-A797-4ABF-9B32-E0AB4ED9627F",
							MaskValue = 1,
							What = "Mask/Gradient",
							ZeroX = 0.491368,
							ZeroY = 0.77388,
						},
					},
					CorrectionReferenceX = 0.491368,
					CorrectionReferenceY = 0.774854,
					LocalBrightness = 0,
					LocalClarity = 0,
					LocalClarity2012 = 0,
					LocalContrast = 0,
					LocalContrast2012 = 0,
					LocalDefringe = 0,
					LocalExposure = 0,
					LocalExposure2012 = -0.35625,
					LocalHighlights2012 = 0,
					LocalLuminanceNoise = 0,
					LocalMoire = 0,
					LocalSaturation = 0,
					LocalShadows2012 = 0,
					LocalSharpness = 0,
					LocalTemperature = 0,
					LocalTint = 0,
					LocalToningHue = 96,
					LocalToningSaturation = 0,
					What = "Correction",
				},
				{
					CorrectionActive = true,
					CorrectionAmount = 1,
					CorrectionID = "81CBE96B-383F-4FF5-85CE-D6831651D584",
					CorrectionMasks = {
						{
							FullX = 0.491368,
							FullY = 0.775828,
							MaskID = "0602FD72-A797-4ABF-9B32-E0AB4ED9627F",
							MaskValue = 1,
							What = "Mask/Gradient",
							ZeroX = 0.491368,
							ZeroY = 0.77388,
						},
					},
					CorrectionReferenceX = 0.491368,
					CorrectionReferenceY = 0.774854,
					LocalBrightness = 0,
					LocalClarity = 0,
					LocalClarity2012 = 0,
					LocalContrast = 0,
					LocalContrast2012 = 0,
					LocalDefringe = 0,
					LocalExposure = 0,
					LocalExposure2012 = -0.35625,
					LocalHighlights2012 = 0,
					LocalLuminanceNoise = 0,
					LocalMoire = 0,
					LocalSaturation = 0,
					LocalShadows2012 = 0,
					LocalSharpness = 0,
					LocalTemperature = 0,
					LocalTint = 0,
					LocalToningHue = 96,
					LocalToningSaturation = 0,
					What = "Correction",
				},
				{
					CorrectionActive = true,
					CorrectionAmount = 1,
					CorrectionID = "C5DD68FC-3B56-4362-8860-1269194FC2CC",
					CorrectionMasks = {
						{
							FullX = 0.491368,
							FullY = 0.775828,
							MaskID = "0602FD72-A797-4ABF-9B32-E0AB4ED9627F",
							MaskValue = 1,
							What = "Mask/Gradient",
							ZeroX = 0.491368,
							ZeroY = 0.77388,
						},
					},
					CorrectionReferenceX = 0.491368,
					CorrectionReferenceY = 0.774854,
					LocalBrightness = 0,
					LocalClarity = 0,
					LocalClarity2012 = 0,
					LocalContrast = 0,
					LocalContrast2012 = 0,
					LocalDefringe = 0,
					LocalExposure = 0,
					LocalExposure2012 = -0.35625,
					LocalHighlights2012 = 0,
					LocalLuminanceNoise = 0,
					LocalMoire = 0,
					LocalSaturation = 0,
					LocalShadows2012 = 0,
					LocalSharpness = 0,
					LocalTemperature = 0,
					LocalTint = 0,
					LocalToningHue = 96,
					LocalToningSaturation = 0,
					What = "Correction",
				},
				{
					CorrectionActive = true,
					CorrectionAmount = 1,
					CorrectionID = "A8282A00-7ABF-476D-A42B-A36125117D62",
					CorrectionMasks = {
						{
							FullX = 0.487384,
							FullY = 0.107213,
							MaskID = "E64FD907-2192-4205-A29A-0AA00CDC4C8A",
							MaskValue = 1,
							What = "Mask/Gradient",
							ZeroX = 0.487384,
							ZeroY = 0.510722,
						},
					},
					CorrectionReferenceX = 0.487384,
					CorrectionReferenceY = 0.308968,
					LocalBrightness = 0,
					LocalClarity = 0,
					LocalClarity2012 = 0,
					LocalContrast = 0,
					LocalContrast2012 = 0,
					LocalDefringe = 0,
					LocalExposure = 0,
					LocalExposure2012 = -0.35625,
					LocalHighlights2012 = 0,
					LocalLuminanceNoise = 0,
					LocalMoire = 0,
					LocalSaturation = 0,
					LocalShadows2012 = 0,
					LocalSharpness = 0,
					LocalTemperature = 0,
					LocalTint = 0,
					LocalToningHue = 96,
					LocalToningSaturation = 0,
					What = "Correction",
				},
				{
					CorrectionActive = true,
					CorrectionAmount = 1,
					CorrectionID = "CA415968-08AB-40B9-A38A-43861D14B254",
					CorrectionMasks = {
						{
							FullX = 0.495352,
							FullY = 0.861598,
							MaskID = "BB882FDC-D06B-4DB7-AEDA-45A27D344DBE",
							MaskValue = 1,
							What = "Mask/Gradient",
							ZeroX = 0.495352,
							ZeroY = 0.506822,
						},
					},
					CorrectionReferenceX = 0.495352,
					CorrectionReferenceY = 0.68421,
					LocalBrightness = 0,
					LocalClarity = 0,
					LocalClarity2012 = 0,
					LocalContrast = 0,
					LocalContrast2012 = 0,
					LocalDefringe = 0,
					LocalExposure = 0,
					LocalExposure2012 = -0.35625,
					LocalHighlights2012 = 0,
					LocalLuminanceNoise = 0,
					LocalMoire = 0,
					LocalSaturation = 0,
					LocalShadows2012 = 0,
					LocalSharpness = 0,
					LocalTemperature = 0,
					LocalTint = 0,
					LocalToningHue = 96,
					LocalToningSaturation = 0,
					What = "Correction",
				},
			},
			GreenHue = 0,
			GreenSaturation = 0,
			Highlights2012 = -79,
			HueAdjustmentAqua = 0,
			HueAdjustmentBlue = 0,
			HueAdjustmentGreen = 0,
			HueAdjustmentMagenta = 0,
			HueAdjustmentOrange = -16,
			HueAdjustmentPurple = 0,
			HueAdjustmentRed = -4,
			HueAdjustmentYellow = 0,
			IncrementalTemperature = 19,
			IncrementalTint = 12,
			LuminanceAdjustmentAqua = 0,
			LuminanceAdjustmentBlue = 0,
			LuminanceAdjustmentGreen = 0,
			LuminanceAdjustmentMagenta = 0,
			LuminanceAdjustmentOrange = 0,
			LuminanceAdjustmentPurple = 0,
			LuminanceAdjustmentRed = 4,
			LuminanceAdjustmentYellow = 0,
			LuminanceNoiseReductionContrast = 0,
			LuminanceNoiseReductionDetail = 50,
			LuminanceSmoothing = 0,
			ParametricDarks = 0,
			ParametricHighlightSplit = 75,
			ParametricHighlights = 0,
			ParametricLights = 0,
			ParametricMidtoneSplit = 50,
			ParametricShadowSplit = 25,
			ParametricShadows = 0,
			ProcessVersion = "6.7",
			RedHue = 0,
			RedSaturation = 0,
			Saturation = -10,
			SaturationAdjustmentAqua = 0,
			SaturationAdjustmentBlue = 0,
			SaturationAdjustmentGreen = 0,
			SaturationAdjustmentMagenta = 0,
			SaturationAdjustmentOrange = 0,
			SaturationAdjustmentPurple = 0,
			SaturationAdjustmentRed = 20,
			SaturationAdjustmentYellow = 0,
			ShadowTint = 0,
			Shadows2012 = -17,
			SharpenDetail = 25,
			SharpenEdgeMasking = 0,
			SharpenRadius = 1,
			Sharpness = 0,
			ToneCurveName2012 = "Custom",
			ToneCurvePV2012 = {
				0,
				0,
				137,
				125,
				255,
				255,
			},
			ToneCurvePV2012Blue = {
				0,
				0,
				255,
				255,
			},
			ToneCurvePV2012Green = {
				0,
				0,
				255,
				255,
			},
			ToneCurvePV2012Red = {
				0,
				0,
				255,
				255,
			},
			Vibrance = 0,
			WhiteBalance = "Custom",
			Whites2012 = 24,
			orientation = "AB",
		},
		uuid = "F1034E3B-94C7-40A4-9608-9C63078A33AF",
	},
	version = 0,
}
