HQLightroomPresets 505 V.3.4/HQLightroomPresets 505 V.3.4/HQLightroomPresets Lr2-Lr3 JPEG/Bold Shade - Gothic Skin & Lips ~ HQLightroomPresets.lrtemplate
s = {
	id = "734F647A-F250-46EC-BD50-EC3EED75C9EA",
	internalName = "Bold Shade : Gothic Skin & Lips ~ HQLightroomPresets.com 2",
	title = "Bold Shade : Gothic Skin & Lips ~ HQLightroomPresets",
	type = "Develop",
	value = {
		settings = {
			AutoBrightness = false,
			AutoContrast = false,
			AutoExposure = false,
			AutoShadows = false,
			BlueHue = 0,
			BlueSaturation = 0,
			Brightness = 5,
			CameraProfile = "Embedded",
			ChromaticAberrationB = 0,
			ChromaticAberrationR = 0,
			Clarity = 22,
			ColorNoiseReduction = 25,
			ColorNoiseReductionDetail = 50,
			Contrast = -21,
			ConvertToGrayscale = false,
			CropConstrainToWarp = 0,
			Defringe = 0,
			EnableCalibration = true,
			EnableColorAdjustments = true,
			EnableDetail = true,
			EnableEffects = true,
			EnableLensCorrections = true,
			EnableSplitToning = true,
			Exposure = 0.51,
			FillLight = 52,
			GrainAmount = 0,
			GrainFrequency = 50,
			GrainSize = 25,
			GreenHue = 0,
			GreenSaturation = 0,
			HighlightRecovery = 14,
			HueAdjustmentAqua = 0,
			HueAdjustmentBlue = 0,
			HueAdjustmentGreen = 0,
			HueAdjustmentMagenta = 0,
			HueAdjustmentOrange = 0,
			HueAdjustmentPurple = 0,
			HueAdjustmentRed = 0,
			HueAdjustmentYellow = 0,
			IncrementalTemperature = -17,
			IncrementalTint = -52,
			LensManualDistortionAmount = 0,
			LensProfileEnable = 0,
			LensProfileSetup = "LensDefaults",
			LuminanceAdjustmentAqua = 0,
			LuminanceAdjustmentBlue = 0,
			LuminanceAdjustmentGreen = 0,
			LuminanceAdjustmentMagenta = 0,
			LuminanceAdjustmentOrange = -36,
			LuminanceAdjustmentPurple = 0,
			LuminanceAdjustmentRed = 41,
			LuminanceAdjustmentYellow = 59,
			LuminanceNoiseReductionContrast = 0,
			LuminanceNoiseReductionDetail = 50,
			LuminanceSmoothing = 18,
			ParametricDarks = 0,
			ParametricHighlightSplit = 75,
			ParametricHighlights = 0,
			ParametricLights = -2,
			ParametricMidtoneSplit = 50,
			ParametricShadowSplit = 25,
			ParametricShadows = 0,
			PerspectiveHorizontal = 0,
			PerspectiveRotate = 0,
			PerspectiveScale = 100,
			PerspectiveVertical = 0,
			PostCropVignetteAmount = -36,
			PostCropVignetteFeather = 94,
			PostCropVignetteHighlightContrast = 0,
			PostCropVignetteMidpoint = 2,
			PostCropVignetteRoundness = -24,
			PostCropVignetteStyle = 1,
			ProcessVersion = "5.7",
			RedHue = 0,
			RedSaturation = 0,
			Saturation = -1,
			SaturationAdjustmentAqua = 0,
			SaturationAdjustmentBlue = 2,
			SaturationAdjustmentGreen = -23,
			SaturationAdjustmentMagenta = 0,
			SaturationAdjustmentOrange = -57,
			SaturationAdjustmentPurple = 0,
			SaturationAdjustmentRed = -41,
			SaturationAdjustmentYellow = -50,
			ShadowTint = 0,
			Shadows = 30,
			SharpenDetail = 25,
			SharpenEdgeMasking = 0,
			SharpenRadius = 1,
			Sharpness = 71,
			SplitToningBalance = 0,
			SplitToningHighlightHue = 248,
			SplitToningHighlightSaturation = 10,
			SplitToningShadowHue = 323,
			SplitToningShadowSaturation = 20,
			ToneCurve = {
				0,
				41,
				71,
				58,
				133,
				115,
				188,
				178,
				255,
				229,
			},
			ToneCurveName = "Custom",
			Vibrance = -45,
			VignetteAmount = 0,
			VignetteMidpoint = 20,
			WhiteBalance = "Custom",
			orientation = "AB",
		},
		uuid = "35B95670-6C73-438C-8315-FE1E17168C51",
	},
	version = 0,
}
