HQLightroomPresets 505 V.3.4/HQLightroomPresets 505 V.3.4/HQLightroomPresets Lr2-Lr3 JPEG/BW Shade Softly Touch ~ HQLightroomPresets.lrtemplate
s = {
	id = "6AD39A4F-C0BF-44CD-B7B2-0CF4AB6E2CB9",
	internalName = "BW Shade Softly Touch ~ HQLightroomPresets.com 2",
	title = "BW Shade Softly Touch ~ HQLightroomPresets",
	type = "Develop",
	value = {
		settings = {
			AutoBrightness = false,
			AutoContrast = false,
			AutoExposure = false,
			AutoShadows = false,
			BlueHue = 0,
			BlueSaturation = 0,
			Brightness = 33,
			CameraProfile = "Embedded",
			ChromaticAberrationB = 0,
			ChromaticAberrationR = 0,
			Clarity = 45,
			ColorNoiseReductionDetail = 50,
			Contrast = 11,
			ConvertToGrayscale = true,
			CropConstrainToWarp = 0,
			Defringe = 0,
			EnableCalibration = true,
			EnableDetail = true,
			EnableEffects = true,
			EnableGrayscaleMix = true,
			EnableLensCorrections = true,
			EnableSplitToning = true,
			Exposure = 0.51,
			FillLight = 29,
			GrainAmount = 0,
			GrainFrequency = 50,
			GrainSize = 50,
			GrayMixerAqua = 0,
			GrayMixerBlue = 25,
			GrayMixerGreen = 20,
			GrayMixerMagenta = 50,
			GrayMixerOrange = 0,
			GrayMixerPurple = 40,
			GrayMixerRed = -25,
			GrayMixerYellow = 0,
			GreenHue = 0,
			GreenSaturation = 0,
			HighlightRecovery = 82,
			IncrementalTemperature = -8,
			IncrementalTint = -9,
			LensManualDistortionAmount = 0,
			LensProfileEnable = 0,
			LensProfileSetup = "LensDefaults",
			LuminanceNoiseReductionContrast = 0,
			LuminanceNoiseReductionDetail = 50,
			LuminanceSmoothing = 38,
			ParametricDarks = -22,
			ParametricHighlightSplit = 75,
			ParametricHighlights = -10,
			ParametricLights = -11,
			ParametricMidtoneSplit = 50,
			ParametricShadowSplit = 25,
			ParametricShadows = 0,
			PerspectiveHorizontal = 0,
			PerspectiveRotate = 0,
			PerspectiveScale = 100,
			PerspectiveVertical = 0,
			PostCropVignetteAmount = -54,
			PostCropVignetteFeather = 92,
			PostCropVignetteHighlightContrast = 4,
			PostCropVignetteMidpoint = 38,
			PostCropVignetteRoundness = 36,
			PostCropVignetteStyle = 1,
			ProcessVersion = "5.7",
			RedHue = 0,
			RedSaturation = 0,
			ShadowTint = 0,
			Shadows = 7,
			SharpenDetail = 50,
			SharpenEdgeMasking = 0,
			SharpenRadius = 1,
			Sharpness = 43,
			SplitToningBalance = 0,
			SplitToningHighlightHue = 0,
			SplitToningHighlightSaturation = 0,
			SplitToningShadowHue = 248,
			SplitToningShadowSaturation = 24,
			ToneCurve = {
				0,
				49,
				83,
				74,
				131,
				119,
				193,
				181,
				255,
				222,
			},
			ToneCurveName = "Custom",
			VignetteAmount = 0,
			VignetteMidpoint = 50,
			WhiteBalance = "Custom",
			orientation = "AB",
		},
		uuid = "4F56A99B-267B-48A1-9E88-B22B82296633",
	},
	version = 0,
}
