HQLightroomPresets 505 V.3.4/HQLightroomPresets 505 V.3.4/HQLightroomPresets Lr2-Lr3 JPEG/Clean & Clear - Sharp Analogued ~ HQLightroomPresets.lrtemplate
s = {
	id = "32702B21-ED96-438A-B4E3-3B4CBF7F2A61",
	internalName = "Clean & Clear : Sharp Analogued ~ HQLightroomPresets.com 2",
	title = "Clean & Clear : Sharp Analogued ~ HQLightroomPresets",
	type = "Develop",
	value = {
		settings = {
			AutoBrightness = false,
			AutoContrast = false,
			AutoExposure = false,
			AutoShadows = false,
			BlueHue = 0,
			BlueSaturation = 0,
			Brightness = 0,
			CameraProfile = "Embedded",
			ChromaticAberrationB = 0,
			ChromaticAberrationR = 0,
			Clarity = 11,
			ColorNoiseReduction = 28,
			ColorNoiseReductionDetail = 50,
			Contrast = 3,
			ConvertToGrayscale = false,
			Defringe = 0,
			EnableCalibration = true,
			EnableColorAdjustments = true,
			EnableDetail = true,
			EnableEffects = true,
			EnableLensCorrections = true,
			EnableSplitToning = true,
			Exposure = 0.38,
			FillLight = 1,
			GrainAmount = 8,
			GrainFrequency = 50,
			GrainSize = 25,
			GreenHue = 0,
			GreenSaturation = 0,
			HighlightRecovery = 27,
			HueAdjustmentAqua = 0,
			HueAdjustmentBlue = 0,
			HueAdjustmentGreen = 0,
			HueAdjustmentMagenta = 0,
			HueAdjustmentOrange = 0,
			HueAdjustmentPurple = 0,
			HueAdjustmentRed = 0,
			HueAdjustmentYellow = 0,
			IncrementalTemperature = 0,
			IncrementalTint = 4,
			LuminanceAdjustmentAqua = -1,
			LuminanceAdjustmentBlue = 1,
			LuminanceAdjustmentGreen = 0,
			LuminanceAdjustmentMagenta = 0,
			LuminanceAdjustmentOrange = 0,
			LuminanceAdjustmentPurple = 0,
			LuminanceAdjustmentRed = 0,
			LuminanceAdjustmentYellow = 0,
			LuminanceNoiseReductionContrast = 0,
			LuminanceNoiseReductionDetail = 50,
			LuminanceSmoothing = 12,
			ParametricDarks = 25,
			ParametricHighlightSplit = 75,
			ParametricHighlights = 0,
			ParametricLights = 15,
			ParametricMidtoneSplit = 50,
			ParametricShadowSplit = 25,
			ParametricShadows = 25,
			PostCropVignetteAmount = -17,
			PostCropVignetteFeather = 100,
			PostCropVignetteHighlightContrast = 0,
			PostCropVignetteMidpoint = 0,
			PostCropVignetteRoundness = -33,
			PostCropVignetteStyle = 1,
			ProcessVersion = "5.7",
			RedHue = 0,
			RedSaturation = 0,
			Saturation = -43,
			SaturationAdjustmentAqua = 0,
			SaturationAdjustmentBlue = 0,
			SaturationAdjustmentGreen = 0,
			SaturationAdjustmentMagenta = 0,
			SaturationAdjustmentOrange = 0,
			SaturationAdjustmentPurple = 0,
			SaturationAdjustmentRed = 0,
			SaturationAdjustmentYellow = 0,
			ShadowTint = 0,
			Shadows = 9,
			SharpenDetail = 43,
			SharpenEdgeMasking = 0,
			SharpenRadius = 2.6,
			Sharpness = 109,
			SplitToningBalance = 0,
			SplitToningHighlightHue = 67,
			SplitToningHighlightSaturation = 11,
			SplitToningShadowHue = 259,
			SplitToningShadowSaturation = 20,
			ToneCurve = {
				0,
				0,
				32,
				22,
				64,
				56,
				128,
				128,
				192,
				196,
				255,
				255,
			},
			ToneCurveName = "Medium Contrast",
			Vibrance = -3,
			VignetteAmount = -14,
			VignetteMidpoint = 50,
			WhiteBalance = "Custom",
		},
		uuid = "DDC46109-96B9-43A9-897B-15E56FDCD79E",
	},
	version = 0,
}
