HQLightroomPresets 505 V.3.4/HQLightroomPresets 505 V.3.4/HQLightroomPresets Lr2-Lr3 JPEG/Clean & Clear - The Blues ~ HQLightroomPresets.lrtemplate
s = {
	id = "92EA7B97-E8B0-48E7-9FF4-A45FF760F2B1",
	internalName = "Clean & Clear : The Blues ~ HQLightroomPresets.com 2",
	title = "Clean & Clear : The Blues ~ HQLightroomPresets",
	type = "Develop",
	value = {
		settings = {
			AutoBrightness = false,
			AutoContrast = false,
			AutoExposure = false,
			AutoShadows = false,
			BlueHue = 0,
			BlueSaturation = 0,
			Brightness = 0,
			CameraProfile = "Embedded",
			ChromaticAberrationB = 0,
			ChromaticAberrationR = 0,
			Clarity = 15,
			ColorNoiseReduction = 28,
			ColorNoiseReductionDetail = 50,
			Contrast = 0,
			ConvertToGrayscale = false,
			Defringe = 0,
			EnableCalibration = true,
			EnableColorAdjustments = true,
			EnableDetail = true,
			EnableEffects = true,
			EnableLensCorrections = true,
			EnableSplitToning = true,
			Exposure = 0.21,
			FillLight = 18,
			GrainAmount = 0,
			GrainFrequency = 50,
			GrainSize = 25,
			GreenHue = 0,
			GreenSaturation = 0,
			HighlightRecovery = 0,
			HueAdjustmentAqua = 1,
			HueAdjustmentBlue = -2,
			HueAdjustmentGreen = -5,
			HueAdjustmentMagenta = -9,
			HueAdjustmentOrange = 15,
			HueAdjustmentPurple = -2,
			HueAdjustmentRed = 0,
			HueAdjustmentYellow = -16,
			IncrementalTemperature = -16,
			IncrementalTint = -16,
			LuminanceAdjustmentAqua = -30,
			LuminanceAdjustmentBlue = -36,
			LuminanceAdjustmentGreen = -4,
			LuminanceAdjustmentMagenta = -9,
			LuminanceAdjustmentOrange = -9,
			LuminanceAdjustmentPurple = -13,
			LuminanceAdjustmentRed = -2,
			LuminanceAdjustmentYellow = -5,
			LuminanceNoiseReductionContrast = 0,
			LuminanceNoiseReductionDetail = 50,
			LuminanceSmoothing = 13,
			ParametricDarks = -12,
			ParametricHighlightSplit = 75,
			ParametricHighlights = -30,
			ParametricLights = 17,
			ParametricMidtoneSplit = 50,
			ParametricShadowSplit = 25,
			ParametricShadows = 0,
			PostCropVignetteAmount = -8,
			PostCropVignetteFeather = 100,
			PostCropVignetteHighlightContrast = 0,
			PostCropVignetteMidpoint = 10,
			PostCropVignetteRoundness = -33,
			PostCropVignetteStyle = 1,
			ProcessVersion = "5.7",
			RedHue = 0,
			RedSaturation = 0,
			Saturation = -5,
			SaturationAdjustmentAqua = 12,
			SaturationAdjustmentBlue = -33,
			SaturationAdjustmentGreen = -35,
			SaturationAdjustmentMagenta = 1,
			SaturationAdjustmentOrange = -4,
			SaturationAdjustmentPurple = 18,
			SaturationAdjustmentRed = -4,
			SaturationAdjustmentYellow = 0,
			ShadowTint = 0,
			Shadows = 9,
			SharpenDetail = 50,
			SharpenEdgeMasking = 0,
			SharpenRadius = 1,
			Sharpness = 45,
			SplitToningBalance = 85,
			SplitToningHighlightHue = 0,
			SplitToningHighlightSaturation = 0,
			SplitToningShadowHue = 260,
			SplitToningShadowSaturation = 87,
			ToneCurve = {
				0,
				0,
				255,
				255,
			},
			ToneCurveName = "Linear",
			Vibrance = 21,
			VignetteAmount = -4,
			VignetteMidpoint = 47,
			WhiteBalance = "Custom",
		},
		uuid = "455C06EE-BD80-43CB-A797-7A648BC56A14",
	},
	version = 0,
}
