HQLightroomPresets 505 V.3.4/HQLightroomPresets 505 V.3.4/HQLightroomPresets Lr2-Lr3 JPEG/Dramatic - RainForest ~ HQLightroomPresets.lrtemplate
s = {
	id = "A5A14785-CC9A-42EE-BD84-29EB38792BBA",
	internalName = "Dramatic : RainForest ~ HQLightroomPresets.com  2",
	title = "Dramatic : RainForest ~ HQLightroomPresets",
	type = "Develop",
	value = {
		settings = {
			AutoBrightness = false,
			AutoContrast = false,
			AutoExposure = false,
			AutoShadows = false,
			BlueHue = 0,
			BlueSaturation = 0,
			Brightness = 26,
			CameraProfile = "Embedded",
			ChromaticAberrationB = 0,
			ChromaticAberrationR = 0,
			Clarity = 11,
			ColorNoiseReduction = 28,
			ColorNoiseReductionDetail = 50,
			Contrast = 14,
			ConvertToGrayscale = false,
			Defringe = 0,
			EnableCalibration = true,
			EnableColorAdjustments = true,
			EnableDetail = true,
			EnableEffects = true,
			EnableLensCorrections = true,
			EnableSplitToning = true,
			Exposure = 0.26,
			FillLight = 6,
			GrainAmount = 0,
			GrainFrequency = 50,
			GrainSize = 25,
			GreenHue = 0,
			GreenSaturation = 0,
			HighlightRecovery = 25,
			HueAdjustmentAqua = 1,
			HueAdjustmentBlue = 0,
			HueAdjustmentGreen = 0,
			HueAdjustmentMagenta = 0,
			HueAdjustmentOrange = 22,
			HueAdjustmentPurple = 0,
			HueAdjustmentRed = -13,
			HueAdjustmentYellow = 16,
			IncrementalTemperature = 4,
			IncrementalTint = -4,
			LuminanceAdjustmentAqua = -60,
			LuminanceAdjustmentBlue = -50,
			LuminanceAdjustmentGreen = -44,
			LuminanceAdjustmentMagenta = -13,
			LuminanceAdjustmentOrange = -24,
			LuminanceAdjustmentPurple = -28,
			LuminanceAdjustmentRed = -9,
			LuminanceAdjustmentYellow = -40,
			LuminanceNoiseReductionContrast = 0,
			LuminanceNoiseReductionDetail = 50,
			LuminanceSmoothing = 15,
			ParametricDarks = -27,
			ParametricHighlightSplit = 75,
			ParametricHighlights = -30,
			ParametricLights = 0,
			ParametricMidtoneSplit = 50,
			ParametricShadowSplit = 25,
			ParametricShadows = 0,
			PostCropVignetteAmount = -34,
			PostCropVignetteFeather = 100,
			PostCropVignetteHighlightContrast = 0,
			PostCropVignetteMidpoint = 20,
			PostCropVignetteRoundness = 16,
			PostCropVignetteStyle = 1,
			ProcessVersion = "5.7",
			RedHue = 0,
			RedSaturation = 0,
			Saturation = -22,
			SaturationAdjustmentAqua = 0,
			SaturationAdjustmentBlue = 0,
			SaturationAdjustmentGreen = -40,
			SaturationAdjustmentMagenta = 0,
			SaturationAdjustmentOrange = -12,
			SaturationAdjustmentPurple = 0,
			SaturationAdjustmentRed = 21,
			SaturationAdjustmentYellow = -29,
			ShadowTint = 0,
			Shadows = 3,
			SharpenDetail = 50,
			SharpenEdgeMasking = 0,
			SharpenRadius = 1,
			Sharpness = 50,
			SplitToningBalance = 85,
			SplitToningHighlightHue = 0,
			SplitToningHighlightSaturation = 0,
			SplitToningShadowHue = 169,
			SplitToningShadowSaturation = 20,
			ToneCurve = {
				0,
				0,
				255,
				255,
			},
			ToneCurveName = "Linear",
			Vibrance = -8,
			VignetteAmount = 0,
			VignetteMidpoint = 20,
			WhiteBalance = "Custom",
		},
		uuid = "C83B5F2D-0826-4D97-9E0F-AB48085B8EA0",
	},
	version = 0,
}
