HQLightroomPresets 505 V.3.4/HQLightroomPresets 505 V.3.4/HQLightroomPresets Lr2-Lr3 JPEG/Easy Shade - Thick Yellow ~ HQLightroomPresets.lrtemplate
s = {
	id = "2A993B26-1CE9-4A89-8E56-2ED1E6CA8D41",
	internalName = "Easy Shade : Thick Yellow ~ HQLightroomPresets.com 2",
	title = "Easy Shade : Thick Yellow ~ HQLightroomPresets",
	type = "Develop",
	value = {
		settings = {
			AutoBrightness = false,
			AutoContrast = false,
			AutoExposure = false,
			AutoShadows = false,
			BlueHue = 0,
			BlueSaturation = 0,
			Brightness = 14,
			CameraProfile = "Embedded",
			ChromaticAberrationB = 0,
			ChromaticAberrationR = 0,
			Clarity = 0,
			ColorNoiseReduction = 0,
			ColorNoiseReductionDetail = 50,
			Contrast = 0,
			ConvertToGrayscale = false,
			CropConstrainToWarp = 0,
			Defringe = 0,
			EnableCalibration = true,
			EnableColorAdjustments = true,
			EnableDetail = true,
			EnableEffects = true,
			EnableLensCorrections = true,
			EnableSplitToning = true,
			Exposure = 0.23,
			FillLight = 22,
			GrainAmount = 0,
			GrainFrequency = 50,
			GrainSize = 25,
			GreenHue = 0,
			GreenSaturation = 0,
			HighlightRecovery = 31,
			HueAdjustmentAqua = 0,
			HueAdjustmentBlue = 0,
			HueAdjustmentGreen = 0,
			HueAdjustmentMagenta = 0,
			HueAdjustmentOrange = 0,
			HueAdjustmentPurple = 0,
			HueAdjustmentRed = 0,
			HueAdjustmentYellow = 0,
			IncrementalTemperature = 0,
			IncrementalTint = 0,
			LensManualDistortionAmount = 0,
			LensProfileEnable = 0,
			LensProfileSetup = "LensDefaults",
			LuminanceAdjustmentAqua = 0,
			LuminanceAdjustmentBlue = 0,
			LuminanceAdjustmentGreen = 0,
			LuminanceAdjustmentMagenta = 0,
			LuminanceAdjustmentOrange = 0,
			LuminanceAdjustmentPurple = 0,
			LuminanceAdjustmentRed = 0,
			LuminanceAdjustmentYellow = 0,
			LuminanceNoiseReductionContrast = 0,
			LuminanceNoiseReductionDetail = 50,
			LuminanceSmoothing = 11,
			ParametricDarks = -13,
			ParametricHighlightSplit = 76,
			ParametricHighlights = -18,
			ParametricLights = 3,
			ParametricMidtoneSplit = 50,
			ParametricShadowSplit = 25,
			ParametricShadows = -19,
			PerspectiveHorizontal = 0,
			PerspectiveRotate = 0,
			PerspectiveScale = 100,
			PerspectiveVertical = 0,
			PostCropVignetteAmount = -38,
			PostCropVignetteFeather = 84,
			PostCropVignetteHighlightContrast = 0,
			PostCropVignetteMidpoint = 24,
			PostCropVignetteRoundness = 45,
			PostCropVignetteStyle = 1,
			ProcessVersion = "5.7",
			RedHue = 0,
			RedSaturation = 0,
			Saturation = -16,
			SaturationAdjustmentAqua = -44,
			SaturationAdjustmentBlue = -26,
			SaturationAdjustmentGreen = -58,
			SaturationAdjustmentMagenta = 0,
			SaturationAdjustmentOrange = 0,
			SaturationAdjustmentPurple = 0,
			SaturationAdjustmentRed = 0,
			SaturationAdjustmentYellow = -35,
			ShadowTint = 0,
			Shadows = 0,
			SharpenDetail = 25,
			SharpenEdgeMasking = 0,
			SharpenRadius = 1,
			Sharpness = 56,
			SplitToningBalance = 42,
			SplitToningHighlightHue = 56,
			SplitToningHighlightSaturation = 55,
			SplitToningShadowHue = 343,
			SplitToningShadowSaturation = 29,
			ToneCurve = {
				0,
				61,
				59,
				89,
				130,
				136,
				192,
				190,
				255,
				228,
			},
			ToneCurveName = "Custom",
			Vibrance = 5,
			VignetteAmount = 0,
			VignetteMidpoint = 23,
			WhiteBalance = "Custom",
			orientation = "AB",
		},
		uuid = "CF5FB3B2-34ED-4CA2-B6E1-80DD6F2C927D",
	},
	version = 0,
}
