HQLightroomPresets 505 V.3.4/HQLightroomPresets 505 V.3.4/HQLightroomPresets Lr2-Lr3 JPEG/Easy Shade - Radiation Yellow Bold ~ HQLightroomPresets.lrtemplate
s = {
	id = "39720E78-A152-497E-A50C-D94907BD146C",
	internalName = "Easy Shade : Radiation Yellow Bold ~ HQLightroomPresets.com 2",
	title = "Easy Shade : Radiation Yellow Bold ~ HQLightroomPresets",
	type = "Develop",
	value = {
		settings = {
			AutoBrightness = false,
			AutoContrast = false,
			AutoExposure = false,
			AutoShadows = false,
			BlueHue = 0,
			BlueSaturation = 0,
			Brightness = 16,
			CameraProfile = "Embedded",
			ChromaticAberrationB = 0,
			ChromaticAberrationR = 0,
			Clarity = 53,
			ColorNoiseReduction = 25,
			ColorNoiseReductionDetail = 50,
			Contrast = 12,
			ConvertToGrayscale = false,
			CropConstrainToWarp = 0,
			Defringe = 0,
			EnableCalibration = true,
			EnableColorAdjustments = true,
			EnableDetail = true,
			EnableEffects = true,
			EnableLensCorrections = true,
			EnableSplitToning = true,
			Exposure = 0.41,
			FillLight = 26,
			GrainAmount = 0,
			GrainFrequency = 50,
			GrainSize = 25,
			GreenHue = 0,
			GreenSaturation = 0,
			HighlightRecovery = 12,
			HueAdjustmentAqua = 0,
			HueAdjustmentBlue = 0,
			HueAdjustmentGreen = 0,
			HueAdjustmentMagenta = 0,
			HueAdjustmentOrange = 0,
			HueAdjustmentPurple = 0,
			HueAdjustmentRed = 0,
			HueAdjustmentYellow = 0,
			IncrementalTemperature = 14,
			IncrementalTint = 5,
			LensManualDistortionAmount = 0,
			LensProfileEnable = 0,
			LensProfileSetup = "LensDefaults",
			LuminanceAdjustmentAqua = 0,
			LuminanceAdjustmentBlue = -38,
			LuminanceAdjustmentGreen = 0,
			LuminanceAdjustmentMagenta = 0,
			LuminanceAdjustmentOrange = -22,
			LuminanceAdjustmentPurple = 0,
			LuminanceAdjustmentRed = -36,
			LuminanceAdjustmentYellow = -29,
			LuminanceNoiseReductionContrast = 0,
			LuminanceNoiseReductionDetail = 50,
			LuminanceSmoothing = 7,
			ParametricDarks = 0,
			ParametricHighlightSplit = 75,
			ParametricHighlights = 0,
			ParametricLights = -2,
			ParametricMidtoneSplit = 50,
			ParametricShadowSplit = 25,
			ParametricShadows = 0,
			PerspectiveHorizontal = 0,
			PerspectiveRotate = 0,
			PerspectiveScale = 100,
			PerspectiveVertical = 0,
			PostCropVignetteAmount = -29,
			PostCropVignetteFeather = 79,
			PostCropVignetteHighlightContrast = 0,
			PostCropVignetteMidpoint = 22,
			PostCropVignetteRoundness = 0,
			PostCropVignetteStyle = 1,
			ProcessVersion = "5.7",
			RedHue = 0,
			RedSaturation = 0,
			Saturation = 23,
			SaturationAdjustmentAqua = 0,
			SaturationAdjustmentBlue = 59,
			SaturationAdjustmentGreen = 0,
			SaturationAdjustmentMagenta = 0,
			SaturationAdjustmentOrange = -52,
			SaturationAdjustmentPurple = 0,
			SaturationAdjustmentRed = -70,
			SaturationAdjustmentYellow = -88,
			ShadowTint = 0,
			Shadows = 6,
			SharpenDetail = 25,
			SharpenEdgeMasking = 0,
			SharpenRadius = 1,
			Sharpness = 57,
			SplitToningBalance = 53,
			SplitToningHighlightHue = 261,
			SplitToningHighlightSaturation = 13,
			SplitToningShadowHue = 53,
			SplitToningShadowSaturation = 71,
			ToneCurve = {
				0,
				22,
				61,
				66,
				134,
				127,
				193,
				178,
				255,
				229,
			},
			ToneCurveName = "Custom",
			Vibrance = 9,
			VignetteAmount = -1,
			VignetteMidpoint = 20,
			WhiteBalance = "Custom",
			orientation = "AB",
		},
		uuid = "27EA8153-139D-4339-9C01-D97C9BB253D6",
	},
	version = 0,
}
