HQLightroomPresets 505 V.3.4/HQLightroomPresets 505 V.3.4/HQLightroomPresets Lr2-Lr3 JPEG/Easy Shade - Dark Sunday ~ HQLightroomPresets.lrtemplate
s = {
	id = "32BE5AE3-303C-4359-AA90-D4279DBCEB98",
	internalName = "Easy Shade : Dark Sunday ~ HQLightroomPresets.com 2",
	title = "Easy Shade : Dark Sunday ~ HQLightroomPresets",
	type = "Develop",
	value = {
		settings = {
			AutoBrightness = false,
			AutoContrast = false,
			AutoExposure = false,
			AutoShadows = false,
			BlueHue = 0,
			BlueSaturation = 0,
			Brightness = 16,
			CameraProfile = "Embedded",
			ChromaticAberrationB = 0,
			ChromaticAberrationR = 0,
			Clarity = 53,
			ColorNoiseReduction = 25,
			ColorNoiseReductionDetail = 50,
			Contrast = 12,
			ConvertToGrayscale = false,
			Defringe = 0,
			EnableCalibration = true,
			EnableColorAdjustments = true,
			EnableDetail = true,
			EnableEffects = true,
			EnableLensCorrections = true,
			EnableSplitToning = true,
			Exposure = 0.07,
			FillLight = 43,
			GrainAmount = 0,
			GrainFrequency = 50,
			GrainSize = 25,
			GreenHue = 0,
			GreenSaturation = 0,
			HighlightRecovery = 12,
			HueAdjustmentAqua = 0,
			HueAdjustmentBlue = 0,
			HueAdjustmentGreen = 0,
			HueAdjustmentMagenta = 0,
			HueAdjustmentOrange = 20,
			HueAdjustmentPurple = 0,
			HueAdjustmentRed = 12,
			HueAdjustmentYellow = 3,
			IncrementalTemperature = 0,
			IncrementalTint = 13,
			LuminanceAdjustmentAqua = 0,
			LuminanceAdjustmentBlue = -15,
			LuminanceAdjustmentGreen = 0,
			LuminanceAdjustmentMagenta = 0,
			LuminanceAdjustmentOrange = -19,
			LuminanceAdjustmentPurple = 0,
			LuminanceAdjustmentRed = -19,
			LuminanceAdjustmentYellow = -22,
			LuminanceNoiseReductionContrast = 0,
			LuminanceNoiseReductionDetail = 50,
			LuminanceSmoothing = 7,
			ParametricDarks = 0,
			ParametricHighlightSplit = 75,
			ParametricHighlights = 0,
			ParametricLights = -2,
			ParametricMidtoneSplit = 50,
			ParametricShadowSplit = 25,
			ParametricShadows = 0,
			PostCropVignetteAmount = -41,
			PostCropVignetteFeather = 79,
			PostCropVignetteHighlightContrast = 0,
			PostCropVignetteMidpoint = 22,
			PostCropVignetteRoundness = 0,
			PostCropVignetteStyle = 1,
			ProcessVersion = "5.7",
			RedHue = 0,
			RedSaturation = 0,
			Saturation = 13,
			SaturationAdjustmentAqua = 0,
			SaturationAdjustmentBlue = 35,
			SaturationAdjustmentGreen = 0,
			SaturationAdjustmentMagenta = 0,
			SaturationAdjustmentOrange = -36,
			SaturationAdjustmentPurple = 0,
			SaturationAdjustmentRed = -25,
			SaturationAdjustmentYellow = -14,
			ShadowTint = 0,
			Shadows = 14,
			SharpenDetail = 25,
			SharpenEdgeMasking = 0,
			SharpenRadius = 1,
			Sharpness = 57,
			SplitToningBalance = 53,
			SplitToningHighlightHue = 58,
			SplitToningHighlightSaturation = 8,
			SplitToningShadowHue = 244,
			SplitToningShadowSaturation = 56,
			ToneCurve = {
				0,
				22,
				61,
				69,
				128,
				128,
				188,
				175,
				255,
				229,
			},
			ToneCurveName = "Custom",
			Vibrance = 84,
			VignetteAmount = -1,
			VignetteMidpoint = 20,
			WhiteBalance = "Custom",
		},
		uuid = "4D6B334E-2060-4D44-AC21-A4200B87C138",
	},
	version = 0,
}
