HQLightroomPresets 505 V.3.4/HQLightroomPresets 505 V.3.4/HQLightroomPresets Lr2-Lr3 JPEG/False Color II - 92 Vegeta XP ~ HQLightroomPresets.lrtemplate
s = {
	id = "C954BA26-DBCD-4CAA-9A96-BA0E53C2C20F",
	internalName = "False Color II : 92 Vegeta XP 2",
	title = "False Color II : 92 Vegeta XP ~ HQLightroomPresets",
	type = "Develop",
	value = {
		settings = {
			AutoBrightness = false,
			AutoContrast = false,
			AutoExposure = false,
			AutoShadows = false,
			BlueHue = 3,
			BlueSaturation = 31,
			Brightness = -16,
			CameraProfile = "Embedded",
			ChromaticAberrationB = 0,
			ChromaticAberrationR = 0,
			Clarity = 23,
			ColorNoiseReduction = 18,
			ColorNoiseReductionDetail = 12,
			Contrast = 1,
			ConvertToGrayscale = false,
			Defringe = 0,
			EnableCalibration = true,
			EnableColorAdjustments = true,
			EnableDetail = true,
			EnableEffects = true,
			EnableLensCorrections = true,
			EnableSplitToning = true,
			Exposure = -0.86,
			FillLight = 11,
			GrainAmount = 0,
			GrainFrequency = 50,
			GrainSize = 25,
			GreenHue = 100,
			GreenSaturation = -86,
			HighlightRecovery = 0,
			HueAdjustmentAqua = 11,
			HueAdjustmentBlue = 11,
			HueAdjustmentGreen = -50,
			HueAdjustmentMagenta = 0,
			HueAdjustmentOrange = 0,
			HueAdjustmentPurple = 0,
			HueAdjustmentRed = -5,
			HueAdjustmentYellow = 0,
			IncrementalTemperature = 20,
			IncrementalTint = -26,
			LuminanceAdjustmentAqua = 61,
			LuminanceAdjustmentBlue = 57,
			LuminanceAdjustmentGreen = 100,
			LuminanceAdjustmentMagenta = 64,
			LuminanceAdjustmentOrange = 82,
			LuminanceAdjustmentPurple = 57,
			LuminanceAdjustmentRed = 75,
			LuminanceAdjustmentYellow = 82,
			LuminanceNoiseReductionContrast = 0,
			LuminanceNoiseReductionDetail = 50,
			LuminanceSmoothing = 15,
			ParametricDarks = 52,
			ParametricHighlightSplit = 90,
			ParametricHighlights = 0,
			ParametricLights = 0,
			ParametricMidtoneSplit = 59,
			ParametricShadowSplit = 10,
			ParametricShadows = 0,
			PostCropVignetteAmount = -31,
			PostCropVignetteFeather = 84,
			PostCropVignetteHighlightContrast = 0,
			PostCropVignetteMidpoint = 10,
			PostCropVignetteRoundness = 33,
			PostCropVignetteStyle = 1,
			ProcessVersion = "5.7",
			RedHue = -20,
			RedSaturation = -84,
			Saturation = -8,
			SaturationAdjustmentAqua = -100,
			SaturationAdjustmentBlue = 0,
			SaturationAdjustmentGreen = 5,
			SaturationAdjustmentMagenta = 0,
			SaturationAdjustmentOrange = -16,
			SaturationAdjustmentPurple = 0,
			SaturationAdjustmentRed = 7,
			SaturationAdjustmentYellow = -16,
			ShadowTint = 63,
			Shadows = 9,
			SharpenDetail = 28,
			SharpenEdgeMasking = 0,
			SharpenRadius = 1.5,
			Sharpness = 67,
			SplitToningBalance = 47,
			SplitToningHighlightHue = 252,
			SplitToningHighlightSaturation = 22,
			SplitToningShadowHue = 120,
			SplitToningShadowSaturation = 22,
			ToneCurve = {
				12,
				19,
				122,
				143,
				255,
				255,
			},
			ToneCurveName = "Custom",
			Vibrance = 100,
			VignetteAmount = -18,
			VignetteMidpoint = 50,
			WhiteBalance = "Custom",
		},
		uuid = "D81541A7-6561-4FDB-8245-E97937DF5C79",
	},
	version = 0,
}
