HQLightroomPresets 505 V.3.4/HQLightroomPresets 505 V.3.4/HQLightroomPresets Lr2-Lr3 JPEG/False Color II - 1 Cool Eyes ~ HQLightroomPresets.lrtemplate
s = {
	id = "26C7911F-48FC-4C5D-B278-746474E0B40D",
	internalName = "False Color II : 1 Cool Eyes 2",
	title = "False Color II : 1 Cool Eyes ~ HQLightroomPresets",
	type = "Develop",
	value = {
		settings = {
			AutoBrightness = false,
			AutoContrast = false,
			AutoExposure = false,
			AutoShadows = false,
			BlueHue = -49,
			BlueSaturation = 10,
			Brightness = -16,
			CameraProfile = "Embedded",
			ChromaticAberrationB = 0,
			ChromaticAberrationR = 0,
			Clarity = 23,
			ColorNoiseReduction = 18,
			ColorNoiseReductionDetail = 12,
			Contrast = 1,
			ConvertToGrayscale = false,
			CropConstrainToWarp = 0,
			Defringe = 0,
			EnableCalibration = true,
			EnableColorAdjustments = true,
			EnableDetail = true,
			EnableEffects = true,
			EnableLensCorrections = true,
			EnableSplitToning = true,
			Exposure = -1.06,
			FillLight = 3,
			GrainAmount = 0,
			GrainFrequency = 50,
			GrainSize = 25,
			GreenHue = 46,
			GreenSaturation = 15,
			HighlightRecovery = 0,
			HueAdjustmentAqua = 0,
			HueAdjustmentBlue = 0,
			HueAdjustmentGreen = 0,
			HueAdjustmentMagenta = 0,
			HueAdjustmentOrange = 0,
			HueAdjustmentPurple = 0,
			HueAdjustmentRed = 0,
			HueAdjustmentYellow = 0,
			IncrementalTemperature = 82,
			IncrementalTint = -75,
			LensManualDistortionAmount = 0,
			LensProfileEnable = 0,
			LensProfileSetup = "LensDefaults",
			LuminanceAdjustmentAqua = 0,
			LuminanceAdjustmentBlue = 0,
			LuminanceAdjustmentGreen = 0,
			LuminanceAdjustmentMagenta = 0,
			LuminanceAdjustmentOrange = 43,
			LuminanceAdjustmentPurple = 0,
			LuminanceAdjustmentRed = 57,
			LuminanceAdjustmentYellow = 45,
			LuminanceNoiseReductionContrast = 0,
			LuminanceNoiseReductionDetail = 50,
			LuminanceSmoothing = 15,
			ParametricDarks = 52,
			ParametricHighlightSplit = 90,
			ParametricHighlights = 0,
			ParametricLights = 0,
			ParametricMidtoneSplit = 59,
			ParametricShadowSplit = 10,
			ParametricShadows = 0,
			PerspectiveHorizontal = 0,
			PerspectiveRotate = 0,
			PerspectiveScale = 100,
			PerspectiveVertical = 0,
			PostCropVignetteAmount = -13,
			PostCropVignetteFeather = 89,
			PostCropVignetteHighlightContrast = 0,
			PostCropVignetteMidpoint = 10,
			PostCropVignetteRoundness = 10,
			PostCropVignetteStyle = 1,
			ProcessVersion = "5.7",
			RedHue = 100,
			RedSaturation = -100,
			Saturation = -17,
			SaturationAdjustmentAqua = -47,
			SaturationAdjustmentBlue = -33,
			SaturationAdjustmentGreen = -68,
			SaturationAdjustmentMagenta = 0,
			SaturationAdjustmentOrange = -16,
			SaturationAdjustmentPurple = 0,
			SaturationAdjustmentRed = -2,
			SaturationAdjustmentYellow = -41,
			ShadowTint = 0,
			Shadows = 14,
			SharpenDetail = 28,
			SharpenEdgeMasking = 0,
			SharpenRadius = 1.5,
			Sharpness = 67,
			SplitToningBalance = 0,
			SplitToningHighlightHue = 230,
			SplitToningHighlightSaturation = 12,
			SplitToningShadowHue = 258,
			SplitToningShadowSaturation = 53,
			ToneCurve = {
				0,
				0,
				255,
				255,
			},
			ToneCurveName = "Linear",
			Vibrance = 12,
			VignetteAmount = -13,
			VignetteMidpoint = 50,
			WhiteBalance = "Custom",
			orientation = "AB",
		},
		uuid = "D1947931-CB49-4B87-BD21-600E5FBB38D1",
	},
	version = 0,
}
