HQLightroomPresets 505 V.3.4/HQLightroomPresets 505 V.3.4/HQLightroomPresets Lr2-Lr3 JPEG/False Color II - 39 Fried Celery ~ HQLightroomPresets.lrtemplate
s = {
	id = "E07F98B5-9460-4B06-A8D7-0CDDCE3363BF",
	internalName = "False Color II : 39 Fried Celery 2",
	title = "False Color II : 39 Fried Celery ~ HQLightroomPresets",
	type = "Develop",
	value = {
		settings = {
			AutoBrightness = false,
			AutoContrast = false,
			AutoExposure = false,
			AutoShadows = false,
			BlueHue = -20,
			BlueSaturation = -100,
			Brightness = -16,
			CameraProfile = "Embedded",
			ChromaticAberrationB = 0,
			ChromaticAberrationR = 0,
			Clarity = 23,
			ColorNoiseReduction = 18,
			ColorNoiseReductionDetail = 12,
			Contrast = 1,
			ConvertToGrayscale = false,
			Defringe = 0,
			EnableCalibration = true,
			EnableColorAdjustments = true,
			EnableDetail = true,
			EnableEffects = true,
			EnableLensCorrections = true,
			EnableSplitToning = true,
			Exposure = -0.86,
			FillLight = 25,
			GrainAmount = 0,
			GrainFrequency = 50,
			GrainSize = 25,
			GreenHue = 6,
			GreenSaturation = 98,
			HighlightRecovery = 0,
			HueAdjustmentAqua = 43,
			HueAdjustmentBlue = 9,
			HueAdjustmentGreen = -15,
			HueAdjustmentMagenta = 0,
			HueAdjustmentOrange = 0,
			HueAdjustmentPurple = 0,
			HueAdjustmentRed = 32,
			HueAdjustmentYellow = 0,
			IncrementalTemperature = -82,
			IncrementalTint = -75,
			LuminanceAdjustmentAqua = -23,
			LuminanceAdjustmentBlue = -57,
			LuminanceAdjustmentGreen = 100,
			LuminanceAdjustmentMagenta = 64,
			LuminanceAdjustmentOrange = 86,
			LuminanceAdjustmentPurple = 57,
			LuminanceAdjustmentRed = -82,
			LuminanceAdjustmentYellow = 91,
			LuminanceNoiseReductionContrast = 0,
			LuminanceNoiseReductionDetail = 50,
			LuminanceSmoothing = 15,
			ParametricDarks = 52,
			ParametricHighlightSplit = 90,
			ParametricHighlights = 0,
			ParametricLights = 0,
			ParametricMidtoneSplit = 59,
			ParametricShadowSplit = 10,
			ParametricShadows = 0,
			PostCropVignetteAmount = -15,
			PostCropVignetteFeather = 50,
			PostCropVignetteHighlightContrast = 0,
			PostCropVignetteMidpoint = 10,
			PostCropVignetteRoundness = -27,
			PostCropVignetteStyle = 1,
			ProcessVersion = "5.7",
			RedHue = -38,
			RedSaturation = -13,
			Saturation = -1,
			SaturationAdjustmentAqua = -43,
			SaturationAdjustmentBlue = 6,
			SaturationAdjustmentGreen = -95,
			SaturationAdjustmentMagenta = 0,
			SaturationAdjustmentOrange = 7,
			SaturationAdjustmentPurple = 0,
			SaturationAdjustmentRed = 9,
			SaturationAdjustmentYellow = -20,
			ShadowTint = 36,
			Shadows = 14,
			SharpenDetail = 28,
			SharpenEdgeMasking = 0,
			SharpenRadius = 1.5,
			Sharpness = 67,
			SplitToningBalance = 49,
			SplitToningHighlightHue = 360,
			SplitToningHighlightSaturation = 11,
			SplitToningShadowHue = 360,
			SplitToningShadowSaturation = 74,
			ToneCurve = {
				0,
				10,
				109,
				159,
				255,
				255,
			},
			ToneCurveName = "Custom",
			Vibrance = 22,
			VignetteAmount = -18,
			VignetteMidpoint = 50,
			WhiteBalance = "Custom",
		},
		uuid = "07B23F45-1F45-4A18-A6C2-FAE4E06C1713",
	},
	version = 0,
}
