HQLightroomPresets 505 V.3.4/HQLightroomPresets 505 V.3.4/HQLightroomPresets Lr2-Lr3 JPEG/False Color II - 7 Cold Orange Infra ~ HQLightroomPresets.lrtemplate
s = {
	id = "F3D0A3DB-6DD6-4748-B365-CD3832F16BB0",
	internalName = "False Color II : 7 Cold Orange Infra 2",
	title = "False Color II : 7 Cold Orange Infra ~ HQLightroomPresets",
	type = "Develop",
	value = {
		settings = {
			AutoBrightness = false,
			AutoContrast = false,
			AutoExposure = false,
			AutoShadows = false,
			BlueHue = -82,
			BlueSaturation = 22,
			Brightness = -71,
			CameraProfile = "ACR 4.4",
			ChromaticAberrationB = 0,
			ChromaticAberrationR = 0,
			Clarity = 24,
			ColorNoiseReduction = 0,
			ColorNoiseReductionDetail = 50,
			Contrast = 5,
			ConvertToGrayscale = false,
			Defringe = 0,
			EnableCalibration = true,
			EnableColorAdjustments = true,
			EnableDetail = true,
			EnableEffects = true,
			EnableLensCorrections = true,
			EnableSplitToning = true,
			Exposure = -0.41,
			FillLight = 10,
			GrainAmount = 0,
			GrainFrequency = 50,
			GrainSize = 50,
			GreenHue = 100,
			GreenSaturation = 24,
			HighlightRecovery = 8,
			HueAdjustmentAqua = 100,
			HueAdjustmentBlue = -9,
			HueAdjustmentGreen = -100,
			HueAdjustmentMagenta = 0,
			HueAdjustmentOrange = 0,
			HueAdjustmentPurple = 0,
			HueAdjustmentRed = 100,
			HueAdjustmentYellow = 0,
			IncrementalTemperature = 59,
			IncrementalTint = -70,
			LuminanceAdjustmentAqua = 100,
			LuminanceAdjustmentBlue = 100,
			LuminanceAdjustmentGreen = 100,
			LuminanceAdjustmentMagenta = 0,
			LuminanceAdjustmentOrange = 73,
			LuminanceAdjustmentPurple = 0,
			LuminanceAdjustmentRed = 100,
			LuminanceAdjustmentYellow = 100,
			LuminanceNoiseReductionContrast = 0,
			LuminanceNoiseReductionDetail = 50,
			LuminanceSmoothing = 13,
			ParametricDarks = 52,
			ParametricHighlightSplit = 90,
			ParametricHighlights = 0,
			ParametricLights = 0,
			ParametricMidtoneSplit = 59,
			ParametricShadowSplit = 10,
			ParametricShadows = 0,
			PostCropVignetteAmount = -10,
			PostCropVignetteFeather = 50,
			PostCropVignetteHighlightContrast = 0,
			PostCropVignetteMidpoint = 50,
			PostCropVignetteRoundness = 0,
			PostCropVignetteStyle = 1,
			ProcessVersion = "5.7",
			RedHue = 68,
			RedSaturation = 0,
			Saturation = -13,
			SaturationAdjustmentAqua = -100,
			SaturationAdjustmentBlue = -7,
			SaturationAdjustmentGreen = -100,
			SaturationAdjustmentMagenta = -14,
			SaturationAdjustmentOrange = -18,
			SaturationAdjustmentPurple = -14,
			SaturationAdjustmentRed = 14,
			SaturationAdjustmentYellow = -20,
			ShadowTint = 0,
			Shadows = 30,
			SharpenDetail = 25,
			SharpenEdgeMasking = 0,
			SharpenRadius = 1,
			Sharpness = 50,
			SplitToningBalance = 91,
			SplitToningHighlightHue = 215,
			SplitToningHighlightSaturation = 6,
			SplitToningShadowHue = 302,
			SplitToningShadowSaturation = 43,
			ToneCurve = {
				2,
				26,
				109,
				113,
				156,
				156,
				255,
				255,
			},
			ToneCurveName = "Custom",
			Vibrance = -95,
			VignetteAmount = 0,
			VignetteMidpoint = 50,
			WhiteBalance = "Custom",
		},
		uuid = "6CF23B47-7D9F-4E54-B335-B2F38ACF1CA8",
	},
	version = 0,
}
