HQLightroomPresets 505 V.3.4/HQLightroomPresets 505 V.3.4/HQLightroomPresets Lr2-Lr3 JPEG/False Color II - 83 Medium Orchid ~ HQLightroomPresets.lrtemplate
s = {
	id = "C6526CCA-C18A-467F-9E12-F795F4806788",
	internalName = "False Color II : 83 Medium Orchid 2",
	title = "False Color II : 83 Medium Orchid ~ HQLightroomPresets",
	type = "Develop",
	value = {
		settings = {
			AutoBrightness = false,
			AutoContrast = false,
			AutoExposure = false,
			AutoShadows = false,
			BlueHue = -24,
			BlueSaturation = 15,
			Brightness = -16,
			CameraProfile = "Embedded",
			ChromaticAberrationB = 0,
			ChromaticAberrationR = 0,
			Clarity = 23,
			ColorNoiseReduction = 18,
			ColorNoiseReductionDetail = 12,
			Contrast = 1,
			ConvertToGrayscale = false,
			CropConstrainToWarp = 0,
			Defringe = 0,
			EnableCalibration = true,
			EnableColorAdjustments = true,
			EnableDetail = true,
			EnableEffects = true,
			EnableLensCorrections = true,
			EnableSplitToning = true,
			Exposure = -1.06,
			FillLight = 8,
			GrainAmount = 0,
			GrainFrequency = 50,
			GrainSize = 25,
			GreenHue = -59,
			GreenSaturation = 68,
			HighlightRecovery = 0,
			HueAdjustmentAqua = 11,
			HueAdjustmentBlue = 2,
			HueAdjustmentGreen = 73,
			HueAdjustmentMagenta = 0,
			HueAdjustmentOrange = 0,
			HueAdjustmentPurple = 23,
			HueAdjustmentRed = 20,
			HueAdjustmentYellow = 0,
			IncrementalTemperature = 17,
			IncrementalTint = 84,
			LensManualDistortionAmount = 0,
			LensProfileEnable = 0,
			LensProfileSetup = "LensDefaults",
			LuminanceAdjustmentAqua = 61,
			LuminanceAdjustmentBlue = 57,
			LuminanceAdjustmentGreen = 61,
			LuminanceAdjustmentMagenta = 64,
			LuminanceAdjustmentOrange = 57,
			LuminanceAdjustmentPurple = 57,
			LuminanceAdjustmentRed = 61,
			LuminanceAdjustmentYellow = 59,
			LuminanceNoiseReductionContrast = 0,
			LuminanceNoiseReductionDetail = 50,
			LuminanceSmoothing = 15,
			ParametricDarks = 52,
			ParametricHighlightSplit = 90,
			ParametricHighlights = 0,
			ParametricLights = 0,
			ParametricMidtoneSplit = 59,
			ParametricShadowSplit = 10,
			ParametricShadows = 0,
			PerspectiveHorizontal = 0,
			PerspectiveRotate = 0,
			PerspectiveScale = 100,
			PerspectiveVertical = 0,
			PostCropVignetteAmount = -22,
			PostCropVignetteFeather = 87,
			PostCropVignetteHighlightContrast = 0,
			PostCropVignetteMidpoint = 10,
			PostCropVignetteRoundness = 47,
			PostCropVignetteStyle = 1,
			ProcessVersion = "5.7",
			RedHue = 82,
			RedSaturation = -100,
			Saturation = 36,
			SaturationAdjustmentAqua = -36,
			SaturationAdjustmentBlue = -2,
			SaturationAdjustmentGreen = -82,
			SaturationAdjustmentMagenta = 0,
			SaturationAdjustmentOrange = -25,
			SaturationAdjustmentPurple = 0,
			SaturationAdjustmentRed = -27,
			SaturationAdjustmentYellow = -57,
			ShadowTint = 95,
			Shadows = 14,
			SharpenDetail = 28,
			SharpenEdgeMasking = 0,
			SharpenRadius = 1.5,
			Sharpness = 67,
			SplitToningBalance = 70,
			SplitToningHighlightHue = 232,
			SplitToningHighlightSaturation = 34,
			SplitToningShadowHue = 265,
			SplitToningShadowSaturation = 93,
			ToneCurve = {
				20,
				53,
				115,
				154,
				214,
				241,
			},
			ToneCurveName = "Custom",
			Vibrance = 66,
			VignetteAmount = -18,
			VignetteMidpoint = 50,
			WhiteBalance = "Custom",
			orientation = "AB",
		},
		uuid = "042DB242-9F02-49E2-8C04-C759D98F93DB",
	},
	version = 0,
}
