HQLightroomPresets 505 V.3.4/HQLightroomPresets 505 V.3.4/HQLightroomPresets Lr2-Lr3 JPEG/False Color II - 14 Cool Mystic Infrared ~ HQLightroomPresets.lrtemplate
s = {
	id = "CE82A0C5-7923-485A-9E3A-16813957B1E0",
	internalName = "False Color II : 14 Cool Mystic Infrared 2",
	title = "False Color II : 14 Cool Mystic Infrared ~ HQLightroomPresets",
	type = "Develop",
	value = {
		settings = {
			AutoBrightness = false,
			AutoContrast = false,
			AutoExposure = false,
			AutoShadows = false,
			BlueHue = -15,
			BlueSaturation = -24,
			Brightness = -16,
			CameraProfile = "Embedded",
			ChromaticAberrationB = 0,
			ChromaticAberrationR = 0,
			Clarity = 23,
			ColorNoiseReduction = 18,
			ColorNoiseReductionDetail = 12,
			Contrast = 1,
			ConvertToGrayscale = false,
			Defringe = 0,
			EnableCalibration = true,
			EnableColorAdjustments = true,
			EnableDetail = true,
			EnableEffects = true,
			EnableLensCorrections = true,
			EnableSplitToning = true,
			Exposure = -0.86,
			FillLight = 3,
			GrainAmount = 0,
			GrainFrequency = 50,
			GrainSize = 25,
			GreenHue = 40,
			GreenSaturation = -15,
			HighlightRecovery = 0,
			HueAdjustmentAqua = 0,
			HueAdjustmentBlue = 0,
			HueAdjustmentGreen = 0,
			HueAdjustmentMagenta = 0,
			HueAdjustmentOrange = 0,
			HueAdjustmentPurple = 0,
			HueAdjustmentRed = 0,
			HueAdjustmentYellow = 0,
			IncrementalTemperature = 82,
			IncrementalTint = -75,
			LuminanceAdjustmentAqua = -16,
			LuminanceAdjustmentBlue = 36,
			LuminanceAdjustmentGreen = 0,
			LuminanceAdjustmentMagenta = 0,
			LuminanceAdjustmentOrange = 91,
			LuminanceAdjustmentPurple = 0,
			LuminanceAdjustmentRed = 91,
			LuminanceAdjustmentYellow = 95,
			LuminanceNoiseReductionContrast = 0,
			LuminanceNoiseReductionDetail = 50,
			LuminanceSmoothing = 15,
			ParametricDarks = 52,
			ParametricHighlightSplit = 90,
			ParametricHighlights = 0,
			ParametricLights = 0,
			ParametricMidtoneSplit = 59,
			ParametricShadowSplit = 10,
			ParametricShadows = 0,
			PostCropVignetteAmount = -6,
			PostCropVignetteFeather = 50,
			PostCropVignetteHighlightContrast = 0,
			PostCropVignetteMidpoint = 10,
			PostCropVignetteRoundness = -27,
			PostCropVignetteStyle = 1,
			ProcessVersion = "5.7",
			RedHue = 100,
			RedSaturation = -33,
			Saturation = -17,
			SaturationAdjustmentAqua = 48,
			SaturationAdjustmentBlue = -34,
			SaturationAdjustmentGreen = -68,
			SaturationAdjustmentMagenta = 0,
			SaturationAdjustmentOrange = -16,
			SaturationAdjustmentPurple = 0,
			SaturationAdjustmentRed = -2,
			SaturationAdjustmentYellow = -41,
			ShadowTint = 45,
			Shadows = 14,
			SharpenDetail = 28,
			SharpenEdgeMasking = 0,
			SharpenRadius = 1.5,
			Sharpness = 67,
			SplitToningBalance = 49,
			SplitToningHighlightHue = 269,
			SplitToningHighlightSaturation = 12,
			SplitToningShadowHue = 248,
			SplitToningShadowSaturation = 69,
			ToneCurve = {
				1,
				14,
				132,
				132,
				255,
				255,
			},
			ToneCurveName = "Custom",
			Vibrance = 12,
			VignetteAmount = -18,
			VignetteMidpoint = 50,
			WhiteBalance = "Custom",
		},
		uuid = "20937940-69B4-4725-8A0E-BEC25B5E2B07",
	},
	version = 0,
}
