HQLightroomPresets 505 V.3.4/HQLightroomPresets 505 V.3.4/HQLightroomPresets Lr2-Lr3 JPEG/False Color II - 89 Green LightSlateGray ~ HQLightroomPresets.lrtemplate
s = {
	id = "32BE6B1C-98C9-4D6E-853D-BC086988463C",
	internalName = "False Color II : 89 Green LightSlateGray 2",
	title = "False Color II : 89 Green LightSlateGray ~ HQLightroomPresets",
	type = "Develop",
	value = {
		settings = {
			AutoBrightness = false,
			AutoContrast = false,
			AutoExposure = false,
			AutoShadows = false,
			BlueHue = 100,
			BlueSaturation = -100,
			Brightness = -16,
			CameraProfile = "Embedded",
			ChromaticAberrationB = 0,
			ChromaticAberrationR = 0,
			Clarity = 23,
			ColorNoiseReduction = 18,
			ColorNoiseReductionDetail = 12,
			Contrast = 1,
			ConvertToGrayscale = false,
			CropConstrainToWarp = 0,
			Defringe = 0,
			EnableCalibration = true,
			EnableColorAdjustments = true,
			EnableDetail = true,
			EnableEffects = true,
			EnableLensCorrections = true,
			EnableSplitToning = true,
			Exposure = -1.06,
			FillLight = 25,
			GrainAmount = 0,
			GrainFrequency = 50,
			GrainSize = 25,
			GreenHue = -22,
			GreenSaturation = -15,
			HighlightRecovery = 0,
			HueAdjustmentAqua = 100,
			HueAdjustmentBlue = -100,
			HueAdjustmentGreen = -100,
			HueAdjustmentMagenta = 0,
			HueAdjustmentOrange = 0,
			HueAdjustmentPurple = 0,
			HueAdjustmentRed = -5,
			HueAdjustmentYellow = 0,
			IncrementalTemperature = 52,
			IncrementalTint = -45,
			LensManualDistortionAmount = 0,
			LensProfileEnable = 0,
			LensProfileSetup = "LensDefaults",
			LuminanceAdjustmentAqua = -20,
			LuminanceAdjustmentBlue = 100,
			LuminanceAdjustmentGreen = 100,
			LuminanceAdjustmentMagenta = 64,
			LuminanceAdjustmentOrange = 100,
			LuminanceAdjustmentPurple = 62,
			LuminanceAdjustmentRed = 100,
			LuminanceAdjustmentYellow = 100,
			LuminanceNoiseReductionContrast = 0,
			LuminanceNoiseReductionDetail = 50,
			LuminanceSmoothing = 15,
			ParametricDarks = 52,
			ParametricHighlightSplit = 90,
			ParametricHighlights = 0,
			ParametricLights = 0,
			ParametricMidtoneSplit = 59,
			ParametricShadowSplit = 10,
			ParametricShadows = 0,
			PerspectiveHorizontal = 0,
			PerspectiveRotate = 0,
			PerspectiveScale = 100,
			PerspectiveVertical = 0,
			PostCropVignetteAmount = -22,
			PostCropVignetteFeather = 86,
			PostCropVignetteHighlightContrast = 0,
			PostCropVignetteMidpoint = 10,
			PostCropVignetteRoundness = 13,
			PostCropVignetteStyle = 1,
			ProcessVersion = "5.7",
			RedHue = 15,
			RedSaturation = 31,
			Saturation = 31,
			SaturationAdjustmentAqua = -86,
			SaturationAdjustmentBlue = 100,
			SaturationAdjustmentGreen = -52,
			SaturationAdjustmentMagenta = -73,
			SaturationAdjustmentOrange = -36,
			SaturationAdjustmentPurple = -77,
			SaturationAdjustmentRed = -55,
			SaturationAdjustmentYellow = -32,
			ShadowTint = 100,
			Shadows = 24,
			SharpenDetail = 28,
			SharpenEdgeMasking = 0,
			SharpenRadius = 1.5,
			Sharpness = 67,
			SplitToningBalance = 77,
			SplitToningHighlightHue = 248,
			SplitToningHighlightSaturation = 72,
			SplitToningShadowHue = 161,
			SplitToningShadowSaturation = 83,
			ToneCurve = {
				2,
				23,
				111,
				151,
				240,
				255,
			},
			ToneCurveName = "Custom",
			Vibrance = 63,
			VignetteAmount = -18,
			VignetteMidpoint = 50,
			WhiteBalance = "Custom",
			orientation = "AB",
		},
		uuid = "29691FA2-A4C1-43C6-85AC-46C10B255A1D",
	},
	version = 0,
}
