HQLightroomPresets 505 V.3.4/HQLightroomPresets 505 V.3.4/HQLightroomPresets Lr2-Lr3 JPEG/Glow & Smooth - Lovely Bride ~ HQLightroomPresets.lrtemplate
s = {
	id = "BB6F0D8F-46E2-4FC8-857E-11E4606AE8A2",
	internalName = "Glow & Smooth : Lovely Bride ~ HQLightroomPresets.com 2",
	title = "Glow & Smooth : Lovely Bride ~ HQLightroomPresets",
	type = "Develop",
	value = {
		settings = {
			AutoBrightness = false,
			AutoContrast = false,
			AutoExposure = false,
			AutoShadows = false,
			BlueHue = -42,
			BlueSaturation = 9,
			Brightness = 0,
			CameraProfile = "Embedded",
			ChromaticAberrationB = 0,
			ChromaticAberrationR = 0,
			Clarity = -17,
			ColorNoiseReduction = 0,
			ColorNoiseReductionDetail = 50,
			Contrast = 2,
			ConvertToGrayscale = false,
			CropConstrainToWarp = 0,
			Defringe = 0,
			EnableCalibration = true,
			EnableColorAdjustments = true,
			EnableDetail = true,
			EnableEffects = true,
			EnableLensCorrections = true,
			EnableSplitToning = true,
			Exposure = -0.23,
			FillLight = 22,
			GrainAmount = 0,
			GrainFrequency = 50,
			GrainSize = 50,
			GreenHue = 41,
			GreenSaturation = 0,
			HighlightRecovery = 0,
			HueAdjustmentAqua = 0,
			HueAdjustmentBlue = 0,
			HueAdjustmentGreen = 0,
			HueAdjustmentMagenta = 0,
			HueAdjustmentOrange = 0,
			HueAdjustmentPurple = 0,
			HueAdjustmentRed = 0,
			HueAdjustmentYellow = 1,
			IncrementalTemperature = 17,
			IncrementalTint = 13,
			LensManualDistortionAmount = 0,
			LensProfileEnable = 0,
			LensProfileSetup = "LensDefaults",
			LuminanceAdjustmentAqua = 0,
			LuminanceAdjustmentBlue = 0,
			LuminanceAdjustmentGreen = 0,
			LuminanceAdjustmentMagenta = 0,
			LuminanceAdjustmentOrange = 16,
			LuminanceAdjustmentPurple = 0,
			LuminanceAdjustmentRed = 0,
			LuminanceAdjustmentYellow = 5,
			LuminanceNoiseReductionContrast = 0,
			LuminanceNoiseReductionDetail = 50,
			LuminanceSmoothing = 79,
			ParametricDarks = 45,
			ParametricHighlightSplit = 90,
			ParametricHighlights = 0,
			ParametricLights = 17,
			ParametricMidtoneSplit = 59,
			ParametricShadowSplit = 10,
			ParametricShadows = 26,
			PerspectiveHorizontal = 0,
			PerspectiveRotate = 0,
			PerspectiveScale = 100,
			PerspectiveVertical = 0,
			PostCropVignetteAmount = -26,
			PostCropVignetteFeather = 79,
			PostCropVignetteHighlightContrast = 0,
			PostCropVignetteMidpoint = 27,
			PostCropVignetteRoundness = 61,
			PostCropVignetteStyle = 1,
			ProcessVersion = "5.7",
			RedHue = 39,
			RedSaturation = 9,
			Saturation = -3,
			SaturationAdjustmentAqua = 0,
			SaturationAdjustmentBlue = 0,
			SaturationAdjustmentGreen = 0,
			SaturationAdjustmentMagenta = -5,
			SaturationAdjustmentOrange = -27,
			SaturationAdjustmentPurple = 0,
			SaturationAdjustmentRed = -27,
			SaturationAdjustmentYellow = -27,
			ShadowTint = 0,
			Shadows = 8,
			SharpenDetail = 25,
			SharpenEdgeMasking = 0,
			SharpenRadius = 1,
			Sharpness = 61,
			SplitToningBalance = 2,
			SplitToningHighlightHue = 176,
			SplitToningHighlightSaturation = 11,
			SplitToningShadowHue = 253,
			SplitToningShadowSaturation = 22,
			ToneCurve = {
				41,
				40,
				134,
				109,
				255,
				255,
			},
			ToneCurveName = "Custom",
			Vibrance = 56,
			VignetteAmount = 0,
			VignetteMidpoint = 50,
			WhiteBalance = "Custom",
			orientation = "AB",
		},
		uuid = "62ED1DC8-4FAE-4DBF-AB4F-542AC07D3AB2",
	},
	version = 0,
}
