HQLightroomPresets 505 V.3.4/HQLightroomPresets 505 V.3.4/HQLightroomPresets Lr2-Lr3 JPEG/High Contrast - Hot Skin ~ HQLightroomPresets.lrtemplate
s = {
	id = "54F2AC8E-2568-4DFF-8654-0F5AA47811C3",
	internalName = "High Contrast : Hot Skin ~ HQLightroomPresets.com 2",
	title = "High Contrast : Hot Skin ~ HQLightroomPresets",
	type = "Develop",
	value = {
		settings = {
			AutoBrightness = false,
			AutoContrast = false,
			AutoExposure = false,
			AutoShadows = false,
			BlueHue = 0,
			BlueSaturation = 0,
			Brightness = 0,
			CameraProfile = "Embedded",
			ChromaticAberrationB = 0,
			ChromaticAberrationR = 0,
			Clarity = 20,
			ColorNoiseReduction = 28,
			ColorNoiseReductionDetail = 0,
			Contrast = 5,
			ConvertToGrayscale = false,
			CropConstrainToWarp = 0,
			Defringe = 0,
			EnableCalibration = true,
			EnableColorAdjustments = true,
			EnableDetail = true,
			EnableEffects = true,
			EnableLensCorrections = true,
			EnableSplitToning = true,
			Exposure = 0.05,
			FillLight = 55,
			GrainAmount = 0,
			GrainFrequency = 50,
			GrainSize = 25,
			GreenHue = 0,
			GreenSaturation = 0,
			HighlightRecovery = 7,
			HueAdjustmentAqua = 0,
			HueAdjustmentBlue = 0,
			HueAdjustmentGreen = 0,
			HueAdjustmentMagenta = 0,
			HueAdjustmentOrange = -12,
			HueAdjustmentPurple = 0,
			HueAdjustmentRed = -26,
			HueAdjustmentYellow = 0,
			IncrementalTemperature = -1,
			IncrementalTint = -36,
			LensManualDistortionAmount = 0,
			LensProfileEnable = 0,
			LensProfileSetup = "LensDefaults",
			LuminanceAdjustmentAqua = 44,
			LuminanceAdjustmentBlue = 5,
			LuminanceAdjustmentGreen = -60,
			LuminanceAdjustmentMagenta = 0,
			LuminanceAdjustmentOrange = 0,
			LuminanceAdjustmentPurple = -29,
			LuminanceAdjustmentRed = 0,
			LuminanceAdjustmentYellow = 0,
			LuminanceNoiseReductionContrast = 0,
			LuminanceNoiseReductionDetail = 50,
			LuminanceSmoothing = 9,
			ParametricDarks = 25,
			ParametricHighlightSplit = 75,
			ParametricHighlights = 0,
			ParametricLights = -9,
			ParametricMidtoneSplit = 50,
			ParametricShadowSplit = 25,
			ParametricShadows = 0,
			PerspectiveHorizontal = 0,
			PerspectiveRotate = 0,
			PerspectiveScale = 100,
			PerspectiveVertical = 0,
			PostCropVignetteAmount = -33,
			PostCropVignetteFeather = 83,
			PostCropVignetteHighlightContrast = 52,
			PostCropVignetteMidpoint = 29,
			PostCropVignetteRoundness = 80,
			PostCropVignetteStyle = 1,
			ProcessVersion = "5.7",
			RedHue = 0,
			RedSaturation = 0,
			Saturation = -7,
			SaturationAdjustmentAqua = -21,
			SaturationAdjustmentBlue = -41,
			SaturationAdjustmentGreen = -58,
			SaturationAdjustmentMagenta = 0,
			SaturationAdjustmentOrange = -27,
			SaturationAdjustmentPurple = 0,
			SaturationAdjustmentRed = 7,
			SaturationAdjustmentYellow = -55,
			ShadowTint = 0,
			Shadows = 11,
			SharpenDetail = 50,
			SharpenEdgeMasking = 0,
			SharpenRadius = 1,
			Sharpness = 52,
			SplitToningBalance = 59,
			SplitToningHighlightHue = 101,
			SplitToningHighlightSaturation = 0,
			SplitToningShadowHue = 39,
			SplitToningShadowSaturation = 55,
			ToneCurve = {
				0,
				0,
				140,
				115,
				159,
				160,
				255,
				255,
			},
			ToneCurveName = "Custom",
			Vibrance = -5,
			VignetteAmount = 0,
			VignetteMidpoint = 12,
			WhiteBalance = "Custom",
			orientation = "AB",
		},
		uuid = "0079A45C-3430-4DD3-9334-31ECED9C771D",
	},
	version = 0,
}
