HQLightroomPresets 505 V.3.4/HQLightroomPresets 505 V.3.4/HQLightroomPresets Lr2-Lr3 JPEG/Strong Color - Green Park ~ HQLightroomPresets.lrtemplate
s = {
	id = "7838D16C-A3A4-4D1A-AB7C-231F01F1BFB1",
	internalName = "Strong Color : Green Park ~ HQLightroomPresets.com 2",
	title = "Strong Color : Green Park ~ HQLightroomPresets",
	type = "Develop",
	value = {
		settings = {
			AutoBrightness = false,
			AutoContrast = false,
			AutoExposure = false,
			AutoShadows = false,
			BlueHue = 0,
			BlueSaturation = 0,
			Brightness = 34,
			CameraProfile = "ACR 2.4",
			ChromaticAberrationB = 0,
			ChromaticAberrationR = 0,
			Clarity = 26,
			ColorNoiseReduction = 28,
			ColorNoiseReductionDetail = 50,
			Contrast = 5,
			ConvertToGrayscale = false,
			CropConstrainToWarp = 0,
			Defringe = 0,
			EnableCalibration = true,
			EnableColorAdjustments = true,
			EnableDetail = true,
			EnableEffects = true,
			EnableLensCorrections = true,
			EnableSplitToning = true,
			Exposure = -0.05,
			FillLight = 28,
			GrainAmount = 0,
			GrainFrequency = 50,
			GrainSize = 25,
			GreenHue = 0,
			GreenSaturation = 0,
			HighlightRecovery = 25,
			HueAdjustmentAqua = 0,
			HueAdjustmentBlue = 23,
			HueAdjustmentGreen = 0,
			HueAdjustmentMagenta = -15,
			HueAdjustmentOrange = 32,
			HueAdjustmentPurple = -9,
			HueAdjustmentRed = -23,
			HueAdjustmentYellow = -26,
			IncrementalTemperature = -26,
			IncrementalTint = -52,
			LensManualDistortionAmount = 0,
			LensProfileEnable = 0,
			LensProfileSetup = "LensDefaults",
			LuminanceAdjustmentAqua = -28,
			LuminanceAdjustmentBlue = -55,
			LuminanceAdjustmentGreen = 0,
			LuminanceAdjustmentMagenta = -13,
			LuminanceAdjustmentOrange = -13,
			LuminanceAdjustmentPurple = -28,
			LuminanceAdjustmentRed = -2,
			LuminanceAdjustmentYellow = -13,
			LuminanceNoiseReductionContrast = 0,
			LuminanceNoiseReductionDetail = 50,
			LuminanceSmoothing = 11,
			ParametricDarks = -27,
			ParametricHighlightSplit = 75,
			ParametricHighlights = -30,
			ParametricLights = 0,
			ParametricMidtoneSplit = 50,
			ParametricShadowSplit = 25,
			ParametricShadows = 0,
			PerspectiveHorizontal = 0,
			PerspectiveRotate = 0,
			PerspectiveScale = 100,
			PerspectiveVertical = 0,
			PostCropVignetteAmount = -45,
			PostCropVignetteFeather = 97,
			PostCropVignetteHighlightContrast = 0,
			PostCropVignetteMidpoint = 14,
			PostCropVignetteRoundness = -1,
			PostCropVignetteStyle = 1,
			ProcessVersion = "5.7",
			RedHue = 0,
			RedSaturation = 0,
			Saturation = -17,
			SaturationAdjustmentAqua = 38,
			SaturationAdjustmentBlue = 49,
			SaturationAdjustmentGreen = 0,
			SaturationAdjustmentMagenta = 15,
			SaturationAdjustmentOrange = 38,
			SaturationAdjustmentPurple = 32,
			SaturationAdjustmentRed = -2,
			SaturationAdjustmentYellow = 26,
			ShadowTint = 0,
			Shadows = 4,
			SharpenDetail = 50,
			SharpenEdgeMasking = 0,
			SharpenRadius = 1,
			Sharpness = 45,
			SplitToningBalance = 85,
			SplitToningHighlightHue = 0,
			SplitToningHighlightSaturation = 0,
			SplitToningShadowHue = 360,
			SplitToningShadowSaturation = 67,
			ToneCurve = {
				7,
				0,
				92,
				99,
				180,
				188,
				255,
				255,
			},
			ToneCurveName = "Custom",
			Vibrance = 0,
			VignetteAmount = 0,
			VignetteMidpoint = 20,
			WhiteBalance = "Custom",
			orientation = "AB",
		},
		uuid = "0505E507-EA4D-4866-8AC5-2D3461ABB11D",
	},
	version = 0,
}
