HQLightroomPresets 505 V.3.4/HQLightroomPresets 505 V.3.4/HQLightroomPresets Lr2-Lr3 JPEG/Strong Color - Strong Fantasy ~ HQLightroomPresets.lrtemplate
s = {
	id = "CA1D8899-A3FA-4CB2-AB2D-782BC0D3032D",
	internalName = "Strong Color : Strong Fantasy ~ HQLightroomPresets.com 2",
	title = "Strong Color : Strong Fantasy ~ HQLightroomPresets",
	type = "Develop",
	value = {
		settings = {
			AutoBrightness = false,
			AutoContrast = false,
			AutoExposure = false,
			AutoShadows = false,
			BlueHue = 0,
			BlueSaturation = 0,
			Brightness = 0,
			CameraProfile = "Embedded",
			ChromaticAberrationB = 0,
			ChromaticAberrationR = 0,
			Clarity = 29,
			ColorNoiseReduction = 28,
			ColorNoiseReductionDetail = 50,
			Contrast = 0,
			ConvertToGrayscale = false,
			Defringe = 0,
			EnableCalibration = true,
			EnableColorAdjustments = true,
			EnableDetail = true,
			EnableEffects = true,
			EnableLensCorrections = true,
			EnableSplitToning = true,
			Exposure = 0.32,
			FillLight = 15,
			GrainAmount = 0,
			GrainFrequency = 50,
			GrainSize = 25,
			GreenHue = 0,
			GreenSaturation = 0,
			HighlightRecovery = 0,
			HueAdjustmentAqua = -18,
			HueAdjustmentBlue = -2,
			HueAdjustmentGreen = -9,
			HueAdjustmentMagenta = -9,
			HueAdjustmentOrange = 0,
			HueAdjustmentPurple = -2,
			HueAdjustmentRed = 0,
			HueAdjustmentYellow = 0,
			IncrementalTemperature = 13,
			IncrementalTint = -16,
			LuminanceAdjustmentAqua = -30,
			LuminanceAdjustmentBlue = -36,
			LuminanceAdjustmentGreen = -59,
			LuminanceAdjustmentMagenta = -9,
			LuminanceAdjustmentOrange = -9,
			LuminanceAdjustmentPurple = -13,
			LuminanceAdjustmentRed = -2,
			LuminanceAdjustmentYellow = -5,
			LuminanceNoiseReductionContrast = 0,
			LuminanceNoiseReductionDetail = 50,
			LuminanceSmoothing = 13,
			ParametricDarks = -12,
			ParametricHighlightSplit = 75,
			ParametricHighlights = -30,
			ParametricLights = 17,
			ParametricMidtoneSplit = 50,
			ParametricShadowSplit = 25,
			ParametricShadows = 0,
			PostCropVignetteAmount = -23,
			PostCropVignetteFeather = 100,
			PostCropVignetteHighlightContrast = 0,
			PostCropVignetteMidpoint = 10,
			PostCropVignetteRoundness = -33,
			PostCropVignetteStyle = 1,
			ProcessVersion = "5.7",
			RedHue = 0,
			RedSaturation = 0,
			Saturation = -5,
			SaturationAdjustmentAqua = 11,
			SaturationAdjustmentBlue = -33,
			SaturationAdjustmentGreen = 36,
			SaturationAdjustmentMagenta = 1,
			SaturationAdjustmentOrange = -32,
			SaturationAdjustmentPurple = 18,
			SaturationAdjustmentRed = -32,
			SaturationAdjustmentYellow = -34,
			ShadowTint = 0,
			Shadows = 6,
			SharpenDetail = 50,
			SharpenEdgeMasking = 0,
			SharpenRadius = 1,
			Sharpness = 45,
			SplitToningBalance = 85,
			SplitToningHighlightHue = 0,
			SplitToningHighlightSaturation = 0,
			SplitToningShadowHue = 265,
			SplitToningShadowSaturation = 84,
			ToneCurve = {
				0,
				0,
				255,
				255,
			},
			ToneCurveName = "Linear",
			Vibrance = 70,
			VignetteAmount = -4,
			VignetteMidpoint = 47,
			WhiteBalance = "Custom",
		},
		uuid = "CB781F9E-F46A-4442-B365-37D359A6031B",
	},
	version = 0,
}
