HQLightroomPresets 505 V.3.4/HQLightroomPresets 505 V.3.4/HQLightroomPresets Lr2-Lr3 JPEG/Update #1 - Paprika ~ HQLightroomPresets.lrtemplate
s = {
	id = "C85C9E96-412A-4C89-8776-C012F36D8410",
	internalName = "Update #1 : Paprika ~ HQLightroomPresets.com 2",
	title = "Update #1 : Paprika ~ HQLightroomPresets",
	type = "Develop",
	value = {
		settings = {
			AutoBrightness = false,
			AutoContrast = false,
			AutoExposure = false,
			AutoShadows = false,
			BlueHue = 0,
			BlueSaturation = 0,
			Brightness = 16,
			CameraProfile = "Embedded",
			ChromaticAberrationB = 0,
			ChromaticAberrationR = 0,
			Clarity = 53,
			ColorNoiseReduction = 25,
			ColorNoiseReductionDetail = 50,
			Contrast = 12,
			ConvertToGrayscale = false,
			Defringe = 0,
			EnableCalibration = true,
			EnableColorAdjustments = true,
			EnableDetail = true,
			EnableEffects = true,
			EnableLensCorrections = true,
			EnableSplitToning = true,
			Exposure = 0.23,
			FillLight = 36,
			GrainAmount = 0,
			GrainFrequency = 50,
			GrainSize = 25,
			GreenHue = 0,
			GreenSaturation = 0,
			HighlightRecovery = 12,
			HueAdjustmentAqua = 0,
			HueAdjustmentBlue = 0,
			HueAdjustmentGreen = 0,
			HueAdjustmentMagenta = 0,
			HueAdjustmentOrange = 0,
			HueAdjustmentPurple = 0,
			HueAdjustmentRed = 0,
			HueAdjustmentYellow = 0,
			IncrementalTemperature = 26,
			IncrementalTint = 24,
			LuminanceAdjustmentAqua = 0,
			LuminanceAdjustmentBlue = -33,
			LuminanceAdjustmentGreen = 0,
			LuminanceAdjustmentMagenta = 0,
			LuminanceAdjustmentOrange = 3,
			LuminanceAdjustmentPurple = 0,
			LuminanceAdjustmentRed = -36,
			LuminanceAdjustmentYellow = -25,
			LuminanceNoiseReductionContrast = 0,
			LuminanceNoiseReductionDetail = 50,
			LuminanceSmoothing = 7,
			ParametricDarks = 0,
			ParametricHighlightSplit = 75,
			ParametricHighlights = 0,
			ParametricLights = -2,
			ParametricMidtoneSplit = 50,
			ParametricShadowSplit = 25,
			ParametricShadows = 0,
			PostCropVignetteAmount = -20,
			PostCropVignetteFeather = 86,
			PostCropVignetteHighlightContrast = 0,
			PostCropVignetteMidpoint = 20,
			PostCropVignetteRoundness = 36,
			PostCropVignetteStyle = 1,
			ProcessVersion = "5.7",
			RedHue = 0,
			RedSaturation = 0,
			Saturation = 33,
			SaturationAdjustmentAqua = 0,
			SaturationAdjustmentBlue = -11,
			SaturationAdjustmentGreen = 0,
			SaturationAdjustmentMagenta = 0,
			SaturationAdjustmentOrange = -64,
			SaturationAdjustmentPurple = 0,
			SaturationAdjustmentRed = -55,
			SaturationAdjustmentYellow = -55,
			ShadowTint = 0,
			Shadows = 6,
			SharpenDetail = 25,
			SharpenEdgeMasking = 0,
			SharpenRadius = 1,
			Sharpness = 57,
			SplitToningBalance = 53,
			SplitToningHighlightHue = 244,
			SplitToningHighlightSaturation = 8,
			SplitToningShadowHue = 257,
			SplitToningShadowSaturation = 38,
			ToneCurve = {
				0,
				40,
				61,
				59,
				131,
				141,
				195,
				180,
				255,
				218,
			},
			ToneCurveName = "Custom",
			Vibrance = 68,
			VignetteAmount = -1,
			VignetteMidpoint = 20,
			WhiteBalance = "Custom",
		},
		uuid = "3DB0BAD6-9825-40DF-9528-7D9D698A3E23",
	},
	version = 0,
}
