HQLightroomPresets 505 V.3.4/HQLightroomPresets 505 V.3.4/HQLightroomPresets Lr2-Lr3 JPEG/Update #2 - Wonder Time ~ HQLightroomPresets.lrtemplate
s = {
	id = "2022AB2A-8FC6-4237-842A-C09D5D9D6EA3",
	internalName = "Copyrights © 2014 ~ HQLighroomPresets.com",
	title = "Update #2 : Wonder Time ~ HQLightroomPresets",
	type = "Develop",
	value = {
		settings = {
			AutoBrightness = false,
			AutoContrast = false,
			AutoExposure = false,
			AutoShadows = false,
			BlueHue = 0,
			BlueSaturation = -36,
			Brightness = 7,
			CameraProfile = "Embedded",
			ChromaticAberrationB = 0,
			ChromaticAberrationR = 0,
			Clarity = -10,
			ColorNoiseReduction = 28,
			ColorNoiseReductionDetail = 50,
			Contrast = 71,
			ConvertToGrayscale = false,
			CropConstrainToWarp = 0,
			Defringe = 0,
			EnableCalibration = true,
			EnableColorAdjustments = true,
			EnableDetail = true,
			EnableEffects = true,
			EnableLensCorrections = true,
			EnableSplitToning = true,
			Exposure = 0,
			FillLight = 52,
			GrainAmount = 0,
			GrainFrequency = 50,
			GrainSize = 25,
			GreenHue = 0,
			GreenSaturation = -61,
			HighlightRecovery = 10,
			HueAdjustmentAqua = 1,
			HueAdjustmentBlue = 0,
			HueAdjustmentGreen = 0,
			HueAdjustmentMagenta = 0,
			HueAdjustmentOrange = 12,
			HueAdjustmentPurple = -2,
			HueAdjustmentRed = -15,
			HueAdjustmentYellow = 9,
			IncrementalTemperature = 20,
			IncrementalTint = -4,
			LensManualDistortionAmount = 0,
			LensProfileEnable = 0,
			LensProfileSetup = "LensDefaults",
			LuminanceAdjustmentAqua = 0,
			LuminanceAdjustmentBlue = 0,
			LuminanceAdjustmentGreen = 22,
			LuminanceAdjustmentMagenta = 0,
			LuminanceAdjustmentOrange = 0,
			LuminanceAdjustmentPurple = 0,
			LuminanceAdjustmentRed = 0,
			LuminanceAdjustmentYellow = 0,
			LuminanceNoiseReductionContrast = 0,
			LuminanceNoiseReductionDetail = 99,
			LuminanceSmoothing = 45,
			ParametricDarks = -27,
			ParametricHighlightSplit = 75,
			ParametricHighlights = -30,
			ParametricLights = -18,
			ParametricMidtoneSplit = 50,
			ParametricShadowSplit = 25,
			ParametricShadows = 0,
			PerspectiveHorizontal = 0,
			PerspectiveRotate = 0,
			PerspectiveScale = 100,
			PerspectiveVertical = 0,
			PostCropVignetteAmount = -24,
			PostCropVignetteFeather = 90,
			PostCropVignetteHighlightContrast = 100,
			PostCropVignetteMidpoint = 24,
			PostCropVignetteRoundness = 36,
			PostCropVignetteStyle = 1,
			ProcessVersion = "5.7",
			RedHue = 0,
			RedSaturation = -33,
			Saturation = -5,
			SaturationAdjustmentAqua = 0,
			SaturationAdjustmentBlue = 0,
			SaturationAdjustmentGreen = -74,
			SaturationAdjustmentMagenta = 0,
			SaturationAdjustmentOrange = 35,
			SaturationAdjustmentPurple = 0,
			SaturationAdjustmentRed = 32,
			SaturationAdjustmentYellow = 33,
			ShadowTint = 0,
			Shadows = 18,
			SharpenDetail = 50,
			SharpenEdgeMasking = 0,
			SharpenRadius = 1,
			Sharpness = 76,
			SplitToningBalance = 85,
			SplitToningHighlightHue = 261,
			SplitToningHighlightSaturation = 15,
			SplitToningShadowHue = 66,
			SplitToningShadowSaturation = 54,
			ToneCurve = {
				0,
				41,
				47,
				65,
				93,
				90,
				255,
				255,
			},
			ToneCurveName = "Custom",
			Vibrance = 5,
			VignetteAmount = 2,
			VignetteMidpoint = 20,
			WhiteBalance = "Custom",
			orientation = "AB",
		},
		uuid = "773E58B7-74F2-4C3C-A9BB-CFD51E6B08E9",
	},
	version = 0,
}
