HQLightroomPresets 505 V.3.4/HQLightroomPresets 505 V.3.4/HQLightroomPresets Lr2-Lr3 JPEG/Update #2 - BW Adore You ~ HQLightroomPreset.lrtemplate
s = {
	id = "03BB9B2B-8FA7-4DC8-A609-BAE762252547",
	internalName = "Copyrights © 2014 ~ HQLighroomPresets.com",
	title = "Update #2 : BW Adore You ~ HQLightroomPreset",
	type = "Develop",
	value = {
		settings = {
			AutoBrightness = false,
			AutoContrast = false,
			AutoExposure = false,
			AutoShadows = false,
			BlueHue = 0,
			BlueSaturation = -16,
			Brightness = 19,
			CameraProfile = "Adobe Standard",
			ChromaticAberrationB = 0,
			ChromaticAberrationR = 0,
			Clarity = -38,
			ColorNoiseReductionDetail = 50,
			Contrast = 68,
			ConvertToGrayscale = true,
			CropConstrainToWarp = 0,
			Defringe = 0,
			EnableCalibration = true,
			EnableDetail = true,
			EnableEffects = true,
			EnableGrayscaleMix = true,
			EnableLensCorrections = true,
			EnableSplitToning = true,
			Exposure = 0,
			FillLight = 17,
			GrainAmount = 0,
			GrainFrequency = 50,
			GrainSize = 25,
			GrayMixerAqua = -40,
			GrayMixerBlue = 0,
			GrayMixerGreen = -25,
			GrayMixerMagenta = 19,
			GrayMixerOrange = -10,
			GrayMixerPurple = 73,
			GrayMixerRed = -17,
			GrayMixerYellow = -23,
			GreenHue = 0,
			GreenSaturation = 18,
			HighlightRecovery = 37,
			IncrementalTemperature = -8,
			IncrementalTint = -36,
			LensManualDistortionAmount = 0,
			LensProfileEnable = 0,
			LensProfileSetup = "LensDefaults",
			LuminanceNoiseReductionContrast = 0,
			LuminanceNoiseReductionDetail = 97,
			LuminanceSmoothing = 48,
			ParametricDarks = 0,
			ParametricHighlightSplit = 75,
			ParametricHighlights = 0,
			ParametricLights = 0,
			ParametricMidtoneSplit = 50,
			ParametricShadowSplit = 25,
			ParametricShadows = 0,
			PerspectiveHorizontal = 0,
			PerspectiveRotate = 0,
			PerspectiveScale = 100,
			PerspectiveVertical = 0,
			PostCropVignetteAmount = -38,
			PostCropVignetteFeather = 71,
			PostCropVignetteHighlightContrast = 100,
			PostCropVignetteMidpoint = 14,
			PostCropVignetteRoundness = 0,
			PostCropVignetteStyle = 1,
			ProcessVersion = "5.7",
			RedHue = 5,
			RedSaturation = -7,
			ShadowTint = 0,
			Shadows = 7,
			SharpenDetail = 25,
			SharpenEdgeMasking = 0,
			SharpenRadius = 1,
			Sharpness = 57,
			SplitToningBalance = 0,
			SplitToningHighlightHue = 61,
			SplitToningHighlightSaturation = 0,
			SplitToningShadowHue = 236,
			SplitToningShadowSaturation = 9,
			ToneCurve = {
				0,
				40,
				72,
				74,
				128,
				128,
				198,
				203,
				252,
				244,
			},
			ToneCurveName = "Custom",
			VignetteAmount = -1,
			VignetteMidpoint = 20,
			WhiteBalance = "Custom",
			orientation = "AB",
		},
		uuid = "D654E2FD-143B-4008-9CEB-B20E75F2E402",
	},
	version = 0,
}
