HQLightroomPresets 505 V.3.4/HQLightroomPresets 505 V.3.4/HQLightroomPresets Lr2-Lr3 JPEG/Update #1 - Sweet Breeze ~ HQLightroomPresets.lrtemplate
s = {
	id = "EEF08C5C-F7E8-4AB6-AC13-640760F32B30",
	internalName = "Update #1 : Sweet Breeze ~ HQLightroomPresets.com 2",
	title = "Update #1 : Sweet Breeze ~ HQLightroomPresets",
	type = "Develop",
	value = {
		settings = {
			AutoBrightness = false,
			AutoContrast = false,
			AutoExposure = false,
			AutoShadows = false,
			BlueHue = -22,
			BlueSaturation = -68,
			Brightness = 13,
			CameraProfile = "Embedded",
			ChromaticAberrationB = 0,
			ChromaticAberrationR = 0,
			Clarity = 11,
			ColorNoiseReduction = 28,
			ColorNoiseReductionDetail = 50,
			Contrast = 14,
			ConvertToGrayscale = false,
			CropConstrainToWarp = 0,
			Defringe = 0,
			EnableCalibration = true,
			EnableColorAdjustments = true,
			EnableDetail = true,
			EnableEffects = true,
			EnableLensCorrections = true,
			EnableSplitToning = true,
			Exposure = -0.97,
			FillLight = 43,
			GrainAmount = 0,
			GrainFrequency = 50,
			GrainSize = 25,
			GreenHue = 100,
			GreenSaturation = -43,
			HighlightRecovery = 25,
			HueAdjustmentAqua = 15,
			HueAdjustmentBlue = 18,
			HueAdjustmentGreen = 0,
			HueAdjustmentMagenta = -10,
			HueAdjustmentOrange = -2,
			HueAdjustmentPurple = -2,
			HueAdjustmentRed = -16,
			HueAdjustmentYellow = -12,
			IncrementalTemperature = -10,
			IncrementalTint = -20,
			LensManualDistortionAmount = 0,
			LensProfileEnable = 0,
			LensProfileSetup = "LensDefaults",
			LuminanceAdjustmentAqua = -44,
			LuminanceAdjustmentBlue = -38,
			LuminanceAdjustmentGreen = -2,
			LuminanceAdjustmentMagenta = -7,
			LuminanceAdjustmentOrange = 53,
			LuminanceAdjustmentPurple = -24,
			LuminanceAdjustmentRed = 45,
			LuminanceAdjustmentYellow = 23,
			LuminanceNoiseReductionContrast = 0,
			LuminanceNoiseReductionDetail = 50,
			LuminanceSmoothing = 17,
			ParametricDarks = -12,
			ParametricHighlightSplit = 75,
			ParametricHighlights = -30,
			ParametricLights = 17,
			ParametricMidtoneSplit = 50,
			ParametricShadowSplit = 25,
			ParametricShadows = 0,
			PerspectiveHorizontal = 0,
			PerspectiveRotate = 0,
			PerspectiveScale = 100,
			PerspectiveVertical = 0,
			PostCropVignetteAmount = -17,
			PostCropVignetteFeather = 100,
			PostCropVignetteHighlightContrast = 0,
			PostCropVignetteMidpoint = 0,
			PostCropVignetteRoundness = -33,
			PostCropVignetteStyle = 1,
			ProcessVersion = "5.7",
			RedHue = 61,
			RedSaturation = 56,
			Saturation = 5,
			SaturationAdjustmentAqua = 22,
			SaturationAdjustmentBlue = -19,
			SaturationAdjustmentGreen = -60,
			SaturationAdjustmentMagenta = 10,
			SaturationAdjustmentOrange = -43,
			SaturationAdjustmentPurple = 26,
			SaturationAdjustmentRed = -41,
			SaturationAdjustmentYellow = -43,
			ShadowTint = 0,
			Shadows = 6,
			SharpenDetail = 50,
			SharpenEdgeMasking = 0,
			SharpenRadius = 1,
			Sharpness = 57,
			SplitToningBalance = 85,
			SplitToningHighlightHue = 95,
			SplitToningHighlightSaturation = 0,
			SplitToningShadowHue = 298,
			SplitToningShadowSaturation = 29,
			ToneCurve = {
				0,
				11,
				104,
				145,
				231,
				255,
			},
			ToneCurveName = "Custom",
			Vibrance = 68,
			VignetteAmount = 0,
			VignetteMidpoint = 20,
			WhiteBalance = "Custom",
			orientation = "AB",
		},
		uuid = "CCE7A77E-3F19-45B5-851C-98A3450E1869",
	},
	version = 0,
}
