HQLightroomPresets 505 V.3.4/HQLightroomPresets 505 V.3.4/HQLightroomPresets Lr2-Lr3 JPEG/Update #1 - BW Classic In Harsh ~ HQLightroomPresets.lrtemplate
s = {
	id = "5FDA7F80-638C-4EF6-8A36-8D86DF2E63FD",
	internalName = "Update #1 : BW Classic In Harsh ~ HQLightroomPresets.com 2",
	title = "Update #1 : BW Classic In Harsh ~ HQLightroomPresets",
	type = "Develop",
	value = {
		settings = {
			AutoBrightness = false,
			AutoContrast = false,
			AutoExposure = false,
			AutoShadows = false,
			BlueHue = 0,
			BlueSaturation = 0,
			Brightness = 0,
			CameraProfile = "Embedded",
			ChromaticAberrationB = 0,
			ChromaticAberrationR = 0,
			Clarity = 24,
			ColorNoiseReductionDetail = 50,
			Contrast = -17,
			ConvertToGrayscale = true,
			Defringe = 0,
			EnableCalibration = true,
			EnableDetail = true,
			EnableEffects = true,
			EnableGrayscaleMix = true,
			EnableLensCorrections = true,
			EnableSplitToning = true,
			Exposure = 0.6,
			FillLight = 45,
			GrainAmount = 23,
			GrainFrequency = 70,
			GrainSize = 80,
			GrayMixerAqua = -16,
			GrayMixerBlue = 12,
			GrayMixerGreen = -27,
			GrayMixerMagenta = 2,
			GrayMixerOrange = -20,
			GrayMixerPurple = 16,
			GrayMixerRed = -14,
			GrayMixerYellow = -24,
			GreenHue = 0,
			GreenSaturation = 0,
			HighlightRecovery = 1,
			IncrementalTemperature = 10,
			IncrementalTint = -52,
			LuminanceNoiseReductionContrast = 0,
			LuminanceNoiseReductionDetail = 50,
			LuminanceSmoothing = 7,
			ParametricDarks = 0,
			ParametricHighlightSplit = 75,
			ParametricHighlights = 0,
			ParametricLights = -2,
			ParametricMidtoneSplit = 50,
			ParametricShadowSplit = 25,
			ParametricShadows = 0,
			PostCropVignetteAmount = -24,
			PostCropVignetteFeather = 88,
			PostCropVignetteHighlightContrast = 0,
			PostCropVignetteMidpoint = 17,
			PostCropVignetteRoundness = 36,
			PostCropVignetteStyle = 1,
			ProcessVersion = "5.7",
			RedHue = 0,
			RedSaturation = 0,
			ShadowTint = 0,
			Shadows = 4,
			SharpenDetail = 25,
			SharpenEdgeMasking = 0,
			SharpenRadius = 1,
			Sharpness = 67,
			SplitToningBalance = 0,
			SplitToningHighlightHue = 240,
			SplitToningHighlightSaturation = 0,
			SplitToningShadowHue = 50,
			SplitToningShadowSaturation = 0,
			ToneCurve = {
				0,
				63,
				30,
				66,
				138,
				119,
				187,
				181,
				250,
				255,
			},
			ToneCurveName = "Custom",
			VignetteAmount = -1,
			VignetteMidpoint = 20,
			WhiteBalance = "Custom",
		},
		uuid = "2E836286-9189-46E4-9411-F9FF6D59B26C",
	},
	version = 0,
}
