HQLightroomPresets 505 V.3.4/HQLightroomPresets 505 V.3.4/HQLightroomPresets Lr2-Lr3 JPEG/Update #2 - Clear Heaven Air ~ HQLightroomPresets.lrtemplate
s = {
	id = "CFEE1C4F-5FA3-4DF4-B9A5-F0E9183C0FD8",
	internalName = "Copyrights © 2014 ~ HQLighroomPresets.com",
	title = "Update #2 : Clear Heaven Air ~ HQLightroomPresets",
	type = "Develop",
	value = {
		settings = {
			AutoBrightness = false,
			AutoContrast = false,
			AutoExposure = false,
			AutoShadows = false,
			BlueHue = -29,
			BlueSaturation = -40,
			Brightness = 29,
			CameraProfile = "Embedded",
			ChromaticAberrationB = 0,
			ChromaticAberrationR = 0,
			Clarity = -10,
			ColorNoiseReduction = 28,
			ColorNoiseReductionDetail = 0,
			Contrast = 5,
			ConvertToGrayscale = false,
			CropConstrainToWarp = 0,
			Defringe = 0,
			EnableCalibration = true,
			EnableColorAdjustments = true,
			EnableDetail = true,
			EnableEffects = true,
			EnableLensCorrections = true,
			EnableSplitToning = true,
			Exposure = 0,
			FillLight = 51,
			GrainAmount = 0,
			GrainFrequency = 50,
			GrainSize = 25,
			GreenHue = 55,
			GreenSaturation = -22,
			HighlightRecovery = 26,
			HueAdjustmentAqua = 0,
			HueAdjustmentBlue = 0,
			HueAdjustmentGreen = 0,
			HueAdjustmentMagenta = 0,
			HueAdjustmentOrange = 0,
			HueAdjustmentPurple = 0,
			HueAdjustmentRed = 0,
			HueAdjustmentYellow = 0,
			IncrementalTemperature = 0,
			IncrementalTint = 0,
			LensManualDistortionAmount = 0,
			LensProfileEnable = 0,
			LensProfileSetup = "LensDefaults",
			LuminanceAdjustmentAqua = 44,
			LuminanceAdjustmentBlue = 5,
			LuminanceAdjustmentGreen = -47,
			LuminanceAdjustmentMagenta = 0,
			LuminanceAdjustmentOrange = 0,
			LuminanceAdjustmentPurple = -29,
			LuminanceAdjustmentRed = 0,
			LuminanceAdjustmentYellow = 0,
			LuminanceNoiseReductionContrast = 72,
			LuminanceNoiseReductionDetail = 93,
			LuminanceSmoothing = 54,
			ParametricDarks = 0,
			ParametricHighlightSplit = 75,
			ParametricHighlights = 0,
			ParametricLights = 0,
			ParametricMidtoneSplit = 50,
			ParametricShadowSplit = 25,
			ParametricShadows = 0,
			PerspectiveHorizontal = 0,
			PerspectiveRotate = 0,
			PerspectiveScale = 100,
			PerspectiveVertical = 0,
			PostCropVignetteAmount = 0,
			PostCropVignetteFeather = 83,
			PostCropVignetteHighlightContrast = 52,
			PostCropVignetteMidpoint = 39,
			PostCropVignetteRoundness = 80,
			PostCropVignetteStyle = 1,
			ProcessVersion = "5.7",
			RedHue = 70,
			RedSaturation = 40,
			Saturation = 3,
			SaturationAdjustmentAqua = -21,
			SaturationAdjustmentBlue = -41,
			SaturationAdjustmentGreen = 30,
			SaturationAdjustmentMagenta = 0,
			SaturationAdjustmentOrange = 35,
			SaturationAdjustmentPurple = 0,
			SaturationAdjustmentRed = 29,
			SaturationAdjustmentYellow = 26,
			ShadowTint = 0,
			Shadows = 13,
			SharpenDetail = 50,
			SharpenEdgeMasking = 0,
			SharpenRadius = 1,
			Sharpness = 59,
			SplitToningBalance = 31,
			SplitToningHighlightHue = 182,
			SplitToningHighlightSaturation = 23,
			SplitToningShadowHue = 266,
			SplitToningShadowSaturation = 43,
			ToneCurve = {
				0,
				0,
				135,
				103,
				249,
				250,
			},
			ToneCurveName = "Custom",
			Vibrance = 15,
			VignetteAmount = 0,
			VignetteMidpoint = 12,
			WhiteBalance = "Custom",
			orientation = "AB",
		},
		uuid = "1ED4BF54-643A-42B1-A20D-9B81842B1662",
	},
	version = 0,
}
