HQLightroomPresets 505 V.3.4/HQLightroomPresets 505 V.3.4/HQLightroomPresets Lr2-Lr3 JPEG/Update #1 - Cold Blue ~ HQLightroomPresets.lrtemplate
s = {
	id = "225E4005-F5CB-4A7C-A186-F3B8A843E3A7",
	internalName = "Update #1 : Cold Blue ~ HQLightroomPresets.com 2",
	title = "Update #1 : Cold Blue ~ HQLightroomPresets",
	type = "Develop",
	value = {
		settings = {
			AutoBrightness = false,
			AutoContrast = false,
			AutoExposure = false,
			AutoShadows = false,
			BlueHue = 47,
			BlueSaturation = -56,
			Brightness = -3,
			CameraProfile = "ACR 2.4",
			ChromaticAberrationB = 0,
			ChromaticAberrationR = 0,
			Clarity = 12,
			ColorNoiseReduction = 28,
			ColorNoiseReductionDetail = 50,
			Contrast = 26,
			ConvertToGrayscale = false,
			Defringe = 0,
			EnableCalibration = true,
			EnableColorAdjustments = true,
			EnableDetail = true,
			EnableEffects = true,
			EnableLensCorrections = true,
			EnableSplitToning = true,
			Exposure = -0.97,
			FillLight = 8,
			GrainAmount = 0,
			GrainFrequency = 50,
			GrainSize = 25,
			GreenHue = 93,
			GreenSaturation = -100,
			HighlightRecovery = 3,
			HueAdjustmentAqua = 0,
			HueAdjustmentBlue = 0,
			HueAdjustmentGreen = 95,
			HueAdjustmentMagenta = 0,
			HueAdjustmentOrange = -13,
			HueAdjustmentPurple = 0,
			HueAdjustmentRed = 0,
			HueAdjustmentYellow = 4,
			IncrementalTemperature = 0,
			IncrementalTint = 0,
			LuminanceAdjustmentAqua = -1,
			LuminanceAdjustmentBlue = 0,
			LuminanceAdjustmentGreen = 6,
			LuminanceAdjustmentMagenta = 0,
			LuminanceAdjustmentOrange = 62,
			LuminanceAdjustmentPurple = 0,
			LuminanceAdjustmentRed = 7,
			LuminanceAdjustmentYellow = 49,
			LuminanceNoiseReductionContrast = 0,
			LuminanceNoiseReductionDetail = 50,
			LuminanceSmoothing = 11,
			ParametricDarks = 62,
			ParametricHighlightSplit = 75,
			ParametricHighlights = -30,
			ParametricLights = 19,
			ParametricMidtoneSplit = 50,
			ParametricShadowSplit = 25,
			ParametricShadows = -6,
			PostCropVignetteAmount = -20,
			PostCropVignetteFeather = 95,
			PostCropVignetteHighlightContrast = 0,
			PostCropVignetteMidpoint = 23,
			PostCropVignetteRoundness = 45,
			PostCropVignetteStyle = 1,
			ProcessVersion = "5.7",
			RedHue = 68,
			RedSaturation = 100,
			Saturation = 72,
			SaturationAdjustmentAqua = 0,
			SaturationAdjustmentBlue = 0,
			SaturationAdjustmentGreen = -65,
			SaturationAdjustmentMagenta = 0,
			SaturationAdjustmentOrange = -41,
			SaturationAdjustmentPurple = 0,
			SaturationAdjustmentRed = -6,
			SaturationAdjustmentYellow = 9,
			ShadowTint = -52,
			Shadows = 14,
			SharpenDetail = 50,
			SharpenEdgeMasking = 0,
			SharpenRadius = 1,
			Sharpness = 60,
			SplitToningBalance = 85,
			SplitToningHighlightHue = 228,
			SplitToningHighlightSaturation = 41,
			SplitToningShadowHue = 323,
			SplitToningShadowSaturation = 57,
			ToneCurve = {
				0,
				62,
				79,
				128,
				247,
				255,
			},
			ToneCurveName = "Custom",
			Vibrance = -1,
			VignetteAmount = -3,
			VignetteMidpoint = 20,
			WhiteBalance = "Custom",
		},
		uuid = "D94AA69E-C1E3-4211-AAF3-68F409D5617A",
	},
	version = 0,
}
