JAY LAY/JAY LAY - Конструктор пресетов (2014)/Presets/[JAY LAY 03 TONE CURVE] JL/02 contrast.lrtemplate
s = {
	id = "E0C7156E-64CF-47EB-957B-D8A7FC5D17E4",
	internalName = "02 contrast",
	title = "02 contrast",
	type = "Develop",
	value = {
		settings = {
			ParametricDarks = 0,
			ParametricHighlightSplit = 75,
			ParametricHighlights = 0,
			ParametricLights = 0,
			ParametricMidtoneSplit = 50,
			ParametricShadowSplit = 25,
			ParametricShadows = 0,
			ProcessVersion = "6.7",
			ToneCurveName2012 = "Custom",
			ToneCurvePV2012 = {
				0,
				3,
				69,
				37,
				113,
				105,
				171,
				192,
				255,
				249,
			},
			ToneCurvePV2012Blue = {
				0,
				0,
				255,
				255,
			},
			ToneCurvePV2012Green = {
				0,
				0,
				255,
				255,
			},
			ToneCurvePV2012Red = {
				0,
				0,
				255,
				255,
			},
		},
		uuid = "35EAB1D3-F137-4003-9E20-9C59E6456C14",
	},
	version = 0,
}
