JAY LAY/JAY LAY - Конструктор пресетов (2014)/Presets/[JAY LAY 03 TONE CURVE] JL/05 ALL TONES.lrtemplate
s = {
	id = "4BD1C21C-F078-472A-80FC-B7F24A9C5BE4",
	internalName = "05 ALL TONES",
	title = "05 ALL TONES",
	type = "Develop",
	value = {
		settings = {
			ParametricDarks = 0,
			ParametricHighlightSplit = 75,
			ParametricHighlights = 0,
			ParametricLights = 0,
			ParametricMidtoneSplit = 50,
			ParametricShadowSplit = 25,
			ParametricShadows = 0,
			ProcessVersion = "6.7",
			ToneCurveName2012 = "Custom",
			ToneCurvePV2012 = {
				0,
				18,
				65,
				50,
				144,
				190,
				255,
				253,
			},
			ToneCurvePV2012Blue = {
				0,
				13,
				55,
				52,
				127,
				126,
				197,
				198,
				255,
				255,
			},
			ToneCurvePV2012Green = {
				0,
				8,
				64,
				60,
				127,
				127,
				193,
				192,
				231,
				232,
				255,
				253,
			},
			ToneCurvePV2012Red = {
				0,
				7,
				53,
				49,
				123,
				130,
				208,
				207,
				255,
				255,
			},
		},
		uuid = "A0B2775C-50C9-4643-9F8D-6E1ADE139A66",
	},
	version = 0,
}
