CM 600 Lightroom Presets Bundle Vol  2 52062/100 Black & White Lightroom Presets/Black and White Effect 40.lrtemplate
s = {
	id = "25324642-E15A-4E95-B750-DFA907C9D18B",
	internalName = "Black and White Effect 16",
	title = "Black and White Effect 40",
	type = "Develop",
	value = {
		settings = {
			AutoLateralCA = 0,
			Blacks2012 = 0,
			BlueHue = 0,
			BlueSaturation = 0,
			CameraProfile = "Embedded",
			ChromaticAberrationB = 0,
			ChromaticAberrationR = 0,
			Clarity2012 = 76,
			ColorNoiseReduction = 0,
			ColorNoiseReductionDetail = 50,
			ColorNoiseReductionSmoothness = 50,
			Contrast2012 = 2,
			ConvertToGrayscale = true,
			CropConstrainToWarp = 0,
			Defringe = 0,
			DefringeGreenAmount = 0,
			DefringeGreenHueHi = 60,
			DefringeGreenHueLo = 40,
			DefringePurpleAmount = 0,
			DefringePurpleHueHi = 70,
			DefringePurpleHueLo = 30,
			EnableCalibration = true,
			EnableCircularGradientBasedCorrections = true,
			EnableDetail = true,
			EnableEffects = true,
			EnableGradientBasedCorrections = true,
			EnableGrayscaleMix = true,
			EnableLensCorrections = true,
			EnableSplitToning = true,
			Exposure2012 = 0,
			GradientBasedCorrections = {
				{
					CorrectionActive = true,
					CorrectionAmount = 1,
					CorrectionID = "D7330283-DC0B-45BB-A47D-35E8139CE329",
					CorrectionMasks = {
						{
							FullX = 0.027813,
							FullY = 0.250024,
							MaskID = "5EC0DCFF-1DB6-48F9-8431-3F79A32AE4CC",
							MaskValue = 1,
							What = "Mask/Gradient",
							ZeroX = -0.918324,
							ZeroY = 1.19381,
						},
					},
					CorrectionReferenceX = -0.445256,
					CorrectionReferenceY = 0.721917,
					LocalBrightness = 0,
					LocalClarity = 0,
					LocalClarity2012 = 0,
					LocalContrast = 0,
					LocalContrast2012 = -0.1954,
					LocalDefringe = 0,
					LocalExposure = 0,
					LocalExposure2012 = 0,
					LocalHighlights2012 = 0.14943,
					LocalLuminanceNoise = 0,
					LocalMoire = 0,
					LocalSaturation = -1,
					LocalShadows2012 = 0.28736,
					LocalSharpness = 0,
					LocalTemperature = 0,
					LocalTint = 0,
					LocalToningHue = 50,
					LocalToningSaturation = 0.207,
					What = "Correction",
				},
			},
			GrainAmount = 0,
			GrainFrequency = 50,
			GrainSize = 25,
			GrayMixerAqua = -18,
			GrayMixerBlue = 14,
			GrayMixerGreen = -30,
			GrayMixerMagenta = 6,
			GrayMixerOrange = -22,
			GrayMixerPurple = 20,
			GrayMixerRed = -11,
			GrayMixerYellow = -27,
			GreenHue = 0,
			GreenSaturation = 0,
			Highlights2012 = -29,
			LensManualDistortionAmount = 0,
			LensProfileEnable = 0,
			LensProfileSetup = "LensDefaults",
			LuminanceNoiseReductionContrast = 0,
			LuminanceNoiseReductionDetail = 50,
			LuminanceSmoothing = 0,
			ParametricDarks = 0,
			ParametricHighlightSplit = 75,
			ParametricHighlights = 0,
			ParametricLights = 0,
			ParametricMidtoneSplit = 50,
			ParametricShadowSplit = 25,
			ParametricShadows = 0,
			PerspectiveAspect = 0,
			PerspectiveHorizontal = 0,
			PerspectiveRotate = 0,
			PerspectiveScale = 100,
			PerspectiveUpright = 0,
			PerspectiveVertical = 0,
			PostCropVignetteAmount = -26,
			PostCropVignetteFeather = 50,
			PostCropVignetteHighlightContrast = 0,
			PostCropVignetteMidpoint = 50,
			PostCropVignetteRoundness = 0,
			PostCropVignetteStyle = 1,
			ProcessVersion = "6.7",
			RedHue = 0,
			RedSaturation = 0,
			ShadowTint = 0,
			Shadows2012 = 0,
			SharpenDetail = 25,
			SharpenEdgeMasking = 0,
			SharpenRadius = 1,
			Sharpness = 0,
			SplitToningBalance = 0,
			SplitToningHighlightHue = 229,
			SplitToningHighlightSaturation = 0,
			SplitToningShadowHue = 226,
			SplitToningShadowSaturation = 35,
			ToneCurveName2012 = "Custom",
			ToneCurvePV2012 = {
				11,
				50,
				99,
				111,
				176,
				179,
				255,
				255,
			},
			ToneCurvePV2012Blue = {
				0,
				39,
				156,
				134,
				253,
				255,
			},
			ToneCurvePV2012Green = {
				0,
				0,
				255,
				255,
			},
			ToneCurvePV2012Red = {
				0,
				0,
				255,
				255,
			},
			VignetteAmount = 0,
			VignetteMidpoint = 50,
			WhiteBalance = "As Shot",
			Whites2012 = 0,
			orientation = "AB",
		},
		uuid = "4887D710-D8DB-4B06-AE43-E5EF64F07C86",
	},
	version = 0,
}
