CM 200+ All Seasons presets 181273/Pastel Presets Spring/Campanula.lrtemplate
s = {
	id = "674671CF-56E5-40F7-A773-1FFF8F27982D",
	internalName = "Campanula Purple",
	title = "Campanula",
	type = "Develop",
	value = {
		settings = {
			AutoLateralCA = 0,
			Blacks2012 = 31,
			BlueHue = 0,
			BlueSaturation = 0,
			CameraProfile = "Adobe Standard",
			ChromaticAberrationB = 0,
			ChromaticAberrationR = 0,
			Clarity2012 = 15,
			ColorNoiseReduction = 25,
			ColorNoiseReductionDetail = 50,
			ColorNoiseReductionSmoothness = 50,
			Contrast2012 = 0,
			ConvertToGrayscale = false,
			CropConstrainToWarp = 0,
			Defringe = 0,
			DefringeGreenAmount = 0,
			DefringeGreenHueHi = 60,
			DefringeGreenHueLo = 40,
			DefringePurpleAmount = 0,
			DefringePurpleHueHi = 70,
			DefringePurpleHueLo = 30,
			EnableCalibration = true,
			EnableCircularGradientBasedCorrections = true,
			EnableColorAdjustments = true,
			EnableDetail = true,
			EnableEffects = true,
			EnableGradientBasedCorrections = true,
			EnableLensCorrections = true,
			EnableSplitToning = true,
			Exposure2012 = 0.2,
			GrainAmount = 0,
			GrainFrequency = 50,
			GrainSize = 25,
			GreenHue = 0,
			GreenSaturation = 0,
			Highlights2012 = 0,
			HueAdjustmentAqua = 0,
			HueAdjustmentBlue = 23,
			HueAdjustmentGreen = 14,
			HueAdjustmentMagenta = -23,
			HueAdjustmentOrange = 0,
			HueAdjustmentPurple = -31,
			HueAdjustmentRed = -19,
			HueAdjustmentYellow = 0,
			LensManualDistortionAmount = 0,
			LensProfileEnable = 0,
			LensProfileSetup = "LensDefaults",
			LuminanceAdjustmentAqua = 0,
			LuminanceAdjustmentBlue = 39,
			LuminanceAdjustmentGreen = 16,
			LuminanceAdjustmentMagenta = 34,
			LuminanceAdjustmentOrange = -10,
			LuminanceAdjustmentPurple = 36,
			LuminanceAdjustmentRed = 20,
			LuminanceAdjustmentYellow = 0,
			LuminanceNoiseReductionContrast = 0,
			LuminanceNoiseReductionDetail = 50,
			LuminanceSmoothing = 10,
			ParametricDarks = 0,
			ParametricHighlightSplit = 75,
			ParametricHighlights = 0,
			ParametricLights = 0,
			ParametricMidtoneSplit = 50,
			ParametricShadowSplit = 25,
			ParametricShadows = 0,
			PerspectiveAspect = 0,
			PerspectiveHorizontal = 0,
			PerspectiveRotate = 0,
			PerspectiveScale = 100,
			PerspectiveUpright = 0,
			PerspectiveVertical = 0,
			PostCropVignetteAmount = -20,
			PostCropVignetteFeather = 50,
			PostCropVignetteHighlightContrast = 0,
			PostCropVignetteMidpoint = 13,
			PostCropVignetteRoundness = -17,
			PostCropVignetteStyle = 1,
			ProcessVersion = "6.7",
			RedHue = 0,
			RedSaturation = 0,
			Saturation = 0,
			SaturationAdjustmentAqua = 0,
			SaturationAdjustmentBlue = 48,
			SaturationAdjustmentGreen = -28,
			SaturationAdjustmentMagenta = 35,
			SaturationAdjustmentOrange = -2,
			SaturationAdjustmentPurple = 42,
			SaturationAdjustmentRed = 0,
			SaturationAdjustmentYellow = -6,
			ShadowTint = 0,
			Shadows2012 = 13,
			SharpenDetail = 45,
			SharpenEdgeMasking = 0,
			SharpenRadius = 1,
			Sharpness = 25,
			SplitToningBalance = 44,
			SplitToningHighlightHue = 239,
			SplitToningHighlightSaturation = 31,
			SplitToningShadowHue = 53,
			SplitToningShadowSaturation = 22,
			Temperature = 5000,
			Tint = -6,
			ToneCurveName2012 = "Custom",
			ToneCurvePV2012 = {
				46,
				46,
				65,
				62,
				83,
				84,
				135,
				132,
				255,
				255,
			},
			ToneCurvePV2012Blue = {
				0,
				0,
				255,
				255,
			},
			ToneCurvePV2012Green = {
				0,
				0,
				255,
				255,
			},
			ToneCurvePV2012Red = {
				0,
				0,
				255,
				255,
			},
			Vibrance = 44,
			VignetteAmount = 0,
			VignetteMidpoint = 50,
			WhiteBalance = "Custom",
			Whites2012 = 0,
			orientation = "DA",
		},
		uuid = "96A3B41B-1FC8-4FC7-9C48-20136C43999F",
	},
	version = 0,
}
