CM - FILM LOOK Portraits Lightroom Preset 325744/CM - FILM LOOK Portraits Lightroom Preset 325744/25 .Irtemplate Presets/12. Film look Portraits_aestheticartz.com.lrtemplate
s = {
	id = "868A552C-7BCE-4C01-8411-FB6CD0CA3B47",
	internalName = "12. Film look Portraits_aestheticartz.com",
	title = "12. Film look Portraits_aestheticartz.com",
	type = "Develop",
	value = {
		settings = {
			AutoLateralCA = 0,
			Blacks2012 = -30,
			BlueHue = 10,
			BlueSaturation = 0,
			CameraProfile = "Adobe Standard",
			ChromaticAberrationB = 0,
			ChromaticAberrationR = 0,
			Clarity2012 = 9,
			ColorNoiseReduction = 0,
			ColorNoiseReductionDetail = 50,
			ColorNoiseReductionSmoothness = 50,
			Contrast2012 = 21,
			ConvertToGrayscale = false,
			CropConstrainToWarp = 0,
			Defringe = 0,
			DefringeGreenAmount = 0,
			DefringeGreenHueHi = 60,
			DefringeGreenHueLo = 40,
			DefringePurpleAmount = 0,
			DefringePurpleHueHi = 70,
			DefringePurpleHueLo = 30,
			EnableCalibration = true,
			EnableColorAdjustments = true,
			EnableDetail = true,
			EnableEffects = true,
			EnableGradientBasedCorrections = true,
			EnableLensCorrections = true,
			EnableSplitToning = true,
			Exposure2012 = 0,
			GrainAmount = 30,
			GrainFrequency = 65,
			GrainSize = 25,
			GreenHue = 0,
			GreenSaturation = 0,
			Highlights2012 = -45,
			HueAdjustmentAqua = 0,
			HueAdjustmentBlue = -15,
			HueAdjustmentGreen = 10,
			HueAdjustmentMagenta = 0,
			HueAdjustmentOrange = 10,
			HueAdjustmentPurple = 0,
			HueAdjustmentRed = 40,
			HueAdjustmentYellow = 0,
			IncrementalTemperature = 0,
			IncrementalTint = 0,
			LensManualDistortionAmount = 0,
			LensProfileEnable = 0,
			LensProfileSetup = "LensDefaults",
			LuminanceAdjustmentAqua = -20,
			LuminanceAdjustmentBlue = -30,
			LuminanceAdjustmentGreen = -40,
			LuminanceAdjustmentMagenta = -40,
			LuminanceAdjustmentOrange = -15,
			LuminanceAdjustmentPurple = -15,
			LuminanceAdjustmentRed = -30,
			LuminanceAdjustmentYellow = -10,
			LuminanceNoiseReductionContrast = 0,
			LuminanceNoiseReductionDetail = 50,
			LuminanceSmoothing = 0,
			ParametricDarks = -20,
			ParametricHighlightSplit = 75,
			ParametricHighlights = 5,
			ParametricLights = 20,
			ParametricMidtoneSplit = 50,
			ParametricShadowSplit = 10,
			ParametricShadows = -65,
			PerspectiveAspect = 0,
			PerspectiveHorizontal = 0,
			PerspectiveRotate = 0,
			PerspectiveScale = 100,
			PerspectiveVertical = 0,
			PostCropVignetteAmount = -10,
			PostCropVignetteFeather = 50,
			PostCropVignetteHighlightContrast = 0,
			PostCropVignetteMidpoint = 50,
			PostCropVignetteRoundness = 100,
			PostCropVignetteStyle = 1,
			ProcessVersion = "6.7",
			RedHue = 0,
			RedSaturation = 0,
			Saturation = 20,
			SaturationAdjustmentAqua = -50,
			SaturationAdjustmentBlue = -45,
			SaturationAdjustmentGreen = -90,
			SaturationAdjustmentMagenta = -20,
			SaturationAdjustmentOrange = -10,
			SaturationAdjustmentPurple = -40,
			SaturationAdjustmentRed = -20,
			SaturationAdjustmentYellow = -25,
			ShadowTint = 0,
			Shadows2012 = -15,
			SharpenDetail = 25,
			SharpenEdgeMasking = 0,
			SharpenRadius = 1,
			Sharpness = 25,
			SplitToningBalance = 0,
			SplitToningHighlightHue = 0,
			SplitToningHighlightSaturation = 0,
			SplitToningShadowHue = 0,
			SplitToningShadowSaturation = 0,
			ToneCurveName2012 = "Custom",
			ToneCurvePV2012 = {
				0,
				41,
				49,
				53,
				188,
				194,
				255,
				255,
			},
			ToneCurvePV2012Blue = {
				18,
				0,
				128,
				128,
				200,
				203,
				255,
				255,
			},
			ToneCurvePV2012Green = {
				0,
				0,
				37,
				35,
				123,
				128,
				200,
				203,
				255,
				255,
			},
			ToneCurvePV2012Red = {
				0,
				20,
				35,
				38,
				123,
				128,
				200,
				203,
				255,
				244,
			},
			Vibrance = -20,
			VignetteAmount = 0,
			VignetteMidpoint = 50,
			WhiteBalance = "Custom",
			Whites2012 = 0,
			orientation = "AB",
		},
		uuid = "94E921A6-B8F6-49E7-BA63-BCEE54B1F433",
	},
	version = 0,
}
