1100 Lightroom Presets/CM 1100+ Lightroom Presets 320973/50 Born Baby Lightroom Presets/Baby Effect 44.lrtemplate
s = {
	id = "FFB6F969-551E-4FA1-BD04-A597AADB12FF",
	internalName = "Baby Effect 44",
	title = "Baby Effect 44",
	type = "Develop",
	value = {
		settings = {
			AutoLateralCA = 0,
			Blacks2012 = 5,
			BlueHue = 0,
			BlueSaturation = 0,
			CameraProfile = "Embedded",
			ChromaticAberrationB = 0,
			ChromaticAberrationR = 0,
			Clarity2012 = 0,
			ColorNoiseReduction = 0,
			ColorNoiseReductionDetail = 50,
			ColorNoiseReductionSmoothness = 50,
			Contrast2012 = 0,
			ConvertToGrayscale = false,
			CropConstrainToWarp = 0,
			Defringe = 0,
			DefringeGreenAmount = 0,
			DefringeGreenHueHi = 60,
			DefringeGreenHueLo = 40,
			DefringePurpleAmount = 0,
			DefringePurpleHueHi = 70,
			DefringePurpleHueLo = 30,
			EnableCalibration = true,
			EnableCircularGradientBasedCorrections = true,
			EnableColorAdjustments = true,
			EnableDetail = true,
			EnableEffects = true,
			EnableGradientBasedCorrections = true,
			EnableLensCorrections = true,
			EnableSplitToning = true,
			Exposure2012 = 0,
			GradientBasedCorrections = {
				{
					CorrectionActive = true,
					CorrectionAmount = 1,
					CorrectionID = "63CA4EE9-9D0E-4D2E-B578-0ED40E9FE411",
					CorrectionMasks = {
						{
							FullX = 1.03148,
							FullY = 0.061005,
							MaskID = "98436349-4091-4453-9F94-19C2819D70C5",
							MaskValue = 1,
							What = "Mask/Gradient",
							ZeroX = 1.13727,
							ZeroY = 0.060946,
						},
					},
					CorrectionReferenceX = 1.08438,
					CorrectionReferenceY = 0.0609755,
					LocalBrightness = 0,
					LocalClarity = 0,
					LocalClarity2012 = 0.1954,
					LocalContrast = 0,
					LocalContrast2012 = -0.10345,
					LocalDefringe = 0,
					LocalExposure = 0,
					LocalExposure2012 = 0.1725,
					LocalHighlights2012 = 0,
					LocalLuminanceNoise = 0,
					LocalMoire = 0,
					LocalSaturation = 0.24138,
					LocalShadows2012 = 0.12644,
					LocalSharpness = 0.33333,
					LocalTemperature = 0,
					LocalTint = 0,
					LocalToningHue = 340,
					LocalToningSaturation = 0.345,
					What = "Correction",
				},
				{
					CorrectionActive = true,
					CorrectionAmount = 1,
					CorrectionID = "58E259BA-6F7A-4794-9EB8-98175AB855BC",
					CorrectionMasks = {
						{
							FullX = 0.194514,
							FullY = 0.686679,
							MaskID = "6F1BDAAF-83B1-4E48-B499-8E5FAC0C8234",
							MaskValue = 1,
							What = "Mask/Gradient",
							ZeroX = 0.047382,
							ZeroY = 0.883678,
						},
					},
					CorrectionReferenceX = 0.120948,
					CorrectionReferenceY = 0.785179,
					LocalBrightness = 0,
					LocalClarity = 0,
					LocalClarity2012 = 0.24138,
					LocalContrast = 0,
					LocalContrast2012 = -0.6092,
					LocalDefringe = 0,
					LocalExposure = 0,
					LocalExposure2012 = -0.0575,
					LocalHighlights2012 = 0,
					LocalLuminanceNoise = 0,
					LocalMoire = 0,
					LocalSaturation = 0,
					LocalShadows2012 = 0,
					LocalSharpness = 0,
					LocalTemperature = 0,
					LocalTint = 0,
					LocalToningHue = 0,
					LocalToningSaturation = 0,
					What = "Correction",
				},
			},
			GrainAmount = 0,
			GrainFrequency = 50,
			GrainSize = 25,
			GreenHue = 0,
			GreenSaturation = 0,
			Highlights2012 = 0,
			HueAdjustmentAqua = 0,
			HueAdjustmentBlue = 0,
			HueAdjustmentGreen = 0,
			HueAdjustmentMagenta = 0,
			HueAdjustmentOrange = 0,
			HueAdjustmentPurple = 0,
			HueAdjustmentRed = 0,
			HueAdjustmentYellow = 0,
			IncrementalTemperature = -5,
			IncrementalTint = -17,
			LensManualDistortionAmount = 0,
			LensProfileEnable = 0,
			LensProfileSetup = "LensDefaults",
			LuminanceAdjustmentAqua = 0,
			LuminanceAdjustmentBlue = 0,
			LuminanceAdjustmentGreen = 0,
			LuminanceAdjustmentMagenta = 0,
			LuminanceAdjustmentOrange = 0,
			LuminanceAdjustmentPurple = 0,
			LuminanceAdjustmentRed = 0,
			LuminanceAdjustmentYellow = 0,
			LuminanceNoiseReductionContrast = 0,
			LuminanceNoiseReductionDetail = 50,
			LuminanceSmoothing = 0,
			ParametricDarks = 0,
			ParametricHighlightSplit = 75,
			ParametricHighlights = 0,
			ParametricLights = 0,
			ParametricMidtoneSplit = 50,
			ParametricShadowSplit = 25,
			ParametricShadows = 0,
			PerspectiveAspect = 0,
			PerspectiveHorizontal = 0,
			PerspectiveRotate = 0,
			PerspectiveScale = 100,
			PerspectiveUpright = 0,
			PerspectiveVertical = 0,
			PostCropVignetteAmount = 0,
			PostCropVignetteFeather = 50,
			PostCropVignetteHighlightContrast = 0,
			PostCropVignetteMidpoint = 50,
			PostCropVignetteRoundness = 0,
			PostCropVignetteStyle = 1,
			ProcessVersion = "6.7",
			RedHue = 0,
			RedSaturation = 0,
			Saturation = 0,
			SaturationAdjustmentAqua = 0,
			SaturationAdjustmentBlue = 0,
			SaturationAdjustmentGreen = 0,
			SaturationAdjustmentMagenta = 0,
			SaturationAdjustmentOrange = 0,
			SaturationAdjustmentPurple = 0,
			SaturationAdjustmentRed = 0,
			SaturationAdjustmentYellow = 0,
			ShadowTint = 0,
			Shadows2012 = 33,
			SharpenDetail = 25,
			SharpenEdgeMasking = 0,
			SharpenRadius = 1,
			Sharpness = 0,
			SplitToningBalance = 0,
			SplitToningHighlightHue = 0,
			SplitToningHighlightSaturation = 0,
			SplitToningShadowHue = 0,
			SplitToningShadowSaturation = 0,
			ToneCurveName2012 = "Custom",
			ToneCurvePV2012 = {
				0,
				0,
				255,
				255,
			},
			ToneCurvePV2012Blue = {
				0,
				0,
				255,
				255,
			},
			ToneCurvePV2012Green = {
				20,
				18,
				229,
				247,
			},
			ToneCurvePV2012Red = {
				0,
				0,
				255,
				249,
			},
			Vibrance = -29,
			VignetteAmount = 0,
			VignetteMidpoint = 50,
			WhiteBalance = "Custom",
			Whites2012 = 0,
			orientation = "AB",
		},
		uuid = "99493AB1-07D7-4F2A-BA26-E1DF59389BCA",
	},
	version = 0,
}
