CM - Light Leaks Senses Lightroom Presets 323640/Lightleaks presets by Sleeklens.com/Light Leak 20.lrtemplate
s = {
	id = "9E455329-C9EE-4A58-87F4-104358F940CC",
	internalName = "Light Leak 20",
	title = "Light Leak 20",
	type = "Develop",
	value = {
		settings = {
			AutoLateralCA = 0,
			Blacks2012 = 0,
			BlueHue = 0,
			BlueSaturation = 0,
			CameraProfile = "Embedded",
			ChromaticAberrationB = 0,
			ChromaticAberrationR = 0,
			Clarity2012 = 0,
			ColorNoiseReduction = 0,
			ColorNoiseReductionDetail = 50,
			Contrast2012 = 0,
			ConvertToGrayscale = true,
			CropConstrainToWarp = 0,
			Defringe = 0,
			EnableCalibration = true,
			EnableDetail = true,
			EnableEffects = true,
			EnableGradientBasedCorrections = true,
			EnableGrayscaleMix = true,
			EnableLensCorrections = true,
			EnableSplitToning = true,
			Exposure2012 = 0,
			GradientBasedCorrections = {
				{
					CorrectionActive = true,
					CorrectionAmount = 1,
					CorrectionID = "D79F58F6-1C28-41E1-A1CE-66E9395A7DC1",
					CorrectionMasks = {
						{
							FullX = 1.10504,
							FullY = 0.485643,
							MaskID = "1F1D0F35-78DB-4AEB-A11D-5A64EE70C28D",
							MaskValue = 1,
							What = "Mask/Gradient",
							ZeroX = 0.757799,
							ZeroY = 0.682625,
						},
					},
					CorrectionReferenceX = 0.93142,
					CorrectionReferenceY = 0.584134,
					LocalBrightness = 0,
					LocalClarity = 0,
					LocalClarity2012 = 0,
					LocalContrast = 0,
					LocalContrast2012 = 0,
					LocalExposure = 0.25,
					LocalExposure2012 = 0.5295,
					LocalHighlights2012 = 0,
					LocalLuminanceNoise = 0,
					LocalMoire = 0,
					LocalSaturation = 0,
					LocalShadows2012 = 0,
					LocalSharpness = 0,
					LocalTemperature = 1,
					LocalTint = 0,
					LocalToningHue = 0,
					LocalToningSaturation = 0.99,
					What = "Correction",
				},
				{
					CorrectionActive = true,
					CorrectionAmount = 1,
					CorrectionID = "D378D253-5A3E-4006-B390-DD17FAF10373",
					CorrectionMasks = {
						{
							FullX = 1.18646,
							FullY = 0.576114,
							MaskID = "5DABF837-61B8-4A19-AF71-F088D2413BCB",
							MaskValue = 1,
							What = "Mask/Gradient",
							ZeroX = 0.735333,
							ZeroY = 0.595766,
						},
					},
					CorrectionReferenceX = 0.960897,
					CorrectionReferenceY = 0.58594,
					LocalBrightness = 0,
					LocalClarity = 0,
					LocalClarity2012 = 0,
					LocalContrast = 0,
					LocalContrast2012 = 0,
					LocalExposure = 0.25,
					LocalExposure2012 = 0,
					LocalHighlights2012 = 0,
					LocalLuminanceNoise = 0,
					LocalMoire = 0,
					LocalSaturation = 0,
					LocalShadows2012 = 0,
					LocalSharpness = 0,
					LocalTemperature = 0.05882,
					LocalTint = 1,
					LocalToningHue = 63.75,
					LocalToningSaturation = 0,
					What = "Correction",
				},
				{
					CorrectionActive = true,
					CorrectionAmount = 1,
					CorrectionID = "FB7B46D2-FE63-49C4-8018-10395951C071",
					CorrectionMasks = {
						{
							FullX = 1.00713,
							FullY = 0.320395,
							MaskID = "A9DCC7FA-EE45-4405-8149-AAE5DE57D631",
							MaskValue = 1,
							What = "Mask/Gradient",
							ZeroX = 0.831845,
							ZeroY = 0.343687,
						},
					},
					CorrectionReferenceX = 0.919488,
					CorrectionReferenceY = 0.332041,
					LocalBrightness = 0,
					LocalClarity = 0,
					LocalClarity2012 = 0,
					LocalContrast = 0,
					LocalContrast2012 = 0,
					LocalExposure = 0.25,
					LocalExposure2012 = 0.1765,
					LocalHighlights2012 = 0,
					LocalLuminanceNoise = 0,
					LocalMoire = 0,
					LocalSaturation = 0,
					LocalShadows2012 = 0,
					LocalSharpness = 0,
					LocalTemperature = 1,
					LocalTint = 0,
					LocalToningHue = 11,
					LocalToningSaturation = 0.73,
					What = "Correction",
				},
			},
			GrainAmount = 0,
			GrainFrequency = 50,
			GrainSize = 25,
			GrayMixerAqua = -17,
			GrayMixerBlue = 15,
			GrayMixerGreen = -28,
			GrayMixerMagenta = 5,
			GrayMixerOrange = -20,
			GrayMixerPurple = 19,
			GrayMixerRed = -11,
			GrayMixerYellow = -25,
			GreenHue = 0,
			GreenSaturation = 0,
			Highlights2012 = 0,
			LensManualDistortionAmount = 0,
			LensProfileEnable = 0,
			LensProfileSetup = "LensDefaults",
			LuminanceNoiseReductionContrast = 0,
			LuminanceNoiseReductionDetail = 50,
			LuminanceSmoothing = 0,
			ParametricDarks = 0,
			ParametricHighlightSplit = 75,
			ParametricHighlights = 0,
			ParametricLights = 0,
			ParametricMidtoneSplit = 50,
			ParametricShadowSplit = 25,
			ParametricShadows = 0,
			PerspectiveHorizontal = 0,
			PerspectiveRotate = 0,
			PerspectiveScale = 100,
			PerspectiveVertical = 0,
			PostCropVignetteAmount = 0,
			PostCropVignetteFeather = 50,
			PostCropVignetteHighlightContrast = 0,
			PostCropVignetteMidpoint = 50,
			PostCropVignetteRoundness = 0,
			PostCropVignetteStyle = 1,
			ProcessVersion = "6.7",
			RedHue = 0,
			RedSaturation = 0,
			ShadowTint = 0,
			Shadows2012 = 0,
			SharpenDetail = 25,
			SharpenEdgeMasking = 0,
			SharpenRadius = 1,
			Sharpness = 0,
			SplitToningBalance = 0,
			SplitToningHighlightHue = 27,
			SplitToningHighlightSaturation = 40,
			SplitToningShadowHue = 281,
			SplitToningShadowSaturation = 6,
			ToneCurveName2012 = "Linear",
			ToneCurvePV2012 = {
				0,
				0,
				255,
				255,
			},
			ToneCurvePV2012Blue = {
				0,
				0,
				255,
				255,
			},
			ToneCurvePV2012Green = {
				0,
				0,
				255,
				255,
			},
			ToneCurvePV2012Red = {
				0,
				0,
				255,
				255,
			},
			VignetteAmount = 0,
			VignetteMidpoint = 50,
			WhiteBalance = "As Shot",
			Whites2012 = 0,
			orientation = "AB",
		},
		uuid = "7B151BF8-CA07-4B13-8096-0C9A6E20CA60",
	},
	version = 0,
}
