1100 Lightroom Presets/CM 1100+ Lightroom Presets 320973/10 Light Preset/Lightning Plum.lrtemplate
s = {
	id = "BECF04E2-E895-4EAA-8791-F0774AE58A0F",
	internalName = "Lightning Plum",
	title = "Lightning Plum",
	type = "Develop",
	value = {
		settings = {
			AutoLateralCA = 1,
			Blacks2012 = 0,
			BlueHue = 5,
			BlueSaturation = -40,
			CameraProfile = "Embedded",
			ChromaticAberrationB = 0,
			ChromaticAberrationR = 0,
			Clarity2012 = 26,
			ColorNoiseReduction = 0,
			ColorNoiseReductionDetail = 50,
			ColorNoiseReductionSmoothness = 50,
			Contrast2012 = 64,
			ConvertToGrayscale = false,
			CropConstrainToWarp = 0,
			Defringe = 0,
			DefringeGreenAmount = 0,
			DefringeGreenHueHi = 60,
			DefringeGreenHueLo = 40,
			DefringePurpleAmount = 0,
			DefringePurpleHueHi = 70,
			DefringePurpleHueLo = 30,
			EnableCalibration = true,
			EnableCircularGradientBasedCorrections = true,
			EnableColorAdjustments = true,
			EnableDetail = true,
			EnableEffects = true,
			EnableGradientBasedCorrections = true,
			EnableLensCorrections = true,
			EnableSplitToning = true,
			Exposure2012 = -0.12,
			GrainAmount = 0,
			GrainFrequency = 50,
			GrainSize = 25,
			GreenHue = 21,
			GreenSaturation = 0,
			Highlights2012 = -31,
			HueAdjustmentAqua = -49,
			HueAdjustmentBlue = 91,
			HueAdjustmentGreen = -33,
			HueAdjustmentMagenta = 28,
			HueAdjustmentOrange = 24,
			HueAdjustmentPurple = 2,
			HueAdjustmentRed = -42,
			HueAdjustmentYellow = 47,
			IncrementalTemperature = 60,
			IncrementalTint = -98,
			LensManualDistortionAmount = 0,
			LensProfileEnable = 0,
			LensProfileSetup = "LensDefaults",
			LuminanceAdjustmentAqua = -56,
			LuminanceAdjustmentBlue = 60,
			LuminanceAdjustmentGreen = -18,
			LuminanceAdjustmentMagenta = 0,
			LuminanceAdjustmentOrange = 67,
			LuminanceAdjustmentPurple = -64,
			LuminanceAdjustmentRed = -24,
			LuminanceAdjustmentYellow = -9,
			LuminanceNoiseReductionContrast = 0,
			LuminanceNoiseReductionDetail = 50,
			LuminanceSmoothing = 0,
			ParametricDarks = 0,
			ParametricHighlightSplit = 75,
			ParametricHighlights = 0,
			ParametricLights = 0,
			ParametricMidtoneSplit = 50,
			ParametricShadowSplit = 25,
			ParametricShadows = 0,
			PerspectiveAspect = 0,
			PerspectiveHorizontal = 0,
			PerspectiveRotate = 0,
			PerspectiveScale = 100,
			PerspectiveUpright = 0,
			PerspectiveVertical = 0,
			PostCropVignetteAmount = 14,
			PostCropVignetteFeather = 50,
			PostCropVignetteHighlightContrast = 0,
			PostCropVignetteMidpoint = 50,
			PostCropVignetteRoundness = 0,
			PostCropVignetteStyle = 2,
			ProcessVersion = "6.7",
			RedHue = -2,
			RedSaturation = -71,
			Saturation = -48,
			SaturationAdjustmentAqua = 0,
			SaturationAdjustmentBlue = 0,
			SaturationAdjustmentGreen = 53,
			SaturationAdjustmentMagenta = -56,
			SaturationAdjustmentOrange = -40,
			SaturationAdjustmentPurple = -52,
			SaturationAdjustmentRed = -15,
			SaturationAdjustmentYellow = 40,
			ShadowTint = -50,
			Shadows2012 = 57,
			SharpenDetail = 25,
			SharpenEdgeMasking = 0,
			SharpenRadius = 1,
			Sharpness = 80,
			SplitToningBalance = -83,
			SplitToningHighlightHue = 353,
			SplitToningHighlightSaturation = 70,
			SplitToningShadowHue = 340,
			SplitToningShadowSaturation = 45,
			ToneCurveName2012 = "Linear",
			ToneCurvePV2012 = {
				0,
				0,
				255,
				255,
			},
			ToneCurvePV2012Blue = {
				0,
				0,
				255,
				255,
			},
			ToneCurvePV2012Green = {
				0,
				0,
				255,
				255,
			},
			ToneCurvePV2012Red = {
				0,
				0,
				255,
				255,
			},
			Vibrance = -14,
			VignetteAmount = 0,
			VignetteMidpoint = 50,
			WhiteBalance = "Custom",
			Whites2012 = 55,
			orientation = "AB",
		},
		uuid = "899E2B63-F443-4901-9EB1-5CB59BC0494F",
	},
	version = 0,
}
