Premium Actions Bundle/Premium Actions Bundle/LIGHTROOM/PRESETS/Carnivor Retouch/Dark Grainy.lrtemplate
s = {
	id = "E9AF68C7-0106-433B-B540-848436E15E0B",
	internalName = "Dark Grainy",
	title = "Dark Grainy",
	type = "Develop",
	value = {
		settings = {
			AutoLateralCA = 0,
			Blacks2012 = 0,
			BlueHue = -100,
			BlueSaturation = -17,
			CameraProfile = "Embedded",
			ChromaticAberrationB = -65,
			ChromaticAberrationR = -51,
			Clarity2012 = 0,
			ColorNoiseReduction = 66,
			ColorNoiseReductionDetail = 50,
			Contrast2012 = 0,
			ConvertToGrayscale = false,
			Defringe = 0,
			DefringeGreenAmount = 12,
			DefringeGreenHueHi = 60,
			DefringeGreenHueLo = 40,
			DefringePurpleAmount = 15,
			DefringePurpleHueHi = 70,
			DefringePurpleHueLo = 30,
			EnableCalibration = true,
			EnableColorAdjustments = true,
			EnableDetail = true,
			EnableEffects = true,
			EnableLensCorrections = true,
			EnableSplitToning = true,
			Exposure2012 = 0,
			GrainAmount = 55,
			GrainFrequency = 45,
			GrainSize = 19,
			GreenHue = 100,
			GreenSaturation = -100,
			Highlights2012 = 0,
			HueAdjustmentAqua = 0,
			HueAdjustmentBlue = 0,
			HueAdjustmentGreen = 0,
			HueAdjustmentMagenta = 0,
			HueAdjustmentOrange = 0,
			HueAdjustmentPurple = 0,
			HueAdjustmentRed = 0,
			HueAdjustmentYellow = 0,
			IncrementalTemperature = 18,
			IncrementalTint = -53,
			LuminanceAdjustmentAqua = 0,
			LuminanceAdjustmentBlue = 0,
			LuminanceAdjustmentGreen = 0,
			LuminanceAdjustmentMagenta = 0,
			LuminanceAdjustmentOrange = 0,
			LuminanceAdjustmentPurple = 0,
			LuminanceAdjustmentRed = 0,
			LuminanceAdjustmentYellow = 0,
			LuminanceNoiseReductionContrast = 0,
			LuminanceNoiseReductionDetail = 50,
			LuminanceSmoothing = 40,
			ParametricDarks = -44,
			ParametricHighlightSplit = 75,
			ParametricHighlights = -55,
			ParametricLights = 67,
			ParametricMidtoneSplit = 50,
			ParametricShadowSplit = 25,
			ParametricShadows = -32,
			PostCropVignetteAmount = -45,
			PostCropVignetteFeather = 100,
			PostCropVignetteHighlightContrast = 68,
			PostCropVignetteMidpoint = 25,
			PostCropVignetteRoundness = 21,
			PostCropVignetteStyle = 1,
			ProcessVersion = "6.7",
			RedHue = 100,
			RedSaturation = 100,
			Saturation = -24,
			SaturationAdjustmentAqua = 0,
			SaturationAdjustmentBlue = 32,
			SaturationAdjustmentGreen = -25,
			SaturationAdjustmentMagenta = 0,
			SaturationAdjustmentOrange = 0,
			SaturationAdjustmentPurple = 0,
			SaturationAdjustmentRed = 0,
			SaturationAdjustmentYellow = 0,
			ShadowTint = -100,
			Shadows2012 = 0,
			SharpenDetail = 25,
			SharpenEdgeMasking = 0,
			SharpenRadius = 1,
			Sharpness = 48,
			SplitToningBalance = 0,
			SplitToningHighlightHue = 81,
			SplitToningHighlightSaturation = 69,
			SplitToningShadowHue = 0,
			SplitToningShadowSaturation = 0,
			ToneCurveName2012 = "Linear",
			ToneCurvePV2012 = {
				0,
				0,
				255,
				255,
			},
			ToneCurvePV2012Blue = {
				0,
				0,
				255,
				255,
			},
			ToneCurvePV2012Green = {
				0,
				0,
				255,
				255,
			},
			ToneCurvePV2012Red = {
				0,
				0,
				255,
				255,
			},
			Vibrance = -44,
			VignetteAmount = -100,
			VignetteMidpoint = 4,
			WhiteBalance = "Custom",
			Whites2012 = 0,
		},
		uuid = "625D461D-F01B-4063-93EC-8026A70B3AFA",
	},
	version = 0,
}
