Premium Actions Bundle/Premium Actions Bundle/LIGHTROOM/PRESETS/Carnivor Retouch/Surreal.lrtemplate
s = {
	id = "6EA0C920-6AAC-47C2-AB7E-9B32D4CAC59D",
	internalName = "Surreal",
	title = "Surreal",
	type = "Develop",
	value = {
		settings = {
			AutoBrightness = false,
			AutoContrast = false,
			AutoExposure = false,
			AutoShadows = false,
			BlueHue = 0,
			BlueSaturation = 0,
			Brightness = -14,
			CameraProfile = "ACR 2.4",
			ChromaticAberrationB = 0,
			ChromaticAberrationR = 0,
			Clarity = 40,
			ColorNoiseReduction = 28,
			Contrast = 7,
			ConvertToGrayscale = false,
			Defringe = 0,
			EnableCalibration = true,
			EnableColorAdjustments = true,
			EnableDetail = true,
			EnableGradientBasedCorrections = true,
			EnableGrayscaleMix = true,
			EnableSplitToning = true,
			EnableVignettes = true,
			Exposure = -0.1,
			FillLight = 6,
			GreenHue = 0,
			GreenSaturation = 0,
			HighlightRecovery = 25,
			HueAdjustmentAqua = 7,
			HueAdjustmentBlue = 23,
			HueAdjustmentGreen = 0,
			HueAdjustmentMagenta = -15,
			HueAdjustmentOrange = 32,
			HueAdjustmentPurple = -9,
			HueAdjustmentRed = -23,
			HueAdjustmentYellow = -26,
			IncrementalTemperature = 21,
			IncrementalTint = -52,
			LuminanceAdjustmentAqua = -60,
			LuminanceAdjustmentBlue = -55,
			LuminanceAdjustmentGreen = -7,
			LuminanceAdjustmentMagenta = -13,
			LuminanceAdjustmentOrange = -13,
			LuminanceAdjustmentPurple = -28,
			LuminanceAdjustmentRed = -2,
			LuminanceAdjustmentYellow = -13,
			LuminanceSmoothing = 0,
			ParametricDarks = -27,
			ParametricHighlightSplit = 75,
			ParametricHighlights = -30,
			ParametricLights = 0,
			ParametricMidtoneSplit = 50,
			ParametricShadowSplit = 25,
			ParametricShadows = 0,
			PostCropVignetteAmount = -17,
			PostCropVignetteFeather = 100,
			PostCropVignetteMidpoint = 0,
			PostCropVignetteRoundness = -33,
			RedHue = 0,
			RedSaturation = 0,
			Saturation = -21,
			SaturationAdjustmentAqua = 69,
			SaturationAdjustmentBlue = 86,
			SaturationAdjustmentGreen = -55,
			SaturationAdjustmentMagenta = 15,
			SaturationAdjustmentOrange = 38,
			SaturationAdjustmentPurple = 32,
			SaturationAdjustmentRed = -2,
			SaturationAdjustmentYellow = 26,
			ShadowTint = 0,
			Shadows = 4,
			SharpenDetail = 50,
			SharpenEdgeMasking = 0,
			SharpenRadius = 1,
			Sharpness = 0,
			SplitToningBalance = 85,
			SplitToningHighlightHue = 0,
			SplitToningHighlightSaturation = 0,
			SplitToningShadowHue = 360,
			SplitToningShadowSaturation = 67,
			ToneCurve = {
				0,
				0,
				255,
				255,
			},
			ToneCurveName = "Linear",
			Vibrance = -5,
			VignetteAmount = -100,
			VignetteMidpoint = 20,
			WhiteBalance = "Custom",
		},
		uuid = "CF30201B-A906-450D-BAEE-7E1D9079D76E",
	},
	version = 0,
}
