CM - Wedding Lightroom Presets Bundle HQ 323529/Presets Bundle/Vintage Wedding Lightroom Presets by BeArt/beart-Vintage Warm Tone.lrtemplate
s = {
	id = "99782DE5-ECA4-4CE7-87B2-3151F2802F43",
	internalName = "beart-Vintage Warm Tone",
	title = "beart-Vintage Warm Tone",
	type = "Develop",
	value = {
		settings = {
			AutoLateralCA = 0,
			Blacks2012 = 0,
			BlueHue = 0,
			BlueSaturation = 0,
			CameraProfile = "Embedded",
			ChromaticAberrationB = 0,
			ChromaticAberrationR = 0,
			Clarity2012 = 19,
			ColorNoiseReduction = 10,
			ColorNoiseReductionDetail = 50,
			ColorNoiseReductionSmoothness = 50,
			Contrast2012 = 0,
			ConvertToGrayscale = false,
			CropConstrainToWarp = 0,
			Defringe = 0,
			DefringeGreenAmount = 0,
			DefringeGreenHueHi = 60,
			DefringeGreenHueLo = 40,
			DefringePurpleAmount = 0,
			DefringePurpleHueHi = 70,
			DefringePurpleHueLo = 30,
			EnableCalibration = true,
			EnableCircularGradientBasedCorrections = true,
			EnableColorAdjustments = true,
			EnableDetail = true,
			EnableEffects = true,
			EnableGradientBasedCorrections = true,
			EnableLensCorrections = true,
			EnableSplitToning = true,
			Exposure2012 = 0,
			GrainAmount = 0,
			GrainFrequency = 50,
			GrainSize = 25,
			GreenHue = 0,
			GreenSaturation = 0,
			Highlights2012 = -52,
			HueAdjustmentAqua = 0,
			HueAdjustmentBlue = 0,
			HueAdjustmentGreen = 0,
			HueAdjustmentMagenta = 0,
			HueAdjustmentOrange = 0,
			HueAdjustmentPurple = 0,
			HueAdjustmentRed = 0,
			HueAdjustmentYellow = 0,
			LensManualDistortionAmount = 0,
			LensProfileEnable = 0,
			LensProfileSetup = "LensDefaults",
			LuminanceAdjustmentAqua = 0,
			LuminanceAdjustmentBlue = 0,
			LuminanceAdjustmentGreen = 0,
			LuminanceAdjustmentMagenta = 0,
			LuminanceAdjustmentOrange = 0,
			LuminanceAdjustmentPurple = 0,
			LuminanceAdjustmentRed = 0,
			LuminanceAdjustmentYellow = 0,
			LuminanceNoiseReductionContrast = 0,
			LuminanceNoiseReductionDetail = 50,
			LuminanceSmoothing = 17,
			ParametricDarks = 0,
			ParametricHighlightSplit = 75,
			ParametricHighlights = 0,
			ParametricLights = 0,
			ParametricMidtoneSplit = 50,
			ParametricShadowSplit = 25,
			ParametricShadows = 0,
			PerspectiveAspect = 0,
			PerspectiveHorizontal = 0,
			PerspectiveRotate = 0,
			PerspectiveScale = 100,
			PerspectiveVertical = 0,
			PostCropVignetteAmount = -7,
			PostCropVignetteFeather = 50,
			PostCropVignetteHighlightContrast = 0,
			PostCropVignetteMidpoint = 50,
			PostCropVignetteRoundness = 0,
			PostCropVignetteStyle = 1,
			ProcessVersion = "6.7",
			RedHue = 0,
			RedSaturation = 0,
			Saturation = -17,
			SaturationAdjustmentAqua = 0,
			SaturationAdjustmentBlue = -11,
			SaturationAdjustmentGreen = 0,
			SaturationAdjustmentMagenta = 0,
			SaturationAdjustmentOrange = -24,
			SaturationAdjustmentPurple = 0,
			SaturationAdjustmentRed = 0,
			SaturationAdjustmentYellow = -29,
			ShadowTint = 0,
			Shadows2012 = 52,
			SharpenDetail = 24,
			SharpenEdgeMasking = 0,
			SharpenRadius = 0.9,
			Sharpness = 9,
			SplitToningBalance = 2,
			SplitToningHighlightHue = 32,
			SplitToningHighlightSaturation = 25,
			SplitToningShadowHue = 202,
			SplitToningShadowSaturation = 0,
			ToneCurveName2012 = "Custom",
			ToneCurvePV2012 = {
				0,
				26,
				255,
				224,
			},
			ToneCurvePV2012Blue = {
				0,
				0,
				255,
				255,
			},
			ToneCurvePV2012Green = {
				0,
				0,
				255,
				255,
			},
			ToneCurvePV2012Red = {
				0,
				0,
				255,
				255,
			},
			Vibrance = 29,
			VignetteAmount = 0,
			VignetteMidpoint = 50,
			WhiteBalance = "As Shot",
			Whites2012 = 0,
			orientation = "AB",
		},
		uuid = "54CE6A1C-7B4F-4906-9E14-A8B8834C8A57",
	},
	version = 0,
}
