Era-Joe-Lightroom-Presets/Era & Joe Lightroom Presets/EJPreset - 8.lrtemplate
s = {
	id = "A5B2646F-2DC6-48BF-B9A2-B1088F12ABBE",
	internalName = "EJPreset - 8",
	title = "EJPreset - 8",
	type = "Develop",
	value = {
		settings = {
			AutoLateralCA = 0,
			Blacks2012 = -48,
			BlueHue = -66,
			BlueSaturation = 7,
			CameraProfile = "Adobe Standard",
			ChromaticAberrationB = 0,
			ChromaticAberrationR = 0,
			Clarity2012 = 39,
			ColorNoiseReduction = 25,
			ColorNoiseReductionDetail = 50,
			ColorNoiseReductionSmoothness = 50,
			Contrast2012 = -30,
			ConvertToGrayscale = false,
			Defringe = 0,
			DefringeGreenAmount = 0,
			DefringeGreenHueHi = 60,
			DefringeGreenHueLo = 40,
			DefringePurpleAmount = 0,
			DefringePurpleHueHi = 70,
			DefringePurpleHueLo = 30,
			EnableCalibration = true,
			EnableColorAdjustments = true,
			EnableDetail = true,
			EnableLensCorrections = true,
			EnableSplitToning = true,
			Exposure2012 = 0.97,
			GreenHue = -68,
			GreenSaturation = 75,
			Highlights2012 = -100,
			HueAdjustmentAqua = -7,
			HueAdjustmentBlue = -19,
			HueAdjustmentGreen = 7,
			HueAdjustmentMagenta = 0,
			HueAdjustmentOrange = -40,
			HueAdjustmentPurple = 0,
			HueAdjustmentRed = 22,
			HueAdjustmentYellow = -67,
			IncrementalTemperature = -9,
			IncrementalTint = -42,
			LuminanceAdjustmentAqua = 0,
			LuminanceAdjustmentBlue = -9,
			LuminanceAdjustmentGreen = 0,
			LuminanceAdjustmentMagenta = 28,
			LuminanceAdjustmentOrange = -19,
			LuminanceAdjustmentPurple = 0,
			LuminanceAdjustmentRed = 70,
			LuminanceAdjustmentYellow = 0,
			LuminanceNoiseReductionContrast = 0,
			LuminanceNoiseReductionDetail = 50,
			LuminanceSmoothing = 0,
			ParametricDarks = 0,
			ParametricHighlightSplit = 75,
			ParametricHighlights = 0,
			ParametricLights = 0,
			ParametricMidtoneSplit = 50,
			ParametricShadowSplit = 25,
			ParametricShadows = 0,
			ProcessVersion = "6.7",
			RedHue = 43,
			RedSaturation = -84,
			Saturation = -34,
			SaturationAdjustmentAqua = 0,
			SaturationAdjustmentBlue = -40,
			SaturationAdjustmentGreen = 0,
			SaturationAdjustmentMagenta = 0,
			SaturationAdjustmentOrange = 21,
			SaturationAdjustmentPurple = 0,
			SaturationAdjustmentRed = -49,
			SaturationAdjustmentYellow = 0,
			ShadowTint = 34,
			Shadows2012 = 52,
			SharpenDetail = 25,
			SharpenEdgeMasking = 0,
			SharpenRadius = 0.5,
			Sharpness = 36,
			SplitToningBalance = -20,
			SplitToningHighlightHue = 57,
			SplitToningHighlightSaturation = 9,
			SplitToningShadowHue = 192,
			SplitToningShadowSaturation = 7,
			ToneCurveName2012 = "Custom",
			ToneCurvePV2012 = {
				0,
				30,
				71,
				50,
				200,
				174,
				255,
				200,
			},
			ToneCurvePV2012Blue = {
				0,
				0,
				77,
				61,
				197,
				199,
				255,
				255,
			},
			ToneCurvePV2012Green = {
				0,
				0,
				63,
				52,
				200,
				201,
				255,
				255,
			},
			ToneCurvePV2012Red = {
				0,
				0,
				63,
				56,
				213,
				210,
				231,
				228,
				255,
				255,
			},
			Vibrance = 36,
			VignetteAmount = 0,
			VignetteMidpoint = 50,
			WhiteBalance = "Custom",
			Whites2012 = 25,
		},
		uuid = "6AD13D42-3208-489D-BE90-F8A97DAF2E5C",
	},
	version = 0,
}
