Era-Joe-Lightroom-Presets/Era & Joe Lightroom Presets/EJPreset - 1.lrtemplate
s = {
	id = "3C539ACA-43A3-469A-AB13-760E3D595733",
	internalName = "EJPreset - 1",
	title = "EJPreset - 1",
	type = "Develop",
	value = {
		settings = {
			AutoLateralCA = 0,
			Blacks2012 = 20,
			BlueHue = 0,
			BlueSaturation = -90,
			CameraProfile = "Camera Standard v4",
			ChromaticAberrationB = 0,
			ChromaticAberrationR = 0,
			Clarity2012 = 15,
			ColorNoiseReduction = 25,
			ColorNoiseReductionDetail = 50,
			ColorNoiseReductionSmoothness = 50,
			Contrast2012 = -51,
			ConvertToGrayscale = false,
			Defringe = 0,
			DefringeGreenAmount = 0,
			DefringeGreenHueHi = 60,
			DefringeGreenHueLo = 40,
			DefringePurpleAmount = 0,
			DefringePurpleHueHi = 70,
			DefringePurpleHueLo = 30,
			EnableCalibration = true,
			EnableColorAdjustments = true,
			EnableDetail = true,
			EnableLensCorrections = true,
			EnableSplitToning = true,
			Exposure2012 = 0.49,
			GreenHue = 0,
			GreenSaturation = 44,
			Highlights2012 = -49,
			HueAdjustmentAqua = 0,
			HueAdjustmentBlue = 0,
			HueAdjustmentGreen = 0,
			HueAdjustmentMagenta = 0,
			HueAdjustmentOrange = 0,
			HueAdjustmentPurple = 0,
			HueAdjustmentRed = 5,
			HueAdjustmentYellow = 0,
			LuminanceAdjustmentAqua = -31,
			LuminanceAdjustmentBlue = -18,
			LuminanceAdjustmentGreen = -27,
			LuminanceAdjustmentMagenta = 38,
			LuminanceAdjustmentOrange = 29,
			LuminanceAdjustmentPurple = 11,
			LuminanceAdjustmentRed = 13,
			LuminanceAdjustmentYellow = 15,
			LuminanceNoiseReductionContrast = 0,
			LuminanceNoiseReductionDetail = 50,
			LuminanceSmoothing = 20,
			ParametricDarks = 0,
			ParametricHighlightSplit = 75,
			ParametricHighlights = 0,
			ParametricLights = 0,
			ParametricMidtoneSplit = 50,
			ParametricShadowSplit = 25,
			ParametricShadows = 0,
			ProcessVersion = "6.7",
			RedHue = 0,
			RedSaturation = 56,
			Saturation = -32,
			SaturationAdjustmentAqua = -11,
			SaturationAdjustmentBlue = -29,
			SaturationAdjustmentGreen = 9,
			SaturationAdjustmentMagenta = 0,
			SaturationAdjustmentOrange = 22,
			SaturationAdjustmentPurple = -16,
			SaturationAdjustmentRed = 4,
			SaturationAdjustmentYellow = 27,
			ShadowTint = 8,
			Shadows2012 = 61,
			SharpenDetail = 30,
			SharpenEdgeMasking = 20,
			SharpenRadius = 1.5,
			Sharpness = 50,
			SplitToningBalance = 0,
			SplitToningHighlightHue = 43,
			SplitToningHighlightSaturation = 18,
			SplitToningShadowHue = 47,
			SplitToningShadowSaturation = 35,
			ToneCurveName2012 = "Custom",
			ToneCurvePV2012 = {
				0,
				20,
				35,
				30,
				68,
				47,
				181,
				214,
				209,
				225,
				255,
				236,
			},
			ToneCurvePV2012Blue = {
				0,
				15,
				124,
				133,
				198,
				206,
				255,
				250,
			},
			ToneCurvePV2012Green = {
				0,
				0,
				255,
				255,
			},
			ToneCurvePV2012Red = {
				0,
				0,
				255,
				255,
			},
			Vibrance = -12,
			VignetteAmount = 0,
			VignetteMidpoint = 31,
			WhiteBalance = "As Shot",
			Whites2012 = -46,
		},
		uuid = "9C82FC31-A0C2-4CEB-A458-BDF21462A9CB",
	},
	version = 0,
}
